%
(2(1)-3.NC)
(Date:Sun May 31 10:46:22 2020)
(Machine:mill_3axis FANUC)
(Help QQ:342375517 Tel/vx:18768801158 Created by:Wangrunkai)
N10   
G40 G17 G49 G80
G91 G30 Z0.0
T01 M06
(Name:M63 Number:1)
(D=63.00)
(Stock_part=0.00)
G00 G90 G54 X-136.94 Y49. M03 S900
G43 Z10. H01
M08
Z3.
G01 Z0.0 F1000.
X-74.
X74.
Y24.5
X-74.
Y0.0
X74.
Y-24.5
X-74.
Y-49.
X74.
X136.94
Z3.
G00 Z10.
M09
M05
M01
G91 G30 Z0.0
N20   
G40 G17 G49 G80
T03 M06
(Name:M8 Number:3)
(D=8.00)
(Stock_part=0.30)
G00 G90 G54 X-69.363 Y56.94 M03 S3000
G43 Z10. H03
M08
Z1.
G01 Z-2. F1200.
X-74.381 Y52.922
G03 X-77.817 Y49.976 I42.381 J-52.922
X-77.94 Y49. I3.817 J-.976
G01 Y44.271
G02 X-67.606 Y52.94 I45.94 J-44.271
G01 X-59.81
G03 X-77.94 Y38.283 I27.81 J-52.94
G01 Y31.673
G02 X-49.635 Y52.94 I45.94 J-31.673
G01 X-45.84 Y54.204
Y56.94
Z1.
G00 Z10.
X-81.94 Y-46.197
Z1.
G01 Z-2.
X-77.817 Y-49.976
G03 X-74.381 Y-52.922 I45.817 J49.976
X-74. Y-52.94 I.381 J3.922
G01 X-67.606
G02 X-77.94 Y-44.271 I35.606 J52.94
G01 Y-38.283
G03 X-59.81 Y-52.94 I45.94 J38.283
G01 X-49.635
G02 X-77.94 Y-31.673 I17.635 J52.94
G01 X-81.94 Y-25.871
Z1.
G00 Z10.
X81.94 Y42.194
Z1.
G01 Z-2.
X77.94 Y46.042
G03 X68.232 Y52.94 I-27.94 J-29.042
G01 X60.347 Y56.94
Z1.
G00 Z10.
X51.139
Z1.
G01 Z-2.
Y53.502
X55.1 Y52.94
G02 X77.94 Y40.174 I-5.1 J-35.94
G01 X81.94 Y35.352
Z1.
G00 Z10.
X-2.341 Y56.94
Z1.
G01 Z-2.
X3.606 Y52.94
G02 X4.292 Y52.472 I-35.606 J-52.94
X6.9 Y52.94 I7.708 J-35.472
G01 X10.861 Y53.502
Y56.94
Z1.
G00 Z10.
X81.94 Y26.31
Z1.
G01 Z-2.
X77.94 Y33.206
G03 X50. Y49.3 I-27.94 J-16.206
G01 X12.
G03 X3.462 Y48.151 I0.0 J-32.3
X-4.19 Y52.94 I-35.462 J-48.151
G01 X-14.365
G02 X2.674 Y43.719 I-17.635 J-52.94
X12. Y45.3 I9.326 J-26.719
G01 X50.
G02 X77.94 Y21.5 I0.0 J-28.3
G01 X78.576 Y17.55
X81.94
Z1.
G00 Z10.
Y-15.917
Z1.
G01 Z-2.
X77.94 Y-10.526
G03 X77.361 Y-9.769 I-25.94 J-19.246
G02 X76.976 Y-.765 I6.046 J4.769
G03 X77.94 Y.794 I-26.976 J17.765
G01 Y12.5
G02 X73.635 Y1.435 I-27.94 J4.5
G03 X74.22 Y-12.246 I9.771 J-6.435
G02 X77.94 Y-18.457 I-22.22 J-17.526
G01 X81.94 Y-27.628
Z1.
G00 Z10.
X70.052 Y-56.94
Z1.
G01 Z-2.
X72.568 Y-52.94
G03 X76.3 Y-40. I-20.568 J12.94
G01 Y-29.771
G03 X71.08 Y-14.723 I-24.3 J0.0
G02 X70.295 Y3.635 I12.327 J9.723
G03 X50. Y41.3 I-20.295 J13.365
G01 X12.
G03 X1.949 Y39.124 I0.0 J-24.3
X-77.94 Y23.932 I-33.949 J-39.124
G01 Y13.204
G02 X1.326 Y34.267 I45.94 J-13.204
X12. Y37.3 I10.674 J-17.267
G01 X50.
G02 X66.954 Y5.835 I0.0 J-20.3
G03 X67.939 Y-17.2 I16.453 J-10.835
G02 X72.3 Y-29.771 I-15.939 J-12.572
G01 Y-40.
G02 X67.641 Y-52.94 I-20.3 J0.0
G01 X64.332 Y-56.94
Z1.
G00 Z10.
X-11.112
Z1.
G01 Z-2.
X-13.168 Y-52.94
G02 X-13.346 Y-52.589 I25.168 J12.94
X-14.365 Y-52.94 I-18.654 J52.589
G01 X-18.16 Y-54.204
Y-56.94
Z1.
G00 Z10.
X-81.94 Y-16.254
Z1.
G01 Z-2.
X-77.94 Y-23.932
G03 X-11.141 Y-47.415 I45.94 J23.932
X-8.568 Y-52.94 I23.141 J7.415
G01 X-3.641
G02 X-8.246 Y-41.48 I15.641 J12.94
X-77.94 Y-13.204 I-23.754 J41.48
G01 X-79.045 Y-9.36
X-81.94
Z1.
G00 Z10.
X56.69 Y-56.94
Z1.
G01 Z-2.
X61.912 Y-52.94
G03 X68.3 Y-40. I-9.912 J12.94
G01 Y-29.771
G03 X64.798 Y-19.677 I-16.3 J0.0
G02 X63.613 Y8.035 I18.608 J14.677
G03 X50. Y33.3 I-13.613 J8.965
G01 X12.
G03 X.889 Y28.926 I0.0 J-16.3
X-4.3 Y-33.929 I-32.889 J-28.926
G01 Y-40.
G03 X2.088 Y-52.94 I16.3 J0.0
G01 X4.52 Y-49.765
G02 X-.3 Y-40. I7.48 J9.765
G01 Y-24.066
G02 X.928 Y22.356 I-31.7 J24.066
X12. Y29.3 I11.072 J-5.356
G01 X50.
G02 X60.273 Y10.235 I0.0 J-12.3
G03 X61.658 Y-22.154 I23.134 J-15.235
G02 X64.3 Y-29.771 I-9.658 J-7.617
G01 Y-40.
G02 X52. Y-52.3 I-12.3 J0.0
G01 X12.
G02 X4.52 Y-49.765 I0.0 J12.3
G01 X6.953 Y-46.589
G02 X3.7 Y-40. I5.047 J6.589
G01 Y-2.674
G02 Y2.674 I-35.7 J2.674
G01 X-.289 Y2.375
G02 I-31.711 J-2.375
G01 X3.7 Y2.674
Y17.
G02 X12. Y25.3 I8.3 J0.0
G01 X50.
G02 X56.932 Y12.435 I0.0 J-8.3
G03 X58.517 Y-24.631 I26.475 J-17.435
G02 X60.3 Y-29.771 I-6.517 J-5.14
G01 Y-40.
G02 X52. Y-48.3 I-8.3 J0.0
G01 X12.
G02 X6.953 Y-46.589 I0.0 J8.3
G01 X9.385 Y-43.414
G02 X7.7 Y-40. I2.615 J3.414
G01 Y17.
G02 X12. Y21.3 I4.3 J0.0
G01 X50.
G02 X53.591 Y14.635 I0.0 J-4.3
G03 X55.376 Y-27.109 I29.815 J-19.635
G02 X56.3 Y-29.771 I-3.376 J-2.663
G01 Y-40.
G02 X52. Y-44.3 I-4.3 J0.0
G01 X12.
G02 X9.385 Y-43.414 I0.0 J4.3
G01 X6.953 Y-46.589
Y-56.94
Z1.
G00 Z10.
X-29.004 Y.462
Z3.
G03 X-32.398 Y-1.162 Z-2. I-3.022 J1.957
G02 X-32.148 Y-1.191 I-1.272 J-12.234
G03 X-31.852 I.148 J1.191
G02 X-31.352 Y-1.139 I1.522 J-12.206
G03 X-30.255 Y-.424 I-.115 J1.375
X-30.208 Y1.478 I-1.83 J.996
X-30.763 Y2.21 I-2.093 J-1.009
X-31.431 Y2.639 I-1.735 J-1.964
X-32.569 I-.569 J-2.639
X-33.238 Y2.209 I1.067 J-2.394
X-33.792 Y1.477 I1.539 J-1.741
X-33.745 Y-.424 I1.877 J-.905
X-32.648 Y-1.139 I1.211 J.66
G02 X-32.398 Y-1.162 I-1.022 J-12.257
G01 X-32.812 Y-5.141
X-32.643 Y-5.16
G03 X-31.357 I.643 J5.16
G02 X-31.019 Y-5.125 I1.027 J-8.236
G03 X-26.741 Y-2.336 I-.447 J5.361
X-26.605 Y3.215 I-5.344 J2.908
X-28.114 Y5.207 I-5.696 J-2.747
X-30.187 Y6.45 I-4.384 J-4.962
X-33.813 I-1.813 J-6.45
X-35.886 Y5.207 I2.311 J-6.205
X-37.395 Y3.214 I4.187 J-4.738
X-37.258 Y-2.336 I5.48 J-2.641
X-32.981 Y-5.125 I4.725 J2.572
G01 X-32.812 Y-5.141
X-33.225 Y-9.119
X-33.138 Y-9.129
G03 X-30.862 I1.138 J9.129
G01 X-30.687 Y-9.111
G03 X-23.228 Y-4.248 I-.779 J9.347
X-23.003 Y4.953 I-8.857 J4.821
X-25.466 Y8.205 I-9.298 J-4.485
X-28.946 Y10.255 I-7.032 J-7.96
X-35.054 I-3.054 J-10.255
X-38.535 Y8.204 I3.552 J-10.009
X-40.999 Y4.951 I6.836 J-7.736
X-40.771 Y-4.249 I9.084 J-4.378
X-33.313 Y-9.111 I8.238 J4.485
G01 X-33.225 Y-9.119
X-32.812 Y-5.141
Z1.
G00 Z10.
X-32.172 Y-1.179
Z1.
G03 X-32.398 Y-1.162 Z-5. I.146 J3.597
G02 X-32.148 Y-1.191 I-1.272 J-12.234
G03 X-31.852 I.148 J1.191
G02 X-31.352 Y-1.139 I1.522 J-12.206
G03 X-30.255 Y-.424 I-.115 J1.375
X-30.208 Y1.478 I-1.83 J.996
X-30.763 Y2.21 I-2.093 J-1.009
X-31.431 Y2.639 I-1.735 J-1.964
X-32.569 I-.569 J-2.639
X-33.238 Y2.209 I1.067 J-2.394
X-33.792 Y1.477 I1.539 J-1.741
X-33.745 Y-.424 I1.877 J-.905
X-32.648 Y-1.139 I1.211 J.66
G02 X-32.398 Y-1.162 I-1.022 J-12.257
G01 X-32.812 Y-5.141
X-32.643 Y-5.16
G03 X-31.357 I.643 J5.16
G02 X-31.019 Y-5.125 I1.027 J-8.236
G03 X-26.741 Y-2.336 I-.447 J5.361
X-26.605 Y3.215 I-5.344 J2.908
X-28.114 Y5.207 I-5.696 J-2.747
X-30.187 Y6.45 I-4.384 J-4.962
X-33.813 I-1.813 J-6.45
X-35.886 Y5.207 I2.311 J-6.205
X-37.395 Y3.214 I4.187 J-4.738
X-37.258 Y-2.336 I5.48 J-2.641
X-32.981 Y-5.125 I4.725 J2.572
G01 X-32.812 Y-5.141
X-33.225 Y-9.119
X-33.138 Y-9.129
G03 X-30.862 I1.138 J9.129
G01 X-30.687 Y-9.111
G03 X-23.228 Y-4.248 I-.779 J9.347
X-23.003 Y4.953 I-8.857 J4.821
X-25.466 Y8.205 I-9.298 J-4.485
X-28.946 Y10.255 I-7.032 J-7.96
X-35.054 I-3.054 J-10.255
X-38.535 Y8.204 I3.552 J-10.009
X-40.999 Y4.951 I6.836 J-7.736
X-40.771 Y-4.249 I9.084 J-4.378
X-33.313 Y-9.111 I8.238 J4.485
G01 X-33.225 Y-9.119
X-32.812 Y-5.141
Z-2.
G00 Z10.
X-69.363 Y56.94
Z-2.
G01 Z-5.
X-74.381 Y52.922
G03 X-77.817 Y49.976 I42.381 J-52.922
X-77.94 Y49. I3.817 J-.976
G01 Y44.271
G02 X-67.606 Y52.94 I45.94 J-44.271
G01 X-59.81
G03 X-77.94 Y38.283 I27.81 J-52.94
G01 Y31.673
G02 X-49.635 Y52.94 I45.94 J-31.673
G01 X-45.84 Y54.204
Y56.94
Z-2.
G00 Z10.
X-81.94 Y-46.197
Z-2.
G01 Z-5.
X-77.817 Y-49.976
G03 X-74.381 Y-52.922 I45.817 J49.976
X-74. Y-52.94 I.381 J3.922
G01 X-67.606
G02 X-77.94 Y-44.271 I35.606 J52.94
G01 Y-38.283
G03 X-59.81 Y-52.94 I45.94 J38.283
G01 X-49.635
G02 X-77.94 Y-31.673 I17.635 J52.94
G01 X-81.94 Y-25.871
Z-2.
G00 Z10.
X81.94 Y42.194
Z-2.
G01 Z-5.
X77.94 Y46.042
G03 X68.232 Y52.94 I-27.94 J-29.042
G01 X60.347 Y56.94
Z-2.
G00 Z10.
X51.139
Z-2.
G01 Z-5.
Y53.502
X55.1 Y52.94
G02 X77.94 Y40.174 I-5.1 J-35.94
G01 X81.94 Y35.352
Z-2.
G00 Z10.
X-2.341 Y56.94
Z-2.
G01 Z-5.
X3.606 Y52.94
G02 X4.292 Y52.472 I-35.606 J-52.94
X6.9 Y52.94 I7.708 J-35.472
G01 X10.861 Y53.502
Y56.94
Z-2.
G00 Z10.
X81.94 Y26.31
Z-2.
G01 Z-5.
X77.94 Y33.206
G03 X50. Y49.3 I-27.94 J-16.206
G01 X12.
G03 X3.462 Y48.151 I0.0 J-32.3
X-4.19 Y52.94 I-35.462 J-48.151
G01 X-14.365
G02 X2.674 Y43.719 I-17.635 J-52.94
X12. Y45.3 I9.326 J-26.719
G01 X50.
G02 X75.214 Y29.851 I0.0 J-28.3
X77.94 Y28.038 I-21.214 J-34.851
G01 Y22.948
G03 X72.138 Y27.019 I-23.94 J-27.948
X50. Y41.3 I-22.138 J-10.019
G01 X12.
G03 X1.949 Y39.124 I0.0 J-24.3
X-77.94 Y23.932 I-33.949 J-39.124
G01 Y13.204
G02 X1.326 Y34.267 I45.94 J-13.204
X12. Y37.3 I10.674 J-17.267
G01 X50.
G02 X68.99 Y24.174 I0.0 J-20.3
X77.94 Y17.421 I-14.99 J-29.174
G01 X81.94 Y13.15
Z-2.
G00 Z10.
X-11.112 Y-56.94
Z-2.
G01 Z-5.
X-13.168 Y-52.94
G02 X-13.346 Y-52.589 I25.168 J12.94
X-14.365 Y-52.94 I-18.654 J52.589
G01 X-18.16 Y-54.204
Y-56.94
Z-2.
G00 Z10.
X-81.94 Y-16.254
Z-2.
G01 Z-5.
X-77.94 Y-23.932
G03 X-11.141 Y-47.415 I45.94 J23.932
X-8.568 Y-52.94 I23.141 J7.415
G01 X-3.641
G02 X-8.246 Y-41.48 I15.641 J12.94
X-77.94 Y-13.204 I-23.754 J41.48
G01 X-79.045 Y-9.36
X-81.94
Z-2.
G00 Z10.
X70.052 Y-56.94
Z-2.
G01 Z-5.
X72.568 Y-52.94
G03 X76.3 Y-40. I-20.568 J12.94
G01 Y-34.274
G03 X77.94 Y-32.948 I-22.3 J29.274
G01 Y-27.421
G02 X72.3 Y-32.22 I-23.94 J22.421
G01 Y-40.
G02 X67.641 Y-52.94 I-20.3 J0.0
G01 X61.912
G03 X68.3 Y-40. I-9.912 J12.94
G01 Y-29.999
G03 X77.94 Y-21.01 I-14.3 J24.999
G01 X81.94 Y-15.029
Z-2.
G00 Z10.
Y5.029
Z-2.
G01 Z-5.
X77.94 Y11.01
G03 X65.721 Y21.307 I-23.94 J-16.01
X50. Y33.3 I-15.721 J-4.307
G01 X12.
G03 X.889 Y28.926 I0.0 J-16.3
X-4.3 Y-33.929 I-32.889 J-28.926
G01 Y-40.
G03 X2.088 Y-52.94 I16.3 J0.0
G01 X7.31 Y-56.94
Z-2.
G00 Z10.
X81.94 Y-7.613
Z-2.
G01 Z-5.
X78.984
X77.94 Y-11.474
G02 X64.115 Y-27.644 I-23.94 J6.474
X64.3 Y-29.771 I-12.115 J-2.128
G01 Y-40.
G02 X52. Y-52.3 I-12.3 J0.0
G01 X12.
G02 X-.3 Y-40. I0.0 J12.3
G01 Y-24.066
G02 X.928 Y22.356 I-31.7 J24.066
X12. Y29.3 I11.072 J-5.356
G01 X50.
G02 X62.22 Y18.398 I0.0 J-12.3
X77.94 Y1.474 I-8.22 J-23.398
G01 X74.079 Y.43
G02 X58.932 Y-25.207 I-20.079 J-5.43
X60.3 Y-29.771 I-6.932 J-4.565
G01 Y-40.
G02 X52. Y-48.3 I-8.3 J0.0
G01 X12.
G02 X3.7 Y-40. I0.0 J8.3
G01 Y-2.674
G02 Y2.674 I-35.7 J2.674
G01 X-.289 Y2.375
G02 I-31.711 J-2.375
G01 X3.7 Y2.674
Y17.
G02 X12. Y25.3 I8.3 J0.0
G01 X50.
G02 X58.141 Y15.384 I0.0 J-8.3
X74.079 Y.43 I-4.141 J-20.384
G01 X70.217 Y-.614
G02 X53.119 Y-21.777 I-16.217 J-4.386
G03 X52.475 Y-22.825 I-.037 J-.699
X55.376 Y-27.109 I30.931 J17.825
G02 X56.3 Y-29.771 I-3.376 J-2.663
G01 Y-40.
G02 X52. Y-44.3 I-4.3 J0.0
G01 X12.
G02 X7.7 Y-40. I0.0 J4.3
G01 Y17.
G02 X12. Y21.3 I4.3 J0.0
G01 X50.
G02 X53.591 Y14.635 I0.0 J-4.3
G03 X52.475 Y12.826 I29.815 J-19.635
X53.119 Y11.777 I.606 J-.35
G02 X70.217 Y-.614 I.881 J-16.777
G01 X74.079 Y.43
X81.94
Z-2.
G00 Z10.
X54.588 Y-5.38
Z1.
G03 X54.588 Y-5.38 Z-.179 I-.588 J.38
X54.588 Y-5.38 Z-1.357 I-.588 J.38
X54.588 Y-5.38 Z-2.536 I-.588 J.38
X54.588 Y-5.38 Z-3.714 I-.588 J.38
X54.588 Y-5.38 Z-4.893 I-.588 J.38
X54.7 Y-5. Z-5. I-.588 J.38
I-.7 J0.0
G01 Z-2.
G00 Z10.
X54.588 Y-5.38
Z-2.
G03 X54.588 Y-5.38 Z-3.179 I-.588 J.38
X54.588 Y-5.38 Z-4.357 I-.588 J.38
X54.588 Y-5.38 Z-5.536 I-.588 J.38
X54.588 Y-5.38 Z-6.714 I-.588 J.38
X54.588 Y-5.38 Z-7.893 I-.588 J.38
X54.7 Y-5. Z-8. I-.588 J.38
I-.7 J0.0
G01 Z-5.
G00 Z10.
X-69.363 Y56.94
Z-5.
G01 Z-8.
X-74.381 Y52.922
G03 X-77.817 Y49.976 I42.381 J-52.922
X-77.94 Y49. I3.817 J-.976
G01 Y44.271
G02 X-67.606 Y52.94 I45.94 J-44.271
G01 X-59.81
G03 X-77.94 Y38.283 I27.81 J-52.94
G01 Y31.673
G02 X-49.635 Y52.94 I45.94 J-31.673
G01 X-45.84 Y54.204
Y56.94
Z-5.
G00 Z10.
X-81.94 Y-46.197
Z-5.
G01 Z-8.
X-77.817 Y-49.976
G03 X-74.381 Y-52.922 I45.817 J49.976
X-74. Y-52.94 I.381 J3.922
G01 X-67.606
G02 X-77.94 Y-44.271 I35.606 J52.94
G01 Y-38.283
G03 X-59.81 Y-52.94 I45.94 J38.283
G01 X-49.635
G02 X-77.94 Y-31.673 I17.635 J52.94
G01 X-81.94 Y-25.871
Z-5.
G00 Z10.
X71.462 Y56.94
Z-5.
G01 Z-8.
X75.862 Y52.472
G02 X77.621 Y50.554 I-25.862 J-25.472
X77.94 Y49. I-3.621 J-1.554
G01 Y43.206
G03 X69.246 Y52.94 I-27.94 J-16.206
G01 X61.314
G02 X77.94 Y31.5 I-11.314 J-25.94
G01 X78.576 Y27.55
X81.94
Z-5.
G00 Z10.
X-18.16 Y56.94
Z-5.
G01 Z-8.
Y54.204
X-14.365 Y52.94
G02 X-5.601 Y49.16 I-17.635 J-52.94
X.686 Y52.94 I17.601 J-22.16
G01 X9.857 Y56.94
Z-5.
G00 Z10.
X-11.112 Y-56.94
Z-5.
G01 Z-8.
X-13.168 Y-52.94
G02 X-13.346 Y-52.589 I25.168 J12.94
X-14.365 Y-52.94 I-18.654 J52.589
G01 X-18.16 Y-54.204
Y-56.94
Z-5.
G00 Z10.
X-81.94 Y-16.254
Z-5.
G01 Z-8.
X-77.94 Y-23.932
G03 X-11.141 Y-47.415 I45.94 J23.932
X-8.568 Y-52.94 I23.141 J7.415
G01 X-3.641
G02 X-8.246 Y-41.48 I15.641 J12.94
X-77.94 Y-13.204 I-23.754 J41.48
G01 X-79.045 Y-9.36
X-81.94
Z-5.
G00 Z10.
X70.052 Y-56.94
Z-5.
G01 Z-8.
X72.568 Y-52.94
G03 X76.3 Y-40. I-20.568 J12.94
G01 Y-34.274
G03 X77.94 Y-32.948 I-22.3 J29.274
G01 Y-27.421
G02 X72.3 Y-32.22 I-23.94 J22.421
G01 Y-40.
G02 X67.641 Y-52.94 I-20.3 J0.0
G01 X61.912
G03 X68.3 Y-40. I-9.912 J12.94
G01 Y-29.999
G03 X77.94 Y-21.01 I-14.3 J24.999
G01 X81.94 Y-15.029
Z-5.
G00 Z10.
Y19.522
Z-5.
G01 Z-8.
X77.94 Y22.948
G03 X74.3 Y25.694 I-23.94 J-27.948
G01 Y27.
G03 X50. Y51.3 I-24.3 J0.0
G01 X12.
G03 X-5.098 Y44.267 I0.0 J-24.3
X-77.94 Y23.932 I-26.902 J-44.267
G01 Y13.204
G02 X-4.37 Y39.005 I45.94 J-13.204
X12. Y47.3 I16.37 J-12.005
G01 X50.
G02 X70.3 Y27. I0.0 J-20.3
G01 Y23.463
G02 X77.94 Y17.421 I-16.3 J-28.463
G01 Y11.01
G03 X66.3 Y21.041 I-23.94 J-16.01
G01 Y27.
G03 X50. Y43.3 I-16.3 J0.0
G01 X12.
G03 X-3.167 Y32.971 I0.0 J-16.3
X-4.3 Y-33.929 I-28.833 J-32.971
G01 Y-40.
G03 X2.088 Y-52.94 I16.3 J0.0
G01 X7.31 Y-56.94
Z-5.
G00 Z10.
X81.94 Y-7.613
Z-5.
G01 Z-8.
X78.984
X77.94 Y-11.474
G02 X64.115 Y-27.644 I-23.94 J6.474
X64.3 Y-29.771 I-12.115 J-2.128
G01 Y-40.
G02 X52. Y-52.3 I-12.3 J0.0
G01 X12.
G02 X-.3 Y-40. I0.0 J12.3
G01 Y-24.066
G02 Y24.066 I-31.7 J24.066
G01 Y27.
G02 X12. Y39.3 I12.3 J0.0
G01 X50.
G02 X62.3 Y27. I0.0 J-12.3
G01 Y18.37
G02 X77.94 Y1.474 I-8.3 J-23.37
G01 X74.079 Y.43
G02 X58.932 Y-25.207 I-20.079 J-5.43
X60.3 Y-29.771 I-6.932 J-4.565
G01 Y-40.
G02 X52. Y-48.3 I-8.3 J0.0
G01 X12.
G02 X3.7 Y-40. I0.0 J8.3
G01 Y-2.674
G02 Y2.674 I-35.7 J2.674
G01 X-.289 Y2.375
G02 I-31.711 J-2.375
G01 X3.7 Y2.674
Y27.
G02 X12. Y35.3 I8.3 J0.0
G01 X50.
G02 X58.3 Y27. I0.0 J-8.3
G01 Y17.
G02 X58.141 Y15.384 I-8.3 J0.0
X74.079 Y.43 I-4.141 J-20.384
G01 X70.217 Y-.614
G02 X53.119 Y-21.777 I-16.217 J-4.386
G03 X52.475 Y-22.825 I-.037 J-.699
X55.376 Y-27.109 I30.931 J17.825
G02 X56.3 Y-29.771 I-3.376 J-2.663
G01 Y-40.
G02 X52. Y-44.3 I-4.3 J0.0
G01 X12.
G02 X7.7 Y-40. I0.0 J4.3
G01 Y27.
G02 X12. Y31.3 I4.3 J0.0
G01 X50.
G02 X54.3 Y27. I0.0 J-4.3
G01 Y17.
G02 X53.591 Y14.635 I-4.3 J0.0
G03 X52.475 Y12.826 I29.815 J-19.635
X53.119 Y11.777 I.606 J-.35
G02 X70.217 Y-.614 I.881 J-16.777
G01 X74.079 Y.43
X81.94
Z-5.
G00 Z10.
X-32.172 Y-1.179
Z-2.
G03 X-32.398 Y-1.162 Z-8. I.146 J3.597
G02 X-32.148 Y-1.191 I-1.272 J-12.234
G03 X-31.852 I.148 J1.191
G02 X-31.352 Y-1.139 I1.522 J-12.206
G03 X-30.255 Y-.424 I-.115 J1.375
X-30.208 Y1.478 I-1.83 J.996
X-30.763 Y2.21 I-2.093 J-1.009
X-31.431 Y2.639 I-1.735 J-1.964
X-32.569 I-.569 J-2.639
X-33.238 Y2.209 I1.067 J-2.394
X-33.792 Y1.477 I1.539 J-1.741
X-33.745 Y-.424 I1.877 J-.905
X-32.648 Y-1.139 I1.211 J.66
G02 X-32.398 Y-1.162 I-1.022 J-12.257
G01 X-32.812 Y-5.141
X-32.643 Y-5.16
G03 X-31.357 I.643 J5.16
G02 X-31.019 Y-5.125 I1.027 J-8.236
G03 X-26.741 Y-2.336 I-.447 J5.361
X-26.605 Y3.215 I-5.344 J2.908
X-28.114 Y5.207 I-5.696 J-2.747
X-30.187 Y6.45 I-4.384 J-4.962
X-33.813 I-1.813 J-6.45
X-35.886 Y5.207 I2.311 J-6.205
X-37.395 Y3.214 I4.187 J-4.738
X-37.258 Y-2.336 I5.48 J-2.641
X-32.981 Y-5.125 I4.725 J2.572
G01 X-32.812 Y-5.141
X-33.225 Y-9.119
X-33.138 Y-9.129
G03 X-30.862 I1.138 J9.129
G01 X-30.687 Y-9.111
G03 X-23.228 Y-4.248 I-.779 J9.347
X-23.003 Y4.953 I-8.857 J4.821
X-25.466 Y8.205 I-9.298 J-4.485
X-28.946 Y10.255 I-7.032 J-7.96
X-35.054 I-3.054 J-10.255
X-38.535 Y8.204 I3.552 J-10.009
X-40.999 Y4.951 I6.836 J-7.736
X-40.771 Y-4.249 I9.084 J-4.378
X-33.313 Y-9.111 I8.238 J4.485
G01 X-33.225 Y-9.119
X-32.812 Y-5.141
Z-5.
G00 Z10.
X-29.004 Y.462
Z-5.
G03 X-32.398 Y-1.162 Z-10. I-3.022 J1.957
G02 X-32.148 Y-1.191 I-1.272 J-12.234
G03 X-31.852 I.148 J1.191
G02 X-31.352 Y-1.139 I1.522 J-12.206
G03 X-30.255 Y-.424 I-.115 J1.375
X-30.208 Y1.478 I-1.83 J.996
X-30.763 Y2.21 I-2.093 J-1.009
X-31.431 Y2.639 I-1.735 J-1.964
X-32.569 I-.569 J-2.639
X-33.238 Y2.209 I1.067 J-2.394
X-33.792 Y1.477 I1.539 J-1.741
X-33.745 Y-.424 I1.877 J-.905
X-32.648 Y-1.139 I1.211 J.66
G02 X-32.398 Y-1.162 I-1.022 J-12.257
G01 X-32.812 Y-5.141
X-32.643 Y-5.16
G03 X-31.357 I.643 J5.16
G02 X-31.019 Y-5.125 I1.027 J-8.236
G03 X-26.741 Y-2.336 I-.447 J5.361
X-26.605 Y3.215 I-5.344 J2.908
X-28.114 Y5.207 I-5.696 J-2.747
X-30.187 Y6.45 I-4.384 J-4.962
X-33.813 I-1.813 J-6.45
X-35.886 Y5.207 I2.311 J-6.205
X-37.395 Y3.214 I4.187 J-4.738
X-37.258 Y-2.336 I5.48 J-2.641
X-32.981 Y-5.125 I4.725 J2.572
G01 X-32.812 Y-5.141
X-33.225 Y-9.119
X-33.138 Y-9.129
G03 X-30.862 I1.138 J9.129
G01 X-30.687 Y-9.111
G03 X-23.228 Y-4.248 I-.779 J9.347
X-23.003 Y4.953 I-8.857 J4.821
X-25.466 Y8.205 I-9.298 J-4.485
X-28.946 Y10.255 I-7.032 J-7.96
X-35.054 I-3.054 J-10.255
X-38.535 Y8.204 I3.552 J-10.009
X-40.999 Y4.951 I6.836 J-7.736
X-40.771 Y-4.249 I9.084 J-4.378
X-33.313 Y-9.111 I8.238 J4.485
G01 X-33.225 Y-9.119
X-32.812 Y-5.141
Z-7.
G00 Z10.
X-69.363 Y56.94
Z-7.
G01 Z-10.
X-74.381 Y52.922
G03 X-77.817 Y49.976 I42.381 J-52.922
X-77.94 Y49. I3.817 J-.976
G01 Y44.271
G02 X-67.606 Y52.94 I45.94 J-44.271
G01 X-59.81
G03 X-77.94 Y38.283 I27.81 J-52.94
G01 Y31.673
G02 X-49.635 Y52.94 I45.94 J-31.673
G01 X-45.84 Y54.204
Y56.94
Z-7.
G00 Z10.
X-81.94 Y-46.197
Z-7.
G01 Z-10.
X-77.817 Y-49.976
G03 X-74.381 Y-52.922 I45.817 J49.976
X-74. Y-52.94 I.381 J3.922
G01 X-67.606
G02 X-77.94 Y-44.271 I35.606 J52.94
G01 Y-38.283
G03 X-59.81 Y-52.94 I45.94 J38.283
G01 X-49.635
G02 X-77.94 Y-31.673 I17.635 J52.94
G01 X-81.94 Y-25.871
Z-7.
G00 Z10.
X71.462 Y56.94
Z-7.
G01 Z-10.
X75.862 Y52.472
G02 X77.621 Y50.554 I-25.862 J-25.472
X77.94 Y49. I-3.621 J-1.554
G01 Y43.206
G03 X69.246 Y52.94 I-27.94 J-16.206
G01 X61.314
G02 X77.94 Y31.5 I-11.314 J-25.94
G01 X78.576 Y27.55
X81.94
Z-7.
G00 Z10.
X-18.16 Y56.94
Z-7.
G01 Z-10.
Y54.204
X-14.365 Y52.94
G02 X-5.601 Y49.16 I-17.635 J-52.94
X.686 Y52.94 I17.601 J-22.16
G01 X9.857 Y56.94
Z-7.
G00 Z10.
X-11.112 Y-56.94
Z-7.
G01 Z-10.
X-13.168 Y-52.94
G02 X-13.346 Y-52.589 I25.168 J12.94
X-14.365 Y-52.94 I-18.654 J52.589
G01 X-18.16 Y-54.204
Y-56.94
Z-7.
G00 Z10.
X-81.94 Y-16.254
Z-7.
G01 Z-10.
X-77.94 Y-23.932
G03 X-11.141 Y-47.415 I45.94 J23.932
X-8.568 Y-52.94 I23.141 J7.415
G01 X-3.641
G02 X-8.246 Y-41.48 I15.641 J12.94
X-77.94 Y-13.204 I-23.754 J41.48
G01 X-79.045 Y-9.36
X-81.94
Z-7.
G00 Z10.
X75.064 Y-56.868
Z-7.
G01 Z-10.
X75.887 Y-52.458
G03 X76.3 Y-48. I-23.887 J4.458
G01 Y-34.274
G03 X77.94 Y-32.948 I-22.3 J29.274
G01 Y-27.421
G02 X72.3 Y-32.22 I-23.94 J22.421
G01 Y-48.
G02 X71.69 Y-52.94 I-20.3 J0.0
G01 X67.533
G03 X68.3 Y-48. I-15.533 J4.94
G01 Y-29.999
G03 X77.94 Y-21.01 I-14.3 J24.999
G01 Y-11.474
G02 X64.115 Y-27.644 I-23.94 J6.474
X64.3 Y-29.771 I-12.115 J-2.128
G01 Y-48.
G02 X63.264 Y-52.94 I-12.3 J0.0
G01 X61.51 Y-56.94
Z-7.
G00 Z10.
X81.94 Y19.522
Z-7.
G01 Z-10.
X77.94 Y22.948
G03 X74.3 Y25.694 I-23.94 J-27.948
G01 Y27.
G03 X50. Y51.3 I-24.3 J0.0
G01 X12.
G03 X-5.098 Y44.267 I0.0 J-24.3
X-77.94 Y23.932 I-26.902 J-44.267
G01 Y13.204
G02 X-4.37 Y39.005 I45.94 J-13.204
X12. Y47.3 I16.37 J-12.005
G01 X50.
G02 X70.3 Y27. I0.0 J-20.3
G01 Y23.463
G02 X77.94 Y17.421 I-16.3 J-28.463
G01 Y11.01
G03 X66.3 Y21.041 I-23.94 J-16.01
G01 Y27.
G03 X50. Y43.3 I-16.3 J0.0
G01 X12.
G03 X-3.167 Y32.971 I0.0 J-16.3
X-4.3 Y-33.929 I-28.833 J-32.971
G01 Y-40.
G03 X2.088 Y-52.94 I16.3 J0.0
G01 X7.31 Y-56.94
Z-7.
G00 Z10.
X27.49
Z-7.
G01 Z-10.
X25.736 Y-52.94
G02 X25.476 Y-52.3 I11.264 J4.94
G01 X12.
G02 X-.3 Y-40. I0.0 J12.3
G01 Y-24.066
G02 Y24.066 I-31.7 J24.066
G01 Y27.
G02 X12. Y39.3 I12.3 J0.0
G01 X50.
G02 X62.3 Y27. I0.0 J-12.3
G01 Y18.37
G02 X77.94 Y1.474 I-8.3 J-23.37
G01 X78.984 Y-2.387
X81.94
Z-7.
G00 Z10.
X55.707 Y-56.94
Z-7.
G01 Z-10.
X58.67 Y-52.94
G03 X60.3 Y-48. I-6.67 J4.94
G01 Y-29.771
G03 X58.932 Y-25.207 I-8.3 J0.0
X58.141 Y15.384 I-4.932 J20.207
X58.3 Y17. I-8.141 J1.616
G01 Y27.
G03 X50. Y35.3 I-8.3 J0.0
G01 X12.
G03 X3.7 Y27. I0.0 J-8.3
G01 Y2.674
G03 Y-2.674 I-35.7 J-2.674
G01 Y-40.
G03 X12. Y-48.3 I8.3 J0.0
G01 X28.705
G03 X30.33 Y-52.94 I8.295 J.3
G01 X33.545 Y-50.559
G02 X32.7 Y-48. I3.455 J2.559
G01 Y-44.3
X12.
G02 X7.7 Y-40. I0.0 J4.3
G01 Y27.
G02 X12. Y31.3 I4.3 J0.0
G01 X50.
G02 X54.3 Y27. I0.0 J-4.3
G01 Y17.
G02 X53.591 Y14.635 I-4.3 J0.0
G03 X52.475 Y12.826 I29.815 J-19.635
X53.119 Y11.777 I.606 J-.35
G02 Y-21.777 I.881 J-16.777
G03 X52.475 Y-22.825 I-.037 J-.699
X55.376 Y-27.109 I30.931 J17.825
G02 X56.3 Y-29.771 I-3.376 J-2.663
G01 Y-48.
G02 X52. Y-52.3 I-4.3 J0.0
G01 X37.
G02 X33.545 Y-50.559 I0.0 J4.3
G01 Z-7.
G00 Z10.
X-32. Y-35.8
Z-7.
G01 Z-10.
Y-31.8
G02 I0.0 J31.8
G01 Y-35.8
Z-7.
G00 Z10.
X54.032 Y-5.699
Z-5.
G03 X54.032 Y-5.699 Z-6.179 I-.032 J.699
X54.032 Y-5.699 Z-7.357 I-.032 J.699
X54.032 Y-5.699 Z-8.536 I-.032 J.699
X54.032 Y-5.699 Z-9.714 I-.032 J.699
X54.7 Y-5. Z-10. I-.032 J.699
I-.7 J0.0
G01 Z-7.
G00 Z10.
X54.032 Y-5.699
Z-7.
G03 X54.032 Y-5.699 Z-8.179 I-.032 J.699
X54.032 Y-5.699 Z-9.357 I-.032 J.699
X54.032 Y-5.699 Z-10.536 I-.032 J.699
X54.032 Y-5.699 Z-11.714 I-.032 J.699
X54.7 Y-5. Z-12. I-.032 J.699
I-.7 J0.0
G01 Z-9.
G00 Z10.
X-63.702 Y56.94
Z-9.
G01 Z-12.
X-69.368 Y52.94
G03 X-77.94 Y45.701 I37.368 J-52.94
G01 Y39.827
G02 X-61.9 Y52.94 I45.94 J-39.827
G01 X-52.581
G03 X-76.268 Y35.589 I20.581 J-52.94
X-77.94 Y33.236 I18.939 J-15.226
G01 X-81.94 Y26.831
Z-9.
G00 Z10.
Y-41.68
Z-9.
G01 Z-12.
X-77.94 Y-45.701
G03 X-69.368 Y-52.94 I45.94 J45.701
G01 X-61.9
G02 X-77.94 Y-39.827 I29.9 J52.94
G01 Y-33.236
G03 X-76.268 Y-35.589 I20.611 J12.872
X-52.581 Y-52.94 I44.268 J35.589
G01 X-42.293 Y-56.94
Z-9.
G00 Z10.
X73.155 Y56.94
Z-9.
G01 Z-12.
X75.276 Y52.727
G02 X77.94 Y44.5 I-25.276 J-12.727
G01 X78.576 Y40.55
X81.94
Z-9.
G00 Z10.
Y19.522
Z-9.
G01 Z-12.
X77.94 Y22.948
G03 X74.3 Y25.694 I-23.94 J-27.948
G01 Y40.
G03 X70.568 Y52.94 I-24.3 J0.0
G01 X65.641
G02 X70.3 Y40. I-15.641 J-12.94
G01 Y23.463
G02 X77.94 Y17.421 I-16.3 J-28.463
G01 Y11.01
G03 X66.3 Y21.041 I-23.94 J-16.01
G01 Y40.
G03 X59.912 Y52.94 I-16.3 J0.0
G01 X54.69 Y56.94
Z-9.
G00 Z10.
X-6.052
Z-9.
G01 Z-12.
X-8.568 Y52.94
G03 X-9.134 Y51.994 I20.568 J-12.94
X-11.419 Y52.94 I-22.866 J-51.994
G01 X-21.707 Y56.94
Z-9.
G00 Z10.
Y-56.94
Z-9.
G01 Z-12.
X-11.419 Y-52.94
G03 X-9.134 Y-51.994 I-20.581 J52.94
X-8.568 Y-52.94 I21.134 J11.994
G01 X-3.641
G02 X-7.194 Y-46.61 I15.641 J12.94
X-23.925 Y-52.179 I-24.806 J46.61
X-32. Y-51.8 I-3.105 J20.061
X-40.075 Y-52.179 I-4.971 J19.682
X-73.151 Y-33.083 I8.075 J52.179
X-76.86 Y-25.9 I15.821 J12.719
X-77.94 Y-24.696 I14.56 J14.146
G01 Y-16.461
G03 X-77.497 Y-17.649 I45.94 J16.461
X-73.259 Y-23.821 I15.197 J5.895
X-70.033 Y-30.577 I15.929 J3.457
X-39.464 Y-48.226 I38.033 J30.577
X-32. Y-47.641 I2.493 J16.108
X-24.536 Y-48.226 I4.971 J15.524
X-4.299 Y-40.176 I-7.464 J48.226
X2.088 Y-52.94 I16.299 J.176
G01 X7.31 Y-56.94
Z-9.
G00 Z10.
X75.064 Y-56.868
Z-9.
G01 Z-12.
X75.887 Y-52.458
G03 X76.3 Y-48. I-23.887 J4.458
G01 Y-34.274
G03 X77.94 Y-32.948 I-22.3 J29.274
G01 Y-27.421
G02 X72.3 Y-32.22 I-23.94 J22.421
G01 Y-48.
G02 X71.69 Y-52.94 I-20.3 J0.0
G01 X67.533
G03 X68.3 Y-48. I-15.533 J4.94
G01 Y-29.999
G03 X77.94 Y-21.01 I-14.3 J24.999
G01 Y-11.474
G02 X64.115 Y-27.644 I-23.94 J6.474
X64.3 Y-29.771 I-12.115 J-2.128
G01 Y-48.
G02 X63.264 Y-52.94 I-12.3 J0.0
G01 X61.51 Y-56.94
Z-9.
G00 Z10.
X-81.94 Y19.861
Z-9.
G01 Z-12.
X-77.94 Y24.696
G02 X-76.86 Y25.9 I15.64 J-12.941
X-73.151 Y33.083 I19.53 J-5.536
X-40.075 Y52.179 I41.151 J-33.083
X-32. Y51.8 I3.105 J-20.061
X-23.925 Y52.179 I4.971 J-19.682
X-7.194 Y46.61 I-8.075 J-52.179
X-3.641 Y52.94 I19.194 J-6.61
G01 X2.088
G03 X-4.299 Y40.176 I9.912 J-12.94
X-24.536 Y48.226 I-27.701 J-40.176
X-32. Y47.641 I-2.493 J-16.108
X-39.464 Y48.226 I-4.971 J-15.524
X-70.033 Y30.577 I7.464 J-48.226
X-73.259 Y23.821 I12.704 J-10.213
X-77.497 Y17.649 I10.959 J-12.066
X-77.94 Y16.461 I45.497 J-17.649
G01 X-81.94 Y5.297
Z-9.
G00 Z10.
X27.49 Y-56.94
Z-9.
G01 Z-12.
X25.736 Y-52.94
G02 X25.476 Y-52.3 I11.264 J4.94
G01 X12.
G02 X-.3 Y-40. I0.0 J12.3
G01 Y-31.657
G02 X-25.148 Y-44.273 I-31.7 J31.657
X-32. Y-43.369 I-1.881 J12.155
X-38.852 Y-44.273 I-4.971 J11.251
X-66.916 Y-28.07 I6.852 J44.273
X-69.558 Y-21.684 I9.586 J7.707
X-73.767 Y-16.203 I7.258 J9.93
Y16.203 I41.767 J16.203
X-69.558 Y21.684 I11.467 J-4.448
X-66.916 Y28.07 I12.229 J-1.321
X-38.852 Y44.273 I34.916 J-28.07
X-32. Y43.369 I1.881 J-12.155
X-25.148 Y44.273 I4.971 J-11.251
X-.3 Y31.657 I-6.852 J-44.273
G01 Y40.
G02 X12. Y52.3 I12.3 J0.0
G01 X50.
G02 X62.3 Y40. I0.0 J-12.3
G01 Y18.37
G02 X77.94 Y1.474 I-8.3 J-23.37
G01 X78.984 Y-2.387
X81.94
Z-9.
G00 Z10.
X55.707 Y-56.94
Z-9.
G01 Z-12.
X58.67 Y-52.94
G03 X60.3 Y-48. I-6.67 J4.94
G01 Y-29.771
G03 X58.932 Y-25.207 I-8.3 J0.0
X58.141 Y15.384 I-4.932 J20.207
X58.3 Y17. I-8.141 J1.616
G01 Y40.
G03 X50. Y48.3 I-8.3 J0.0
G01 X12.
G03 X3.7 Y40. I0.0 J-8.3
G01 Y18.057
G03 X1.571 Y19.382 I-5.4 J-6.303
X-.202 Y25.564 I-8.242 J.981
X-25.76 Y40.32 I-31.798 J-25.564
X-32. Y38.765 I-1.269 J-8.202
X-38.24 Y40.32 I-4.971 J-6.647
X-63.798 Y25.564 I6.24 J-40.32
X-65.571 Y19.382 I6.469 J-5.201
X-70.038 Y14.756 I3.271 J-7.628
Y-14.756 I38.038 J-14.756
X-65.571 Y-19.382 I7.738 J3.002
X-63.798 Y-25.564 I8.242 J-.981
X-38.24 Y-40.32 I31.798 J25.564
X-32. Y-38.765 I1.269 J8.202
X-25.76 Y-40.32 I4.971 J6.647
X-.202 Y-25.564 I-6.24 J40.32
X1.571 Y-19.382 I-6.469 J5.201
X3.7 Y-18.057 I-3.271 J7.628
G01 Y-40.
G03 X12. Y-48.3 I8.3 J0.0
G01 X28.705
G03 X30.33 Y-52.94 I8.295 J.3
G01 X33.545 Y-50.559
G02 X32.7 Y-48. I3.455 J2.559
G01 Y-44.3
X12.
G02 X7.7 Y-40. I0.0 J4.3
G01 Y40.
G02 X12. Y44.3 I4.3 J0.0
G01 X50.
G02 X54.3 Y40. I0.0 J-4.3
G01 Y17.
G02 X53.591 Y14.635 I-4.3 J0.0
G03 X52.475 Y12.826 I29.815 J-19.635
X53.119 Y11.777 I.606 J-.35
G02 Y-21.777 I.881 J-16.777
G03 X52.475 Y-22.825 I-.037 J-.699
X55.376 Y-27.109 I30.931 J17.825
G02 X56.3 Y-29.771 I-3.376 J-2.663
G01 Y-48.
G02 X52. Y-52.3 I-4.3 J0.0
G01 X37.
G02 X33.545 Y-50.559 I0.0 J4.3
G01 Z-9.
G00 Z10.
X-32. Y-38.765
Z-9.
G01 Z-12.
Y-31.8
G02 X-32.683 Y-31.793 I0.0 J31.8
X-37.628 Y-36.367 I-4.288 J-.325
X-60.681 Y-23.058 I5.628 J36.367
X-59.192 Y-16.488 I3.351 J2.694
X-59.875 Y-15.305 I27.192 J16.488
X-66.309 Y-13.309 I-2.425 J3.551
Y13.309 I34.309 J13.309
X-59.875 Y15.305 I4.009 J-1.555
X-59.192 Y16.488 I27.875 J-15.305
X-60.681 Y23.058 I1.862 J3.876
X-37.628 Y36.367 I28.681 J-23.058
X-32.683 Y31.793 I.658 J-4.249
X-31.317 I.683 J-31.793
X-26.372 Y36.367 I4.288 J.325
X-3.319 Y23.058 I-5.628 J-36.367
X-4.808 Y16.488 I-3.351 J-2.694
X-4.125 Y15.305 I-27.192 J-16.488
X2.309 Y13.309 I2.425 J-3.551
Y-13.309 I-34.309 J-13.309
X-4.125 Y-15.305 I-4.009 J1.555
X-4.808 Y-16.488 I-27.875 J15.305
X-3.319 Y-23.058 I-1.862 J-3.876
X-26.372 Y-36.367 I-28.681 J23.058
X-31.317 Y-31.793 I-.658 J4.249
X-32. Y-31.8 I-.683 J31.793
G01 Y-35.8
Z-9.
G00 Z10.
X-29.004 Y.462
Z-7.
G03 X-32.398 Y-1.162 Z-12. I-3.022 J1.957
G02 X-32.148 Y-1.191 I-1.272 J-12.234
G03 X-31.852 I.148 J1.191
G02 X-31.352 Y-1.139 I1.522 J-12.206
G03 X-30.255 Y-.424 I-.115 J1.375
X-30.208 Y1.478 I-1.83 J.996
X-30.763 Y2.21 I-2.093 J-1.009
X-31.431 Y2.639 I-1.735 J-1.964
X-32.569 I-.569 J-2.639
X-33.238 Y2.209 I1.067 J-2.394
X-33.792 Y1.477 I1.539 J-1.741
X-33.745 Y-.424 I1.877 J-.905
X-32.648 Y-1.139 I1.211 J.66
G02 X-32.398 Y-1.162 I-1.022 J-12.257
G01 X-32.812 Y-5.141
X-32.643 Y-5.16
G03 X-31.357 I.643 J5.16
G02 X-31.019 Y-5.125 I1.027 J-8.236
G03 X-26.741 Y-2.336 I-.447 J5.361
X-26.605 Y3.215 I-5.344 J2.908
X-28.114 Y5.207 I-5.696 J-2.747
X-30.187 Y6.45 I-4.384 J-4.962
X-33.813 I-1.813 J-6.45
X-35.886 Y5.207 I2.311 J-6.205
X-37.395 Y3.214 I4.187 J-4.738
X-37.258 Y-2.336 I5.48 J-2.641
X-32.981 Y-5.125 I4.725 J2.572
G01 X-32.812 Y-5.141
X-33.225 Y-9.119
X-33.138 Y-9.129
G03 X-30.862 I1.138 J9.129
G01 X-30.687 Y-9.111
G03 X-23.228 Y-4.248 I-.779 J9.347
X-23.003 Y4.953 I-8.857 J4.821
X-25.466 Y8.205 I-9.298 J-4.485
X-28.946 Y10.255 I-7.032 J-7.96
X-35.054 I-3.054 J-10.255
X-38.535 Y8.204 I3.552 J-10.009
X-40.999 Y4.951 I6.836 J-7.736
X-40.771 Y-4.249 I9.084 J-4.378
X-33.313 Y-9.111 I8.238 J4.485
G01 X-33.225 Y-9.119
X-32.812 Y-5.141
Z-9.
G00 Z10.
(Name:M8 Number:3)
(D=8.00)
(Stock_part=0.30)
G00 G90 G54 X-28.792 Y33.766 M03 S3000
Z10.
Z3.
G03 X-32. Y31.8 Z-2. I-3.208 J1.634 F1200.
G02 I0.0 J-31.8
G01 Y35.8
Z1.
G00 Z10.
X3.7 Y-11.5
Z1.
G01 Z-2.
X7.7
Y17.
G02 X12. Y21.3 I4.3 J0.0
G01 X50.
G02 X53.591 Y14.635 I0.0 J-4.3
G03 X55.376 Y-27.109 I29.815 J-19.635
G02 X56.3 Y-29.771 I-3.376 J-2.663
G01 Y-40.
G02 X52. Y-44.3 I-4.3 J0.0
G01 X12.
G02 X7.7 Y-40. I0.0 J4.3
G01 Y-11.5
X3.7
Z1.
G00 Z10.
X-29.831 Y-7.495
Z3.
G03 X-33.225 Y-9.119 Z-2. I-3.022 J1.957
G01 X-33.138 Y-9.129
G03 X-30.862 I1.138 J9.129
G01 X-30.687 Y-9.111
G03 X-23.228 Y-4.248 I-.779 J9.347
X-23.003 Y4.953 I-8.857 J4.821
X-25.466 Y8.205 I-9.298 J-4.485
X-28.946 Y10.255 I-7.032 J-7.96
X-35.054 I-3.054 J-10.255
X-38.535 Y8.204 I3.552 J-10.009
X-40.999 Y4.951 I6.836 J-7.736
X-40.771 Y-4.249 I9.084 J-4.378
X-33.313 Y-9.111 I8.238 J4.485
G01 X-33.225 Y-9.119
X-32.812 Y-5.141
Z1.
G00 Z10.
X-32.999 Y-9.136
Z1.
G03 X-33.225 Y-9.119 Z-5. I.146 J3.597
G01 X-33.138 Y-9.129
G03 X-30.862 I1.138 J9.129
G01 X-30.687 Y-9.111
G03 X-23.228 Y-4.248 I-.779 J9.347
X-23.003 Y4.953 I-8.857 J4.821
X-25.466 Y8.205 I-9.298 J-4.485
X-28.946 Y10.255 I-7.032 J-7.96
X-35.054 I-3.054 J-10.255
X-38.535 Y8.204 I3.552 J-10.009
X-40.999 Y4.951 I6.836 J-7.736
X-40.771 Y-4.249 I9.084 J-4.378
X-33.313 Y-9.111 I8.238 J4.485
G01 X-33.225 Y-9.119
X-32.812 Y-5.141
Z-2.
G00 Z10.
X-63.807 Y.227
Z1.
G03 X-63.8 Y0.0 Z-5. I-3.593 J-.227
G02 I31.8 J0.0
G01 X-67.8
Z-2.
G00 Z10.
X3.7 Y-11.5
Z-2.
G01 Z-5.
X7.7
Y17.
G02 X12. Y21.3 I4.3 J0.0
G01 X50.
G02 X53.591 Y14.635 I0.0 J-4.3
G03 X52.475 Y12.826 I29.815 J-19.635
X53.119 Y11.777 I.606 J-.35
G02 Y-21.777 I.881 J-16.777
G03 X52.475 Y-22.825 I-.037 J-.699
X55.376 Y-27.109 I30.931 J17.825
G02 X56.3 Y-29.771 I-3.376 J-2.663
G01 Y-40.
G02 X52. Y-44.3 I-4.3 J0.0
G01 X12.
G02 X7.7 Y-40. I0.0 J4.3
G01 Y-11.5
X3.7
Z-2.
G00 Z10.
X54.588 Y-5.38
Z1.
G03 X54.588 Y-5.38 Z-.179 I-.588 J.38
X54.588 Y-5.38 Z-1.357 I-.588 J.38
X54.588 Y-5.38 Z-2.536 I-.588 J.38
X54.588 Y-5.38 Z-3.714 I-.588 J.38
X54.588 Y-5.38 Z-4.893 I-.588 J.38
X54.7 Y-5. Z-5. I-.588 J.38
I-.7 J0.0
G01 Z-2.
G00 Z10.
X54.588 Y-5.38
Z-2.
G03 X54.588 Y-5.38 Z-3.179 I-.588 J.38
X54.588 Y-5.38 Z-4.357 I-.588 J.38
X54.588 Y-5.38 Z-5.536 I-.588 J.38
X54.588 Y-5.38 Z-6.714 I-.588 J.38
X54.588 Y-5.38 Z-7.893 I-.588 J.38
X54.7 Y-5. Z-8. I-.588 J.38
I-.7 J0.0
G01 Z-5.
G00 Z10.
X32. Y-56.94
Z-5.
G01 Z-8.
Y-44.3
X12.
G02 X7.7 Y-40. I0.0 J4.3
G01 Y27.
G02 X12. Y31.3 I4.3 J0.0
G01 X50.
G02 X54.3 Y27. I0.0 J-4.3
G01 Y17.
G02 X53.591 Y14.635 I-4.3 J0.0
G03 X52.475 Y12.826 I29.815 J-19.635
X53.119 Y11.777 I.606 J-.35
G02 Y-21.777 I.881 J-16.777
G03 X52.475 Y-22.825 I-.037 J-.699
X55.376 Y-27.109 I30.931 J17.825
G02 X56.3 Y-29.771 I-3.376 J-2.663
G01 Y-40.
G02 X52. Y-44.3 I-4.3 J0.0
G01 X32.
Y-48.3
Z-5.
G00 Z10.
X-32. Y-35.8
Z-5.
G01 Z-8.
Y-31.8
G02 I0.0 J31.8
G01 Y-35.8
Z-5.
G00 Z10.
X-32.999 Y-9.136
Z-2.
G03 X-33.225 Y-9.119 Z-8. I.146 J3.597
G01 X-33.138 Y-9.129
G03 X-30.862 I1.138 J9.129
G01 X-30.687 Y-9.111
G03 X-23.228 Y-4.248 I-.779 J9.347
X-23.003 Y4.953 I-8.857 J4.821
X-25.466 Y8.205 I-9.298 J-4.485
X-28.946 Y10.255 I-7.032 J-7.96
X-35.054 I-3.054 J-10.255
X-38.535 Y8.204 I3.552 J-10.009
X-40.999 Y4.951 I6.836 J-7.736
X-40.771 Y-4.249 I9.084 J-4.378
X-33.313 Y-9.111 I8.238 J4.485
G01 X-33.225 Y-9.119
X-32.812 Y-5.141
Z-5.
G00 Z10.
X-29.831 Y-7.495
Z-5.
G03 X-33.225 Y-9.119 Z-10. I-3.022 J1.957
G01 X-33.138 Y-9.129
G03 X-30.862 I1.138 J9.129
G01 X-30.687 Y-9.111
G03 X-23.228 Y-4.248 I-.779 J9.347
X-23.003 Y4.953 I-8.857 J4.821
X-25.466 Y8.205 I-9.298 J-4.485
X-28.946 Y10.255 I-7.032 J-7.96
X-35.054 I-3.054 J-10.255
X-38.535 Y8.204 I3.552 J-10.009
X-40.999 Y4.951 I6.836 J-7.736
X-40.771 Y-4.249 I9.084 J-4.378
X-33.313 Y-9.111 I8.238 J4.485
G01 X-33.225 Y-9.119
X-32.812 Y-5.141
Z-7.
G00 Z10.
X-65.766 Y3.208
Z-5.
G03 X-63.8 Y0.0 Z-10. I-1.634 J-3.208
G02 I31.8 J0.0
G01 X-67.8
Z-7.
G00 Z10.
X3.7 Y-6.5
Z-7.
G01 Z-10.
X7.7
Y27.
G02 X12. Y31.3 I4.3 J0.0
G01 X50.
G02 X54.3 Y27. I0.0 J-4.3
G01 Y17.
G02 X53.591 Y14.635 I-4.3 J0.0
G03 X52.475 Y12.826 I29.815 J-19.635
X53.119 Y11.777 I.606 J-.35
G02 Y-21.777 I.881 J-16.777
G03 X52.475 Y-22.825 I-.037 J-.699
X55.376 Y-27.109 I30.931 J17.825
G02 X56.3 Y-29.771 I-3.376 J-2.663
G01 Y-48.
G02 X52. Y-52.3 I-4.3 J0.0
G01 X37.
G02 X32.7 Y-48. I0.0 J4.3
G01 Y-44.3
X12.
G02 X7.7 Y-40. I0.0 J4.3
G01 Y-6.5
X3.7
Z-7.
G00 Z10.
X54.032 Y-5.699
Z-5.
G03 X54.032 Y-5.699 Z-6.179 I-.032 J.699
X54.032 Y-5.699 Z-7.357 I-.032 J.699
X54.032 Y-5.699 Z-8.536 I-.032 J.699
X54.032 Y-5.699 Z-9.714 I-.032 J.699
X54.7 Y-5. Z-10. I-.032 J.699
I-.7 J0.0
G01 Z-7.
G00 Z10.
X54.032 Y-5.699
Z-7.
G03 X54.032 Y-5.699 Z-8.179 I-.032 J.699
X54.032 Y-5.699 Z-9.357 I-.032 J.699
X54.032 Y-5.699 Z-10.536 I-.032 J.699
X54.032 Y-5.699 Z-11.714 I-.032 J.699
X54.7 Y-5. Z-12. I-.032 J.699
I-.7 J0.0
G01 Z-9.
G00 Z10.
X31. Y56.94
Z-9.
G01 Z-12.
Y44.3
X50.
G02 X54.3 Y40. I0.0 J-4.3
G01 Y17.
G02 X53.591 Y14.635 I-4.3 J0.0
G03 X52.475 Y12.826 I29.815 J-19.635
X53.119 Y11.777 I.606 J-.35
G02 Y-21.777 I.881 J-16.777
G03 X52.475 Y-22.825 I-.037 J-.699
X55.376 Y-27.109 I30.931 J17.825
G02 X56.3 Y-29.771 I-3.376 J-2.663
G01 Y-48.
G02 X52. Y-52.3 I-4.3 J0.0
G01 X37.
G02 X32.7 Y-48. I0.0 J4.3
G01 Y-44.3
X12.
G02 X7.7 Y-40. I0.0 J4.3
G01 Y40.
G02 X12. Y44.3 I4.3 J0.0
G01 X31.
Y48.3
Z-9.
G00 Z10.
X-32. Y38.765
Z-9.
G01 Z-12.
Y31.8
G02 X-31.317 Y31.793 I0.0 J-31.8
X-26.372 Y36.367 I4.288 J.325
X-3.319 Y23.058 I-5.628 J-36.367
X-4.808 Y16.488 I-3.351 J-2.694
X-4.125 Y15.305 I-27.192 J-16.488
X2.309 Y13.309 I2.425 J-3.551
Y-13.309 I-34.309 J-13.309
X-4.125 Y-15.305 I-4.009 J1.555
X-4.808 Y-16.488 I-27.875 J15.305
X-3.319 Y-23.058 I-1.862 J-3.876
X-26.372 Y-36.367 I-28.681 J23.058
X-31.317 Y-31.793 I-.658 J4.249
X-32.683 I-.683 J31.793
X-37.628 Y-36.367 I-4.288 J-.325
X-60.681 Y-23.058 I5.628 J36.367
X-59.192 Y-16.488 I3.351 J2.694
X-59.875 Y-15.305 I27.192 J16.488
X-66.309 Y-13.309 I-2.425 J3.551
Y13.309 I34.309 J13.309
X-59.875 Y15.305 I4.009 J-1.555
X-59.192 Y16.488 I27.875 J-15.305
X-60.681 Y23.058 I1.862 J3.876
X-37.628 Y36.367 I28.681 J-23.058
X-32.683 Y31.793 I.658 J-4.249
X-32. Y31.8 I.683 J-31.793
G01 Y38.765
Z-9.
G00 Z10.
X-29.831 Y-7.495
Z-7.
G03 X-33.225 Y-9.119 Z-12. I-3.022 J1.957
G01 X-33.138 Y-9.129
G03 X-30.862 I1.138 J9.129
G01 X-30.687 Y-9.111
G03 X-23.228 Y-4.248 I-.779 J9.347
X-23.003 Y4.953 I-8.857 J4.821
X-25.466 Y8.205 I-9.298 J-4.485
X-28.946 Y10.255 I-7.032 J-7.96
X-35.054 I-3.054 J-10.255
X-38.535 Y8.204 I3.552 J-10.009
X-40.999 Y4.951 I6.836 J-7.736
X-40.771 Y-4.249 I9.084 J-4.378
X-33.313 Y-9.111 I8.238 J4.485
G01 X-33.225 Y-9.119
X-32.812 Y-5.141
Z-9.
G00 Z10.
M09
M05
M01
G91 G30 Z0.0
N30   
G40 G17 G49 G80
T05 M06
(Name:M8R1 Number:5)
(D=8.00 R=1.00)
(Stock_part=0.00)
G00 G90 G54 X-2.762 Y21.427 M03 S4500
G43 Z10. H05
M08
Z1.016
G01 X-2.715 Y21.338 Z.126 F1500.
X-2.575 Y21.077 Z-.719
X-2.35 Y20.656 Z-1.478
X-2.05 Y20.098 Z-2.111
X-1.692 Y19.429 Z-2.587
X-1.293 Y18.683 Z-2.882
X-.873 Y17.899 Z-2.982
X.287 Y15.733 Z-2.981
X1.317 Y13.502 Z-2.992
X1.438 Y13.134 Z-2.978
X1.515 Y12.654 Z-2.922
X1.56 Y11.072 Z-2.643
X1.604 Y9.491 Z-2.4
X1.693 Y6.328 Z-2.033
X1.739 Y3.164 Z-1.803
X1.754 Y0.0 Z-1.724
X1.739 Y-3.164 Z-1.803
X1.693 Y-6.328 Z-2.033
X1.613 Y-9.248 Z-2.367
X1.532 Y-12.168 Z-2.834
X1.435 Y-13.135 Z-2.976
X.906 Y-14.395 Z-2.988
X.332 Y-15.635 Z-2.981
X-.948 Y-18.049 Z-2.986
X-2.4 Y-20.364 Z-2.995
X-4.016 Y-22.567 Z-2.992
X-4.465 Y-22.827 Z-2.89
X-4.466 Y-22.828
X-7.345 Y-24.601 Z-2.349
X-10.238 Y-26.35 Z-1.97
X-13.146 Y-28.074 Z-1.761
X-16.068 Y-29.773 Z-1.736
X-18.002 Y-30.849 Z-1.795
X-19.935 Y-31.925 Z-1.944
X-21.869 Y-33.001 Z-2.168
X-23.803 Y-34.078 Z-2.476
X-26.498 Y-35.527 Z-2.992
X-27.182 Y-35.62 Z-2.997
X-27.867 Y-35.7 Z-2.996
X-29.242 Y-35.824 Z-2.985
X-32. Y-35.923 Z-2.976
X-34.758 Y-35.824 Z-2.985
X-37.502 Y-35.527 Z-2.992
X-38.033 Y-35.236 Z-2.876
X-38.564 Y-34.945 Z-2.768
X-39.626 Y-34.364 Z-2.561
X-41.75 Y-33.201 Z-2.217
X-43.874 Y-32.038 Z-1.966
X-45.998 Y-30.875 Z-1.808
X-46.965 Y-30.327 Z-1.764
X-47.932 Y-29.773 Z-1.736
X-50.848 Y-28.078 Z-1.762
X-53.75 Y-26.358 Z-1.969
X-56.636 Y-24.613 Z-2.346
X-59.507 Y-22.843 Z-2.884
X-59.509 Y-22.842
X-59.984 Y-22.567 Z-2.992
X-60.388 Y-22.046
X-60.783 Y-21.518 Z-2.986
X-61.546 Y-20.443 Z-2.995
X-62.959 Y-18.216 Z-2.987
X-64.218 Y-15.9 Z-2.984
X-65.317 Y-13.502 Z-2.992
X-65.435 Y-13.135 Z-2.976
X-65.514 Y-11.921 Z-2.775
X-65.576 Y-10.707 Z-2.586
X-65.653 Y-8.275 Z-2.248
X-65.675 Y-7.302 Z-2.131
X-65.693 Y-6.328 Z-2.033
X-65.739 Y-3.164 Z-1.803
X-65.754 Y0.0 Z-1.724
X-65.739 Y3.164 Z-1.803
X-65.693 Y6.328 Z-2.033
X-65.604 Y9.491 Z-2.4
X-65.515 Y12.654 Z-2.922
X-65.438 Y13.134 Z-2.978
X-64.909 Y14.394 Z-2.989
X-64.334 Y15.634 Z-2.982
X-63.053 Y18.048 Z-2.986
X-61.6 Y20.363 Z-2.995
X-59.984 Y22.567 Z-2.992
X-59.535 Y22.827 Z-2.89
X-59.534 Y22.828
X-56.655 Y24.601 Z-2.349
X-53.762 Y26.35 Z-1.97
X-50.854 Y28.074 Z-1.761
X-47.932 Y29.773 Z-1.736
X-45.998 Y30.849 Z-1.795
X-44.065 Y31.925 Z-1.944
X-42.131 Y33.001 Z-2.168
X-40.197 Y34.078 Z-2.476
X-37.498 Y35.529 Z-2.993
X-36.814 Y35.621 Z-2.998
X-36.129 Y35.701 Z-2.996
X-34.755 Y35.824 Z-2.985
X-31.998 Y35.922 Z-2.976
X-29.241 Y35.823 Z-2.984
X-26.498 Y35.527 Z-2.992
X-25.967 Y35.236 Z-2.876
X-25.436 Y34.945 Z-2.768
X-24.374 Y34.364 Z-2.561
X-22.25 Y33.201 Z-2.217
X-20.126 Y32.038 Z-1.966
X-18.002 Y30.875 Z-1.808
X-17.035 Y30.327 Z-1.764
X-16.068 Y29.773 Z-1.736
X-13.146 Y28.074 Z-1.761
X-10.238 Y26.35 Z-1.97
X-7.345 Y24.601 Z-2.349
X-4.466 Y22.828 Z-2.89
X-4.465 Y22.827
X-4.016 Y22.567 Z-2.992
X-3.481 Y21.88 Z-2.993
X-2.777 Y20.908 Z-2.991
X-1.792 Y19.424 Z-2.982
X-.873 Y17.899
X-1.003 Y17.824 Z-2.895
X.151 Y15.669 Z-2.894
X1.176 Y13.449 Z-2.905
X1.292 Y13.098 Z-2.892
X1.366 Y12.639 Z-2.838
X1.41 Y11.06 Z-2.559
X1.454 Y9.482 Z-2.316
X1.543 Y6.325 Z-1.947
X1.589 Y3.163 Z-1.717
X1.604 Y0.0 Z-1.638
X1.589 Y-3.163 Z-1.717
X1.543 Y-6.325 Z-1.947
X1.463 Y-9.241 Z-2.283
X1.382 Y-12.157 Z-2.751
X1.288 Y-13.099 Z-2.89
X.763 Y-14.348 Z-2.902
X.194 Y-15.577 Z-2.894
X-1.076 Y-17.971 Z-2.9
X-2.515 Y-20.266 Z-2.909
X-4.115 Y-22.452 Z-2.906
X-4.541 Y-22.697 Z-2.809
X-4.545 Y-22.699
X-7.422 Y-24.472 Z-2.266
X-10.314 Y-26.22 Z-1.886
X-13.221 Y-27.944 Z-1.675
X-16.143 Y-29.643 Z-1.649
X-18.076 Y-30.719 Z-1.709
X-20.008 Y-31.794 Z-1.859
X-21.941 Y-32.87 Z-2.084
X-23.874 Y-33.946 Z-2.394
X-26.546 Y-35.382 Z-2.907
X-27.224 Y-35.474 Z-2.91
X-27.903 Y-35.553 Z-2.909
X-29.266 Y-35.675 Z-2.898
X-32. Y-35.773 Z-2.89
X-34.734 Y-35.675 Z-2.898
X-37.454 Y-35.382 Z-2.907
X-37.984 Y-35.092 Z-2.789
X-38.513 Y-34.802 Z-2.682
X-39.572 Y-34.223 Z-2.476
X-41.689 Y-33.063 Z-2.131
X-43.807 Y-31.904 Z-1.88
X-45.925 Y-30.744 Z-1.722
X-46.891 Y-30.197 Z-1.677
X-50.052 Y-28.37 Z-1.654
X-53.197 Y-26.514 Z-1.836
X-56.324 Y-24.628 Z-2.226
X-59.433 Y-22.713 Z-2.803
X-59.885 Y-22.452 Z-2.906
X-60.285 Y-21.934 Z-2.905
X-60.677 Y-21.41 Z-2.899
X-61.433 Y-20.341 Z-2.908
X-62.836 Y-18.131 Z-2.9
X-64.085 Y-15.83 Z-2.897
X-65.176 Y-13.45 Z-2.905
X-65.287 Y-13.106 Z-2.891
X-65.365 Y-11.899 Z-2.69
X-65.427 Y-10.691 Z-2.502
X-65.503 Y-8.272 Z-2.165
X-65.525 Y-7.298 Z-2.046
X-65.543 Y-6.325 Z-1.947
X-65.589 Y-3.163 Z-1.717
X-65.604 Y0.0 Z-1.638
X-65.589 Y3.163 Z-1.717
X-65.543 Y6.325 Z-1.947
X-65.454 Y9.482 Z-2.316
X-65.366 Y12.639 Z-2.838
X-65.293 Y13.094 Z-2.891
X-64.767 Y14.343 Z-2.903
X-64.197 Y15.573 Z-2.895
X-62.926 Y17.968 Z-2.9
X-61.486 Y20.265 Z-2.909
X-59.885 Y22.452 Z-2.906
X-59.459 Y22.697 Z-2.809
X-59.455 Y22.699
X-56.578 Y24.472 Z-2.266
X-53.686 Y26.22 Z-1.886
X-50.779 Y27.944 Z-1.675
X-47.857 Y29.643 Z-1.649
X-45.924 Y30.719 Z-1.709
X-43.992 Y31.794 Z-1.859
X-42.059 Y32.87 Z-2.084
X-40.126 Y33.946 Z-2.394
X-37.45 Y35.384 Z-2.908
X-36.773 Y35.475 Z-2.911
X-36.093 Y35.554 Z-2.91
X-34.731 Y35.675 Z-2.898
X-31.998 Y35.772 Z-2.889
X-29.265 Y35.674 Z-2.898
X-26.545 Y35.382 Z-2.907
X-26.016 Y35.092 Z-2.789
X-25.487 Y34.802 Z-2.682
X-24.428 Y34.223 Z-2.476
X-22.31 Y33.063 Z-2.131
X-20.193 Y31.904 Z-1.88
X-18.075 Y30.744 Z-1.722
X-17.109 Y30.197 Z-1.677
X-16.143 Y29.643 Z-1.649
X-13.22 Y27.944 Z-1.675
X-10.313 Y26.219 Z-1.886
X-7.419 Y24.471 Z-2.267
X-4.541 Y22.697 Z-2.809
X-4.116 Y22.452 Z-2.906
X-3.601 Y21.79
X-2.899 Y20.821 Z-2.905
X-1.919 Y19.343 Z-2.896
X-1.003 Y17.824 Z-2.895
X-1.133 Y17.749 Z-2.809
X.016 Y15.605 Z-2.807
X1.036 Y13.396 Z-2.819
X1.146 Y13.063 Z-2.806
X1.216 Y12.624 Z-2.754
X1.26 Y11.049 Z-2.476
X1.305 Y9.473 Z-2.231
X1.393 Y6.322 Z-1.862
X1.439 Y3.161 Z-1.631
X1.454 Y0.0 Z-1.552
X1.439 Y-3.161 Z-1.631
X1.393 Y-6.322 Z-1.862
X1.313 Y-9.235 Z-2.198
X1.233 Y-12.147 Z-2.668
X1.141 Y-13.063 Z-2.803
X.62 Y-14.301 Z-2.815
X.055 Y-15.52 Z-2.808
X-1.204 Y-17.892 Z-2.813
X-2.63 Y-20.168 Z-2.822
X-4.215 Y-22.336 Z-2.82
X-4.617 Y-22.568 Z-2.728
X-4.623 Y-22.571 Z-2.727
X-7.499 Y-24.344 Z-2.183
X-10.391 Y-26.091 Z-1.802
X-13.297 Y-27.815 Z-1.588
X-16.218 Y-29.513 Z-1.563
X-18.15 Y-30.588 Z-1.622
X-20.082 Y-31.663 Z-1.773
X-22.014 Y-32.739 Z-2.
X-23.946 Y-33.814 Z-2.311
X-26.593 Y-35.237 Z-2.821
X-27.265 Y-35.328 Z-2.824
X-27.939 Y-35.406 Z-2.822
X-29.29 Y-35.526 Z-2.812
X-32. Y-35.623 Z-2.803
X-34.71 Y-35.526 Z-2.812
X-37.407 Y-35.237 Z-2.821
X-37.935 Y-34.948 Z-2.703
X-38.462 Y-34.659 Z-2.595
X-39.518 Y-34.081 Z-2.39
X-41.629 Y-32.926 Z-2.045
X-43.74 Y-31.77 Z-1.794
X-45.851 Y-30.614 Z-1.636
X-46.817 Y-30.067 Z-1.591
X-49.978 Y-28.24 Z-1.568
X-53.121 Y-26.384 Z-1.75
X-56.247 Y-24.499 Z-2.143
X-59.355 Y-22.584 Z-2.722
X-59.785 Y-22.336 Z-2.82
X-60.182 Y-21.822 Z-2.818
X-60.57 Y-21.301 Z-2.812
X-61.321 Y-20.24 Z-2.822
X-62.712 Y-18.045 Z-2.814
X-63.952 Y-15.761 Z-2.811
X-65.035 Y-13.398 Z-2.819
X-65.138 Y-13.078 Z-2.805
X-65.216 Y-11.877 Z-2.605
X-65.277 Y-10.675 Z-2.418
X-65.353 Y-8.269 Z-2.081
X-65.376 Y-7.295 Z-1.961
X-65.393 Y-6.322 Z-1.862
X-65.439 Y-3.161 Z-1.631
X-65.454 Y0.0 Z-1.552
X-65.439 Y3.161 Z-1.63
X-65.393 Y6.322 Z-1.862
X-65.305 Y9.473 Z-2.231
X-65.216 Y12.625 Z-2.754
X-65.147 Y13.053 Z-2.804
X-64.625 Y14.293 Z-2.816
X-64.06 Y15.512 Z-2.808
X-62.799 Y17.887 Z-2.813
X-61.372 Y20.166 Z-2.822
X-59.785 Y22.336 Z-2.82
X-59.383 Y22.568 Z-2.728
X-59.377 Y22.571 Z-2.727
X-56.501 Y24.344 Z-2.183
X-53.609 Y26.091 Z-1.802
X-50.703 Y27.814 Z-1.588
X-47.782 Y29.513 Z-1.563
X-45.85 Y30.588 Z-1.622
X-43.918 Y31.663 Z-1.773
X-41.986 Y32.739 Z-2.
X-40.054 Y33.814 Z-2.311
X-37.403 Y35.24 Z-2.822
X-36.731 Y35.329 Z-2.824
X-36.058 Y35.407 Z-2.823
X-34.707 Y35.527 Z-2.812
X-31.998 Y35.622 Z-2.803
X-29.288 Y35.526 Z-2.812
X-26.593 Y35.237 Z-2.821
X-26.065 Y34.948 Z-2.703
X-25.537 Y34.659 Z-2.595
X-24.482 Y34.081 Z-2.39
X-22.371 Y32.925 Z-2.045
X-20.26 Y31.77 Z-1.794
X-18.149 Y30.614 Z-1.636
X-17.184 Y30.067 Z-1.591
X-16.218 Y29.513 Z-1.563
X-13.296 Y27.814 Z-1.588
X-10.388 Y26.09 Z-1.802
X-7.496 Y24.342 Z-2.184
X-4.618 Y22.569 Z-2.728
X-4.216 Y22.337 Z-2.82
X-3.721 Y21.7
X-3.021 Y20.734 Z-2.818
X-2.045 Y19.262 Z-2.809
X-1.133 Y17.749
X-1.263 Y17.675 Z-2.722
X-.12 Y15.541 Z-2.72
X.895 Y13.343 Z-2.732
X.999 Y13.027 Z-2.719
X1.066 Y12.609 Z-2.67
X1.111 Y11.037 Z-2.393
X1.155 Y9.464 Z-2.147
X1.243 Y6.319 Z-1.777
X1.289 Y3.16 Z-1.544
X1.304 Y.001 Z-1.467
X1.289 Y-3.159 Z-1.544
X1.243 Y-6.318 Z-1.777
X1.163 Y-9.228 Z-2.114
X1.083 Y-12.138 Z-2.585
X.994 Y-13.027 Z-2.716
X.477 Y-14.254 Z-2.728
X-.084 Y-15.462 Z-2.721
X-1.332 Y-17.814 Z-2.726
X-2.745 Y-20.071 Z-2.735
X-4.315 Y-22.221 Z-2.734
X-4.693 Y-22.439 Z-2.648
X-4.701 Y-22.443 Z-2.646
X-7.576 Y-24.215 Z-2.1
X-10.467 Y-25.962 Z-1.717
X-13.373 Y-27.685 Z-1.502
X-16.292 Y-29.383 Z-1.476
X-18.224 Y-30.458 Z-1.536
X-20.155 Y-31.532 Z-1.687
X-22.086 Y-32.607 Z-1.916
X-24.017 Y-33.682 Z-2.228
X-26.641 Y-35.093 Z-2.736
X-27.307 Y-35.182 Z-2.737
X-27.975 Y-35.259 Z-2.736
X-29.314 Y-35.378 Z-2.726
X-32. Y-35.473 Z-2.716
X-34.686 Y-35.378 Z-2.726
X-37.359 Y-35.093 Z-2.736
X-37.886 Y-34.805 Z-2.616
X-38.412 Y-34.516 Z-2.509
X-39.464 Y-33.94 Z-2.304
X-41.568 Y-32.788 Z-1.959
X-43.673 Y-31.635 Z-1.708
X-45.777 Y-30.483 Z-1.55
X-46.742 Y-29.936 Z-1.505
X-49.903 Y-28.11 Z-1.481
X-53.046 Y-26.255 Z-1.664
X-56.171 Y-24.37 Z-2.06
X-59.278 Y-22.455 Z-2.641
X-59.684 Y-22.221 Z-2.733
X-60.078 Y-21.71 Z-2.732
X-60.464 Y-21.193 Z-2.725
X-61.208 Y-20.139 Z-2.735
X-62.588 Y-17.959 Z-2.727
X-63.819 Y-15.692 Z-2.724
X-64.894 Y-13.346 Z-2.732
X-64.99 Y-13.049 Z-2.719
X-65.067 Y-11.854 Z-2.52
X-65.128 Y-10.659 Z-2.334
X-65.203 Y-8.266 Z-1.998
X-65.226 Y-7.292 Z-1.877
X-65.243 Y-6.319 Z-1.777
X-65.289 Y-3.16 Z-1.544
X-65.304 Y-.001 Z-1.467
X-65.289 Y3.159 Z-1.544
X-65.243 Y6.318 Z-1.777
X-65.155 Y9.464 Z-2.147
X-65.066 Y12.611 Z-2.67
X-65.002 Y13.013 Z-2.718
X-64.484 Y14.242 Z-2.729
X-63.922 Y15.452 Z-2.722
X-62.672 Y17.807 Z-2.727
X-61.257 Y20.067 Z-2.735
X-59.685 Y22.221 Z-2.734
X-59.307 Y22.439 Z-2.648
X-59.299 Y22.443 Z-2.646
X-56.424 Y24.215 Z-2.1
X-53.533 Y25.962 Z-1.717
X-50.628 Y27.685 Z-1.502
X-47.708 Y29.383 Z-1.476
X-45.776 Y30.458 Z-1.536
X-43.845 Y31.532 Z-1.687
X-41.914 Y32.607 Z-1.916
X-39.983 Y33.682 Z-2.228
X-37.356 Y35.095 Z-2.736
X-36.689 Y35.183 Z-2.738
X-36.022 Y35.26 Z-2.736
X-34.683 Y35.378 Z-2.726
X-31.998 Y35.472 Z-2.716
X-29.312 Y35.377 Z-2.725
X-26.64 Y35.093 Z-2.736
X-26.114 Y34.804 Z-2.616
X-25.588 Y34.516 Z-2.509
X-24.536 Y33.94 Z-2.304
X-22.431 Y32.788 Z-1.959
X-20.327 Y31.635 Z-1.708
X-18.223 Y30.483 Z-1.55
X-17.258 Y29.936 Z-1.505
X-16.292 Y29.383 Z-1.476
X-13.371 Y27.684 Z-1.502
X-10.464 Y25.961 Z-1.718
X-7.572 Y24.213 Z-2.101
X-4.695 Y22.44 Z-2.647
X-4.317 Y22.222 Z-2.733
X-3.841 Y21.61
X-3.144 Y20.648 Z-2.731
X-2.172 Y19.181 Z-2.722
X-1.263 Y17.675
X-1.393 Y17.6 Z-2.635
X-.256 Y15.477 Z-2.634
X.755 Y13.291 Z-2.646
X.853 Y12.992 Z-2.633
X.917 Y12.594 Z-2.586
X.961 Y11.025 Z-2.309
X1.005 Y9.455 Z-2.062
X1.093 Y6.317 Z-1.691
X1.139 Y3.159 Z-1.458
X1.154 Y.001 Z-1.381
X1.139 Y-3.157 Z-1.458
X1.093 Y-6.315 Z-1.691
X1.013 Y-9.221 Z-2.03
X.933 Y-12.128 Z-2.502
X.846 Y-12.991 Z-2.63
X.333 Y-14.207 Z-2.642
X-.223 Y-15.404 Z-2.634
X-1.46 Y-17.735 Z-2.64
X-2.86 Y-19.973 Z-2.649
X-4.415 Y-22.105 Z-2.647
X-4.769 Y-22.309 Z-2.567
X-4.779 Y-22.315 Z-2.565
X-7.654 Y-24.087 Z-2.017
X-10.544 Y-25.833 Z-1.632
X-13.448 Y-27.555 Z-1.415
X-16.367 Y-29.253 Z-1.389
X-18.298 Y-30.327 Z-1.45
X-20.228 Y-31.401 Z-1.602
X-22.158 Y-32.476 Z-1.832
X-24.088 Y-33.55 Z-2.146
X-26.688 Y-34.948 Z-2.65
X-27.348 Y-35.036 Z-2.651
X-28.01 Y-35.112 Z-2.649
X-29.337 Y-35.229 Z-2.639
X-32. Y-35.323 Z-2.63
X-34.663 Y-35.229 Z-2.639
X-37.312 Y-34.948 Z-2.65
X-37.837 Y-34.661 Z-2.53
X-38.361 Y-34.373 Z-2.422
X-39.41 Y-33.799 Z-2.219
X-41.508 Y-32.65 Z-1.873
X-43.606 Y-31.501 Z-1.622
X-45.703 Y-30.352 Z-1.463
X-46.668 Y-29.806 Z-1.418
X-49.828 Y-27.98 Z-1.395
X-52.97 Y-26.125 Z-1.578
X-56.094 Y-24.241 Z-1.977
X-59.201 Y-22.327 Z-2.56
X-59.584 Y-22.106 Z-2.647
X-59.975 Y-21.598 Z-2.645
X-60.357 Y-21.084 Z-2.638
X-61.096 Y-20.038 Z-2.649
X-62.465 Y-17.874 Z-2.641
X-63.686 Y-15.622 Z-2.638
X-64.753 Y-13.294 Z-2.646
X-64.842 Y-13.02 Z-2.633
X-64.918 Y-11.832 Z-2.435
X-64.978 Y-10.643 Z-2.25
X-65.053 Y-8.263 Z-1.914
X-65.076 Y-7.289 Z-1.792
X-65.093 Y-6.317 Z-1.691
X-65.139 Y-3.159 Z-1.458
X-65.154 Y-.001 Z-1.381
X-65.139 Y3.157 Z-1.458
X-65.093 Y6.314 Z-1.691
X-65.005 Y9.456 Z-2.062
X-64.917 Y12.597 Z-2.586
X-64.856 Y12.973 Z-2.631
X-64.342 Y14.191 Z-2.643
X-63.785 Y15.391 Z-2.635
X-62.545 Y17.727 Z-2.64
X-61.143 Y19.969 Z-2.649
X-59.585 Y22.105 Z-2.647
X-59.231 Y22.309 Z-2.567
X-59.221 Y22.315 Z-2.565
X-56.346 Y24.087 Z-2.017
X-53.456 Y25.833 Z-1.632
X-50.552 Y27.555 Z-1.415
X-47.633 Y29.253 Z-1.389
X-45.703 Y30.327 Z-1.45
X-43.772 Y31.401 Z-1.602
X-41.842 Y32.476 Z-1.832
X-39.912 Y33.55 Z-2.146
X-37.308 Y34.95 Z-2.651
X-36.648 Y35.037
X-35.986 Y35.113 Z-2.649
X-34.66 Y35.229 Z-2.639
X-31.998 Y35.322 Z-2.629
X-29.336 Y35.228 Z-2.639
X-26.687 Y34.948 Z-2.65
X-26.163 Y34.661 Z-2.53
X-25.639 Y34.373 Z-2.422
X-24.59 Y33.799 Z-2.219
X-22.492 Y32.65 Z-1.873
X-20.394 Y31.501 Z-1.622
X-18.297 Y30.352 Z-1.463
X-17.332 Y29.806 Z-1.418
X-16.367 Y29.253 Z-1.389
X-13.447 Y27.554 Z-1.415
X-10.54 Y25.831 Z-1.633
X-7.649 Y24.084 Z-2.018
X-4.773 Y22.311 Z-2.566
X-4.417 Y22.106 Z-2.647
X-3.961 Y21.52 Z-2.646
X-3.266 Y20.561 Z-2.645
X-2.298 Y19.1 Z-2.636
X-1.393 Y17.6 Z-2.635
X-1.523 Y17.525 Z-2.549
X-.391 Y15.413 Z-2.547
X.614 Y13.238 Z-2.559
X.707 Y12.956 Z-2.547
X.767 Y12.579 Z-2.502
X.855 Y9.446 Z-1.977
X.943 Y6.314 Z-1.606
X.989 Y3.158 Z-1.372
X1.004 Y.001 Z-1.295
X.989 Y-3.155 Z-1.372
X.944 Y-6.311 Z-1.606
X.863 Y-9.215 Z-1.945
X.783 Y-12.119 Z-2.419
X.699 Y-12.955 Z-2.543
X.19 Y-14.16 Z-2.555
X-.361 Y-15.346 Z-2.547
X-1.588 Y-17.657 Z-2.553
X-2.975 Y-19.875 Z-2.562
X-4.515 Y-21.99 Z-2.561
X-4.845 Y-22.18 Z-2.486
X-4.857 Y-22.187 Z-2.483
X-7.731 Y-23.958 Z-1.934
X-10.62 Y-25.704 Z-1.547
X-13.524 Y-27.426 Z-1.329
X-16.442 Y-29.123 Z-1.303
X-18.371 Y-30.197 Z-1.364
X-20.301 Y-31.27 Z-1.516
X-22.23 Y-32.344 Z-1.748
X-24.16 Y-33.418 Z-2.063
X-26.735 Y-34.803 Z-2.564
X-27.39 Y-34.89
X-28.046 Y-34.965 Z-2.562
X-29.361 Y-35.08 Z-2.553
X-32. Y-35.173 Z-2.543
X-34.639 Y-35.08 Z-2.553
X-37.265 Y-34.803 Z-2.564
X-37.788 Y-34.517 Z-2.444
X-38.31 Y-34.23 Z-2.335
X-39.356 Y-33.658 Z-2.133
X-41.447 Y-32.512 Z-1.787
X-43.538 Y-31.367 Z-1.535
X-45.63 Y-30.222 Z-1.377
X-46.594 Y-29.676 Z-1.332
X-49.753 Y-27.851 Z-1.308
X-52.894 Y-25.996 Z-1.492
X-56.018 Y-24.112 Z-1.894
X-59.124 Y-22.198 Z-2.479
X-59.484 Y-21.99 Z-2.561
X-59.872 Y-21.486 Z-2.558
X-60.251 Y-20.976 Z-2.551
X-60.983 Y-19.937 Z-2.562
X-62.341 Y-17.788 Z-2.554
X-63.553 Y-15.553 Z-2.551
X-64.613 Y-13.242 Z-2.559
X-64.693 Y-12.992 Z-2.548
X-64.769 Y-11.81 Z-2.35
X-64.829 Y-10.627 Z-2.167
X-64.903 Y-8.259 Z-1.83
X-64.926 Y-7.286 Z-1.708
X-64.943 Y-6.314 Z-1.606
X-64.989 Y-3.158 Z-1.372
X-65.004 Y-.001 Z-1.295
X-64.989 Y3.155 Z-1.372
X-64.944 Y6.311 Z-1.606
X-64.855 Y9.447 Z-1.977
X-64.767 Y12.583 Z-2.503
X-64.711 Y12.933 Z-2.544
X-64.201 Y14.141 Z-2.556
X-63.648 Y15.33 Z-2.548
X-62.419 Y17.646 Z-2.553
X-61.028 Y19.87 Z-2.562
X-59.485 Y21.99 Z-2.561
X-59.155 Y22.18 Z-2.486
X-59.143 Y22.187 Z-2.483
X-56.269 Y23.958 Z-1.934
X-53.38 Y25.704 Z-1.547
X-50.476 Y27.426 Z-1.329
X-47.558 Y29.123 Z-1.303
X-45.629 Y30.197 Z-1.364
X-43.699 Y31.27 Z-1.516
X-41.77 Y32.344 Z-1.748
X-39.84 Y33.418 Z-2.063
X-37.261 Y34.805 Z-2.565
X-36.607 Y34.891
X-35.951 Y34.966 Z-2.562
X-34.636 Y35.081 Z-2.553
X-31.998 Y35.172 Z-2.543
X-29.36 Y35.08 Z-2.552
X-26.735 Y34.803 Z-2.564
X-26.212 Y34.517 Z-2.444
X-25.689 Y34.23 Z-2.335
X-24.644 Y33.658 Z-2.133
X-22.553 Y32.512 Z-1.787
X-20.461 Y31.367 Z-1.536
X-18.37 Y30.222 Z-1.377
X-17.406 Y29.676 Z-1.332
X-16.442 Y29.123 Z-1.303
X-13.522 Y27.425 Z-1.329
X-10.616 Y25.702 Z-1.548
X-7.725 Y23.955 Z-1.935
X-4.85 Y22.183 Z-2.485
X-4.517 Y21.991 Z-2.56
X-4.081 Y21.43
X-3.388 Y20.474 Z-2.558
X-2.424 Y19.02 Z-2.549
X-1.523 Y17.525
X-1.653 Y17.451 Z-2.462
X-.527 Y15.349 Z-2.46
X.474 Y13.185 Z-2.472
X.561 Y12.921 Z-2.461
X.618 Y12.564 Z-2.418
X.706 Y9.437 Z-1.893
X.793 Y6.311 Z-1.521
X.839 Y3.156 Z-1.286
X.854 Y.002 Z-1.209
X.839 Y-3.153 Z-1.286
X.794 Y-6.308 Z-1.52
X.713 Y-9.208 Z-1.861
X.633 Y-12.109 Z-2.336
X.552 Y-12.919 Z-2.456
X.047 Y-14.113 Z-2.469
X-.5 Y-15.289 Z-2.46
X-1.716 Y-17.579 Z-2.466
X-3.09 Y-19.778 Z-2.475
X-4.616 Y-21.875 Z-2.474
X-4.921 Y-22.051 Z-2.405
X-4.935 Y-22.059 Z-2.402
X-7.808 Y-23.829 Z-1.851
X-10.696 Y-25.575 Z-1.462
X-13.599 Y-27.296 Z-1.242
X-16.517 Y-28.993 Z-1.216
X-18.445 Y-30.066 Z-1.277
X-20.374 Y-31.139 Z-1.43
X-22.303 Y-32.213 Z-1.664
X-24.231 Y-33.286 Z-1.98
X-26.783 Y-34.658 Z-2.479
X-27.431 Y-34.744 Z-2.477
X-28.081 Y-34.818 Z-2.475
X-29.385 Y-34.932 Z-2.466
X-32. Y-35.023 Z-2.457
X-34.615 Y-34.932 Z-2.466
X-37.217 Y-34.658 Z-2.479
X-37.739 Y-34.373 Z-2.358
X-38.26 Y-34.087 Z-2.249
X-39.302 Y-33.516 Z-2.048
X-41.387 Y-32.375 Z-1.701
X-43.471 Y-31.233 Z-1.449
X-45.556 Y-30.091 Z-1.291
X-46.52 Y-29.545 Z-1.246
X-48.101 Y-28.637 Z-1.204
X-49.678 Y-27.721 Z-1.222
X-52.819 Y-25.866 Z-1.406
X-55.942 Y-23.982 Z-1.811
X-59.047 Y-22.069 Z-2.398
X-59.384 Y-21.875 Z-2.474
X-59.768 Y-21.374 Z-2.471
X-60.144 Y-20.868 Z-2.465
X-60.87 Y-19.836 Z-2.475
X-62.218 Y-17.702 Z-2.468
X-63.42 Y-15.484 Z-2.465
X-64.472 Y-13.19 Z-2.473
X-64.545 Y-12.963 Z-2.462
X-64.62 Y-11.787 Z-2.265
X-64.679 Y-10.611 Z-2.083
X-64.753 Y-8.256 Z-1.747
X-64.776 Y-7.283 Z-1.624
X-64.793 Y-6.311 Z-1.521
X-64.839 Y-3.156 Z-1.286
X-64.854 Y-.002 Z-1.209
X-64.839 Y3.153 Z-1.286
X-64.794 Y6.307 Z-1.52
X-64.705 Y9.438 Z-1.893
X-64.617 Y12.569 Z-2.419
X-64.565 Y12.892 Z-2.458
X-64.059 Y14.09 Z-2.469
X-63.511 Y15.269 Z-2.461
X-62.292 Y17.566 Z-2.467
X-60.914 Y19.772 Z-2.475
X-59.384 Y21.875 Z-2.474
X-59.079 Y22.051 Z-2.405
X-59.065 Y22.059 Z-2.402
X-56.192 Y23.829 Z-1.851
X-53.304 Y25.575 Z-1.462
X-50.401 Y27.296 Z-1.242
X-47.483 Y28.993 Z-1.216
X-45.555 Y30.066 Z-1.277
X-43.626 Y31.139 Z-1.43
X-41.697 Y32.213 Z-1.664
X-39.769 Y33.286 Z-1.98
X-37.214 Y34.66 Z-2.479
X-36.565 Y34.745 Z-2.478
X-35.915 Y34.819 Z-2.476
X-34.612 Y34.932 Z-2.466
X-31.998 Y35.022 Z-2.456
X-29.384 Y34.931 Z-2.466
X-26.782 Y34.658 Z-2.479
X-26.261 Y34.373 Z-2.358
X-25.74 Y34.087 Z-2.249
X-24.698 Y33.516 Z-2.048
X-22.613 Y32.375 Z-1.701
X-20.529 Y31.233 Z-1.449
X-18.444 Y30.091 Z-1.291
X-17.481 Y29.546 Z-1.246
X-16.517 Y28.993 Z-1.216
X-13.597 Y27.295 Z-1.242
X-10.692 Y25.573 Z-1.463
X-7.802 Y23.826 Z-1.852
X-4.927 Y22.054 Z-2.404
X-4.618 Y21.876 Z-2.474
X-4.201 Y21.34 Z-2.473
X-3.511 Y20.387 Z-2.471
X-2.551 Y18.939 Z-2.462
X-1.653 Y17.451
X-1.783 Y17.376 Z-2.375
X-.663 Y15.285 Z-2.374
X.333 Y13.132 Z-2.386
X.414 Y12.885 Z-2.375
X.468 Y12.549 Z-2.334
X.556 Y9.428 Z-1.808
X.644 Y6.308 Z-1.435
X.689 Y3.155 Z-1.201
X.704 Y.002 Z-1.123
X.689 Y-3.151 Z-1.2
X.644 Y-6.304 Z-1.435
X.564 Y-9.202 Z-1.777
X.484 Y-12.1 Z-2.253
X.405 Y-12.883 Z-2.37
X-.096 Y-14.066 Z-2.382
X-.639 Y-15.231 Z-2.374
X-1.844 Y-17.5 Z-2.38
X-3.205 Y-19.68 Z-2.389
X-4.716 Y-21.759 Z-2.388
X-4.997 Y-21.921 Z-2.324
X-5.013 Y-21.931 Z-2.321
X-7.886 Y-23.701 Z-1.768
X-10.773 Y-25.446 Z-1.377
X-13.675 Y-27.167 Z-1.156
X-16.592 Y-28.863 Z-1.13
X-18.519 Y-29.936 Z-1.191
X-20.447 Y-31.008 Z-1.345
X-22.375 Y-32.081 Z-1.579
X-24.303 Y-33.154 Z-1.898
X-26.83 Y-34.513 Z-2.393
X-27.473 Y-34.598 Z-2.391
X-28.117 Y-34.671 Z-2.388
X-29.409 Y-34.783 Z-2.38
X-32. Y-34.873 Z-2.37
X-34.591 Y-34.783 Z-2.38
X-37.17 Y-34.513 Z-2.393
X-37.69 Y-34.229 Z-2.272
X-38.209 Y-33.944 Z-2.162
X-39.248 Y-33.375 Z-1.962
X-41.326 Y-32.237 Z-1.615
X-43.404 Y-31.099 Z-1.363
X-45.482 Y-29.96 Z-1.205
X-46.446 Y-29.415 Z-1.161
X-48.026 Y-28.506 Z-1.118
X-49.603 Y-27.591 Z-1.135
X-52.743 Y-25.737 Z-1.321
X-55.865 Y-23.853 Z-1.728
X-58.97 Y-21.941 Z-2.317
X-59.284 Y-21.76 Z-2.388
X-59.665 Y-21.263 Z-2.385
X-60.037 Y-20.759 Z-2.378
X-60.758 Y-19.735 Z-2.389
X-62.094 Y-17.617 Z-2.381
X-63.287 Y-15.415 Z-2.378
X-64.331 Y-13.138 Z-2.386
X-64.397 Y-12.934 Z-2.376
X-64.471 Y-11.765 Z-2.18
X-64.53 Y-10.595 Z-1.998
X-64.603 Y-8.253 Z-1.663
X-64.626 Y-7.28 Z-1.539
X-64.644 Y-6.308 Z-1.435
X-64.689 Y-3.155 Z-1.201
X-64.704 Y-.002 Z-1.123
X-64.689 Y3.151 Z-1.2
X-64.644 Y6.304 Z-1.435
X-64.556 Y9.429 Z-1.808
X-64.468 Y12.555 Z-2.335
X-64.42 Y12.852 Z-2.371
X-63.917 Y14.039 Z-2.383
X-63.374 Y15.208 Z-2.375
X-62.165 Y17.486 Z-2.38
X-60.799 Y19.673 Z-2.389
X-59.284 Y21.759 Z-2.388
X-59.003 Y21.921 Z-2.324
X-58.987 Y21.931 Z-2.321
X-56.114 Y23.701 Z-1.768
X-53.227 Y25.446 Z-1.377
X-50.325 Y27.167 Z-1.156
X-47.409 Y28.863 Z-1.13
X-45.481 Y29.936 Z-1.191
X-43.553 Y31.008 Z-1.345
X-41.625 Y32.081 Z-1.579
X-39.697 Y33.154 Z-1.898
X-37.167 Y34.515 Z-2.394
X-36.524 Y34.599 Z-2.391
X-35.88 Y34.672 Z-2.389
X-34.588 Y34.783 Z-2.38
X-31.998 Y34.872 Z-2.37
X-29.407 Y34.782 Z-2.379
X-26.829 Y34.513 Z-2.393
X-26.31 Y34.229 Z-2.272
X-25.79 Y33.944 Z-2.162
X-24.751 Y33.375 Z-1.962
X-22.674 Y32.237 Z-1.615
X-20.596 Y31.099 Z-1.363
X-18.518 Y29.96 Z-1.205
X-17.555 Y29.415 Z-1.161
X-16.592 Y28.863 Z-1.13
X-13.673 Y27.165 Z-1.156
X-10.768 Y25.443 Z-1.377
X-7.878 Y23.697 Z-1.769
X-5.004 Y21.925 Z-2.323
X-4.718 Y21.761 Z-2.388
X-4.321 Y21.25 Z-2.387
X-3.633 Y20.3 Z-2.385
X-2.677 Y18.858 Z-2.376
X-1.783 Y17.376 Z-2.375
X-1.914 Y17.301 Z-2.289
X-.799 Y15.221 Z-2.287
X.193 Y13.079 Z-2.299
X.268 Y12.849 Z-2.289
X.319 Y12.534 Z-2.25
X.406 Y9.419 Z-1.724
X.494 Y6.305 Z-1.35
X.539 Y3.154 Z-1.115
X.554 Y.002 Z-1.037
X.539 Y-3.149 Z-1.115
X.494 Y-6.301 Z-1.35
X.414 Y-9.195 Z-1.692
X.334 Y-12.09 Z-2.17
X.258 Y-12.846 Z-2.283
X-.239 Y-14.019 Z-2.295
X-.777 Y-15.173 Z-2.287
X-1.972 Y-17.422 Z-2.293
X-3.32 Y-19.583 Z-2.302
X-4.816 Y-21.644
X-5.073 Y-21.792 Z-2.243
X-5.091 Y-21.803 Z-2.239
X-7.963 Y-23.572 Z-1.685
X-10.849 Y-25.317 Z-1.292
X-13.751 Y-27.037 Z-1.069
X-16.666 Y-28.733 Z-1.043
X-18.593 Y-29.805 Z-1.105
X-20.52 Y-30.878 Z-1.259
X-22.447 Y-31.95 Z-1.495
X-24.374 Y-33.022 Z-1.815
X-26.877 Y-34.369 Z-2.307
X-27.514 Y-34.451 Z-2.304
X-28.152 Y-34.523 Z-2.302
X-29.432 Y-34.634 Z-2.293
X-32. Y-34.723 Z-2.283
X-34.568 Y-34.634 Z-2.293
X-37.123 Y-34.369 Z-2.307
X-37.641 Y-34.085 Z-2.185
X-38.159 Y-33.801 Z-2.075
X-39.194 Y-33.234 Z-1.876
X-41.266 Y-32.099 Z-1.529
X-43.337 Y-30.964 Z-1.277
X-45.409 Y-29.83 Z-1.119
X-46.371 Y-29.285 Z-1.075
X-47.952 Y-28.376 Z-1.031
X-49.528 Y-27.461 Z-1.049
X-52.667 Y-25.607 Z-1.235
X-55.789 Y-23.724 Z-1.645
X-57.343 Y-22.772 Z-1.91
X-58.893 Y-21.812 Z-2.236
X-59.183 Y-21.644 Z-2.302
X-59.561 Y-21.151 Z-2.298
X-59.931 Y-20.651 Z-2.291
X-60.645 Y-19.634 Z-2.302
X-61.97 Y-17.531 Z-2.295
X-63.154 Y-15.345 Z-2.292
X-64.19 Y-13.086 Z-2.3
X-64.248 Y-12.906 Z-2.29
X-64.322 Y-11.743 Z-2.095
X-64.381 Y-10.579 Z-1.914
X-64.453 Y-8.25 Z-1.579
X-64.476 Y-7.277 Z-1.455
X-64.494 Y-6.305 Z-1.35
X-64.539 Y-3.154 Z-1.115
X-64.554 Y-.002 Z-1.037
X-64.539 Y3.149 Z-1.115
X-64.494 Y6.3 Z-1.349
X-64.406 Y9.42 Z-1.723
X-64.318 Y12.541 Z-2.251
X-64.274 Y12.811 Z-2.284
X-63.776 Y13.989 Z-2.296
X-63.236 Y15.148 Z-2.288
X-62.038 Y17.406 Z-2.293
X-60.685 Y19.575 Z-2.302
X-59.184 Y21.644
X-58.927 Y21.792 Z-2.243
X-58.909 Y21.803 Z-2.239
X-56.037 Y23.572 Z-1.685
X-53.151 Y25.317 Z-1.292
X-50.249 Y27.037 Z-1.069
X-47.334 Y28.733 Z-1.043
X-45.407 Y29.805 Z-1.105
X-43.48 Y30.877 Z-1.259
X-41.553 Y31.95 Z-1.495
X-39.626 Y33.022 Z-1.815
X-37.119 Y34.37 Z-2.308
X-36.483 Y34.453 Z-2.305
X-35.844 Y34.524 Z-2.302
X-34.565 Y34.634 Z-2.293
X-31.998 Y34.722 Z-2.283
X-29.431 Y34.633 Z-2.293
X-26.876 Y34.368 Z-2.307
X-26.359 Y34.085 Z-2.185
X-25.841 Y33.801 Z-2.075
X-24.805 Y33.234 Z-1.876
X-22.734 Y32.099 Z-1.529
X-20.663 Y30.964 Z-1.277
X-18.591 Y29.83 Z-1.119
X-17.629 Y29.285 Z-1.075
X-16.666 Y28.733 Z-1.043
X-13.748 Y27.036 Z-1.069
X-10.844 Y25.314 Z-1.292
X-7.955 Y23.568 Z-1.686
X-5.081 Y21.797 Z-2.241
X-4.819 Y21.645 Z-2.301
X-4.441 Y21.16 Z-2.3
X-3.755 Y20.214 Z-2.298
X-2.803 Y18.777 Z-2.289
X-1.914 Y17.301
X-2.044 Y17.226 Z-2.202
X-.934 Y15.157 Z-2.2
X.053 Y13.025 Z-2.213
X.122 Y12.814 Z-2.203
X.169 Y12.519 Z-2.167
X.257 Y9.41 Z-1.639
X.344 Y6.302 Z-1.265
X.389 Y3.153 Z-1.029
X.404 Y.003 Z-.951
X.389 Y-3.147 Z-1.029
X.344 Y-6.297 Z-1.264
X.264 Y-9.189 Z-1.608
X.184 Y-12.08 Z-2.087
X.111 Y-12.81 Z-2.196
X-.383 Y-13.971 Z-2.209
X-.916 Y-15.115 Z-2.2
X-2.1 Y-17.344 Z-2.206
X-3.436 Y-19.485 Z-2.215
X-4.916 Y-21.529
X-5.149 Y-21.663 Z-2.162
X-5.17 Y-21.675 Z-2.158
X-8.04 Y-23.444 Z-1.602
X-10.926 Y-25.188 Z-1.206
X-13.826 Y-26.908 Z-.983
X-16.741 Y-28.603 Z-.957
X-18.667 Y-29.675 Z-1.019
X-20.593 Y-30.747 Z-1.173
X-22.52 Y-31.819 Z-1.411
X-24.446 Y-32.891 Z-1.732
X-26.924 Y-34.224 Z-2.222
X-27.555 Y-34.305 Z-2.218
X-28.188 Y-34.376 Z-2.215
X-29.456 Y-34.485 Z-2.207
X-32. Y-34.573 Z-2.197
X-34.544 Y-34.485 Z-2.207
X-37.076 Y-34.224 Z-2.222
X-37.592 Y-33.941 Z-2.099
X-38.108 Y-33.658 Z-1.989
X-39.141 Y-33.093 Z-1.791
X-41.205 Y-31.961 Z-1.443
X-43.27 Y-30.83 Z-1.191
X-45.335 Y-29.699 Z-1.033
X-46.297 Y-29.154 Z-.989
X-47.877 Y-28.246 Z-.944
X-49.453 Y-27.331 Z-.963
X-52.592 Y-25.478 Z-1.149
X-55.712 Y-23.595 Z-1.562
X-57.266 Y-22.643 Z-1.827
X-58.815 Y-21.683 Z-2.154
X-59.083 Y-21.529 Z-2.215
X-59.458 Y-21.039 Z-2.211
X-59.824 Y-20.543 Z-2.204
X-60.532 Y-19.533 Z-2.215
X-61.846 Y-17.445 Z-2.208
X-63.021 Y-15.276 Z-2.205
X-64.049 Y-13.034 Z-2.213
X-64.1 Y-12.877 Z-2.205
X-64.173 Y-11.721 Z-2.009
X-64.231 Y-10.563 Z-1.829
X-64.303 Y-8.247 Z-1.496
X-64.326 Y-7.273 Z-1.371
X-64.344 Y-6.302 Z-1.265
X-64.389 Y-3.153 Z-1.029
X-64.404 Y-.003 Z-.951
X-64.389 Y3.147 Z-1.029
X-64.344 Y6.297 Z-1.264
X-64.256 Y9.412 Z-1.639
X-64.168 Y12.526 Z-2.167
X-64.129 Y12.771 Z-2.198
X-63.634 Y13.938 Z-2.21
X-63.099 Y15.087 Z-2.201
X-61.911 Y17.325 Z-2.207
X-60.57 Y19.476 Z-2.215
X-59.084 Y21.529
X-58.851 Y21.663 Z-2.162
X-58.83 Y21.675 Z-2.158
X-55.96 Y23.444 Z-1.602
X-53.074 Y25.188 Z-1.206
X-50.174 Y26.908 Z-.983
X-47.259 Y28.602 Z-.957
X-45.333 Y29.674 Z-1.019
X-43.407 Y30.747 Z-1.173
X-41.481 Y31.819 Z-1.411
X-39.554 Y32.891 Z-1.732
X-37.072 Y34.226 Z-2.222
X-36.441 Y34.307 Z-2.218
X-35.809 Y34.377 Z-2.215
X-34.541 Y34.486 Z-2.207
X-31.998 Y34.572 Z-2.196
X-29.455 Y34.485 Z-2.206
X-26.924 Y34.224 Z-2.222
X-26.407 Y33.941 Z-2.099
X-25.891 Y33.658 Z-1.989
X-24.859 Y33.092 Z-1.791
X-22.794 Y31.961 Z-1.443
X-20.73 Y30.83 Z-1.191
X-18.665 Y29.699 Z-1.033
X-17.704 Y29.155 Z-.989
X-16.741 Y28.603 Z-.957
X-13.823 Y26.906 Z-.983
X-10.92 Y25.185 Z-1.207
X-8.032 Y23.439 Z-1.603
X-5.158 Y21.668 Z-2.16
X-4.919 Y21.53 Z-2.215
X-4.561 Y21.07 Z-2.213
X-3.878 Y20.127 Z-2.211
X-2.93 Y18.696 Z-2.202
X-2.044 Y17.226
X-2.174 Y17.152 Z-2.115
X-1.07 Y15.093 Z-2.114
X-.088 Y12.972 Z-2.126
X-.024 Y12.778 Z-2.117
X.02 Y12.504 Z-2.083
X.107 Y9.401 Z-1.554
X.194 Y6.299 Z-1.179
X.239 Y3.151 Z-.944
X.254 Y.003 Z-.866
X.239 Y-3.146 Z-.944
X.194 Y-6.294 Z-1.179
X.114 Y-9.182 Z-1.524
X.034 Y-12.071 Z-2.004
X-.036 Y-12.774 Z-2.11
X-.526 Y-13.924 Z-2.122
X-1.055 Y-15.057 Z-2.113
X-2.228 Y-17.265 Z-2.12
X-3.551 Y-19.387 Z-2.129
X-5.017 Y-21.413
X-5.225 Y-21.533 Z-2.082
X-5.248 Y-21.547 Z-2.077
X-8.117 Y-23.315 Z-1.519
X-11.002 Y-25.059 Z-1.121
X-13.902 Y-26.778 Z-.896
X-16.816 Y-28.472 Z-.87
X-18.741 Y-29.544 Z-.933
X-20.666 Y-30.616 Z-1.088
X-22.592 Y-31.687 Z-1.327
X-24.517 Y-32.759 Z-1.649
X-26.971 Y-34.079 Z-2.136
X-27.597 Y-34.159 Z-2.131
X-28.223 Y-34.229 Z-2.128
X-29.48 Y-34.337 Z-2.12
X-32. Y-34.423 Z-2.11
X-34.52 Y-34.337 Z-2.12
X-37.029 Y-34.079 Z-2.136
X-37.543 Y-33.797 Z-2.013
X-38.058 Y-33.515 Z-1.902
X-39.087 Y-32.951 Z-1.705
X-41.145 Y-31.824 Z-1.357
X-43.203 Y-30.696 Z-1.105
X-45.261 Y-29.568 Z-.946
X-46.223 Y-29.024 Z-.903
X-47.803 Y-28.116 Z-.858
X-49.378 Y-27.201 Z-.877
X-52.516 Y-25.348 Z-1.064
X-55.636 Y-23.466 Z-1.478
X-57.189 Y-22.514 Z-1.744
X-58.738 Y-21.555 Z-2.073
X-58.983 Y-21.414 Z-2.129
X-59.354 Y-20.927 Z-2.124
X-59.717 Y-20.435 Z-2.118
X-60.419 Y-19.432 Z-2.129
X-61.723 Y-17.36 Z-2.122
X-62.888 Y-15.207 Z-2.118
X-63.909 Y-12.982 Z-2.126
X-63.951 Y-12.848 Z-2.119
X-64.024 Y-11.698 Z-1.924
X-64.082 Y-10.547 Z-1.745
X-64.153 Y-8.244 Z-1.412
X-64.176 Y-7.27 Z-1.286
X-64.194 Y-6.299 Z-1.179
X-64.239 Y-3.151 Z-.944
X-64.254 Y-.003 Z-.866
X-64.239 Y3.145 Z-.944
X-64.194 Y6.293 Z-1.179
X-64.106 Y9.403 Z-1.554
X-64.019 Y12.512 Z-2.084
X-63.984 Y12.73 Z-2.111
X-63.493 Y13.887 Z-2.123
X-62.962 Y15.026 Z-2.115
X-61.784 Y17.245 Z-2.12
X-60.456 Y19.378 Z-2.129
X-58.983 Y21.413
X-58.775 Y21.533 Z-2.082
X-58.752 Y21.547 Z-2.077
X-55.883 Y23.315 Z-1.519
X-52.998 Y25.059 Z-1.121
X-50.098 Y26.778 Z-.896
X-47.184 Y28.472 Z-.87
X-45.259 Y29.544 Z-.933
X-43.334 Y30.616 Z-1.088
X-41.408 Y31.687 Z-1.327
X-39.483 Y32.759 Z-1.649
X-37.025 Y34.081 Z-2.137
X-36.4 Y34.161 Z-2.131
X-35.774 Y34.23 Z-2.128
X-34.517 Y34.337 Z-2.121
X-31.998 Y34.422 Z-2.11
X-29.478 Y34.336 Z-2.12
X-26.971 Y34.079 Z-2.136
X-26.456 Y33.797 Z-2.013
X-25.942 Y33.515 Z-1.902
X-24.913 Y32.951 Z-1.705
X-22.855 Y31.824 Z-1.357
X-20.797 Y30.696 Z-1.105
X-18.739 Y29.568 Z-.946
X-17.778 Y29.024 Z-.903
X-16.816 Y28.472 Z-.87
X-13.899 Y26.776 Z-.896
X-10.996 Y25.055 Z-1.122
X-8.108 Y23.31 Z-1.52
X-5.235 Y21.539 Z-2.079
X-5.019 Y21.415 Z-2.128
X-4.681 Y20.98 Z-2.127
X-4. Y20.04 Z-2.125
X-3.056 Y18.615 Z-2.116
X-2.174 Y17.152 Z-2.115
X-2.304 Y17.077 Z-2.028
X-1.206 Y15.028 Z-2.027
X-.228 Y12.919 Z-2.039
X-.17 Y12.743 Z-2.031
X-.13 Y12.489 Z-1.999
X-.043 Y9.393 Z-1.47
X.044 Y6.296 Z-1.094
X.089 Y3.15 Z-.858
X.104 Y.003 Z-.78
X.089 Y-3.144 Z-.858
X.044 Y-6.29 Z-1.093
X-.036 Y-9.176 Z-1.44
X-.116 Y-12.061 Z-1.921
X-.183 Y-12.737 Z-2.023
X-.669 Y-13.877 Z-2.035
X-1.193 Y-14.999 Z-2.027
X-2.356 Y-17.187 Z-2.033
X-3.666 Y-19.29 Z-2.042
X-5.117 Y-21.298 Z-2.043
X-5.301 Y-21.404 Z-2.001
X-5.326 Y-21.419 Z-1.995
X-6.758 Y-22.306 Z-1.685
X-8.195 Y-23.187 Z-1.436
X-9.635 Y-24.061 Z-1.206
X-11.079 Y-24.93 Z-1.036
X-13.977 Y-26.649 Z-.81
X-16.891 Y-28.342 Z-.784
X-18.815 Y-29.414 Z-.847
X-20.74 Y-30.485 Z-1.002
X-22.664 Y-31.556 Z-1.243
X-24.589 Y-32.627 Z-1.567
X-27.018 Y-33.934 Z-2.05
X-27.638 Y-34.013 Z-2.044
X-28.259 Y-34.082 Z-2.041
X-29.503 Y-34.188 Z-2.034
X-32. Y-34.273 Z-2.024
X-34.497 Y-34.188 Z-2.034
X-36.982 Y-33.934 Z-2.05
X-37.495 Y-33.653 Z-1.927
X-38.007 Y-33.372 Z-1.815
X-39.033 Y-32.81 Z-1.619
X-41.085 Y-31.686 Z-1.271
X-43.136 Y-30.562 Z-1.018
X-45.187 Y-29.438 Z-.86
X-46.149 Y-28.893 Z-.818
X-47.728 Y-27.986 Z-.771
X-49.303 Y-27.071 Z-.791
X-52.44 Y-25.219 Z-.978
X-55.56 Y-23.337 Z-1.395
X-57.113 Y-22.385 Z-1.661
X-58.661 Y-21.426 Z-1.992
X-58.882 Y-21.299 Z-2.042
X-59.25 Y-20.815 Z-2.037
X-59.61 Y-20.326 Z-2.031
X-60.306 Y-19.331 Z-2.042
X-61.599 Y-17.274 Z-2.035
X-62.754 Y-15.137 Z-2.032
X-63.768 Y-12.93 Z-2.04
X-63.803 Y-12.82 Z-2.033
X-63.875 Y-11.676 Z-1.839
X-63.932 Y-10.532 Z-1.66
X-64.003 Y-8.241 Z-1.329
X-64.026 Y-7.267 Z-1.202
X-64.044 Y-6.296 Z-1.094
X-64.089 Y-3.15 Z-.858
X-64.104 Y-.003 Z-.78
X-64.089 Y3.143 Z-.858
X-64.044 Y6.29 Z-1.093
X-63.956 Y9.394 Z-1.47
X-63.869 Y12.498 Z-2.
X-63.838 Y12.69 Z-2.024
X-63.351 Y13.836 Z-2.036
X-62.825 Y14.965 Z-2.028
X-61.657 Y17.165 Z-2.034
X-60.341 Y19.279 Z-2.042
X-58.883 Y21.298 Z-2.043
X-58.699 Y21.404 Z-2.001
X-58.674 Y21.419 Z-1.995
X-57.242 Y22.306 Z-1.685
X-55.805 Y23.187 Z-1.436
X-54.365 Y24.061 Z-1.206
X-52.921 Y24.93 Z-1.036
X-50.023 Y26.648 Z-.81
X-47.11 Y28.342 Z-.784
X-45.185 Y29.413 Z-.847
X-43.26 Y30.485 Z-1.002
X-41.336 Y31.556 Z-1.243
X-39.411 Y32.627 Z-1.567
X-36.978 Y33.936 Z-2.051
X-36.359 Y34.015 Z-2.045
X-35.738 Y34.083 Z-2.041
X-34.494 Y34.188 Z-2.034
X-31.998 Y34.272 Z-2.023
X-29.502 Y34.187 Z-2.034
X-27.018 Y33.934 Z-2.05
X-26.505 Y33.653 Z-1.927
X-25.992 Y33.372 Z-1.815
X-24.966 Y32.81 Z-1.619
X-22.915 Y31.686 Z-1.271
X-20.864 Y30.562 Z-1.018
X-18.813 Y29.438 Z-.86
X-17.852 Y28.894 Z-.818
X-16.891 Y28.342 Z-.784
X-13.974 Y26.647 Z-.81
X-11.072 Y24.926 Z-1.037
X-9.626 Y24.056 Z-1.207
X-8.185 Y23.18 Z-1.437
X-6.747 Y22.299 Z-1.687
X-5.312 Y21.411 Z-1.998
X-5.12 Y21.3 Z-2.042
X-4.801 Y20.889 Z-2.04
X-4.122 Y19.953 Z-2.038
X-3.182 Y18.535 Z-2.029
X-2.304 Y17.077 Z-2.028
X-2.434 Y17.002 Z-1.942
X-1.341 Y14.964 Z-1.94
X-.369 Y12.866 Z-1.953
X-.317 Y12.707 Z-1.945
X-.279 Y12.474 Z-1.916
X-.193 Y9.384 Z-1.385
X-.106 Y6.294 Z-1.009
X-.061 Y3.149 Z-.773
X-.046 Y.004 Z-.694
X-.061 Y-3.142 Z-.772
X-.106 Y-6.287 Z-1.008
X-.186 Y-9.169 Z-1.355
X-.265 Y-12.052 Z-1.838
X-.33 Y-12.701 Z-1.936
X-.812 Y-13.83 Z-1.949
X-1.332 Y-14.942 Z-1.94
X-2.484 Y-17.109 Z-1.946
X-3.781 Y-19.193 Z-1.955
X-5.218 Y-21.183 Z-1.956
X-5.377 Y-21.275 Z-1.92
X-5.404 Y-21.291 Z-1.914
X-6.836 Y-22.178 Z-1.602
X-8.272 Y-23.058 Z-1.353
X-9.712 Y-23.933 Z-1.121
X-11.155 Y-24.801 Z-.951
X-14.053 Y-26.519 Z-.724
X-16.965 Y-28.212 Z-.698
X-18.889 Y-29.283 Z-.761
X-20.813 Y-30.354 Z-.916
X-22.736 Y-31.424 Z-1.159
X-24.66 Y-32.495 Z-1.484
X-27.065 Y-33.789 Z-1.964
X-27.679 Y-33.867 Z-1.958
X-28.294 Y-33.935 Z-1.954
X-29.527 Y-34.039 Z-1.948
X-32. Y-34.123 Z-1.937
X-34.473 Y-34.039 Z-1.948
X-36.935 Y-33.789 Z-1.964
X-37.446 Y-33.509 Z-1.841
X-37.957 Y-33.229 Z-1.729
X-38.98 Y-32.668 Z-1.534
X-41.024 Y-31.548 Z-1.185
X-43.069 Y-30.428 Z-.932
X-45.114 Y-29.307 Z-.774
X-46.075 Y-28.763 Z-.732
X-47.654 Y-27.856 Z-.684
X-49.228 Y-26.941 Z-.705
X-52.364 Y-25.089 Z-.893
X-55.483 Y-23.208 Z-1.311
X-57.036 Y-22.256 Z-1.578
X-58.584 Y-21.297 Z-1.911
X-58.782 Y-21.183 Z-1.956
X-59.146 Y-20.704 Z-1.95
X-59.503 Y-20.218 Z-1.945
X-60.194 Y-19.23 Z-1.955
X-61.475 Y-17.189 Z-1.948
X-62.621 Y-15.068 Z-1.945
X-63.627 Y-12.878 Z-1.953
X-63.655 Y-12.791 Z-1.948
X-63.726 Y-11.654 Z-1.754
X-63.783 Y-10.516 Z-1.576
X-63.853 Y-8.238 Z-1.245
X-63.894 Y-6.294 Z-1.009
X-63.939 Y-3.149 Z-.773
X-63.954 Y-.004 Z-.694
X-63.939 Y3.141 Z-.772
X-63.894 Y6.286 Z-1.008
X-63.806 Y9.385 Z-1.385
X-63.719 Y12.484 Z-1.917
X-63.693 Y12.649 Z-1.938
X-63.209 Y13.785 Z-1.95
X-62.688 Y14.904 Z-1.941
X-61.53 Y17.085 Z-1.947
X-60.227 Y19.181 Z-1.955
X-58.782 Y21.183 Z-1.956
X-58.623 Y21.275 Z-1.92
X-58.596 Y21.291 Z-1.914
X-57.164 Y22.178 Z-1.602
X-55.728 Y23.058 Z-1.353
X-54.288 Y23.933 Z-1.121
X-52.845 Y24.801 Z-.951
X-49.947 Y26.519 Z-.724
X-47.035 Y28.212 Z-.698
X-45.111 Y29.283 Z-.761
X-43.187 Y30.354 Z-.916
X-41.264 Y31.424 Z-1.159
X-39.34 Y32.495 Z-1.484
X-36.931 Y33.791 Z-1.965
X-36.318 Y33.868 Z-1.958
X-35.703 Y33.936 Z-1.955
X-34.47 Y34.04 Z-1.948
X-31.998 Y34.122 Z-1.937
X-29.526 Y34.039 Z-1.947
X-27.065 Y33.789 Z-1.964
X-26.554 Y33.509 Z-1.841
X-26.042 Y33.228 Z-1.729
X-25.02 Y32.668 Z-1.534
X-22.975 Y31.548 Z-1.185
X-20.931 Y30.428 Z-.932
X-18.886 Y29.307 Z-.774
X-17.926 Y28.764 Z-.732
X-16.965 Y28.212 Z-.698
X-14.049 Y26.517 Z-.724
X-11.148 Y24.796 Z-.952
X-9.703 Y23.927 Z-1.122
X-8.261 Y23.051 Z-1.355
X-6.823 Y22.17 Z-1.604
X-5.389 Y21.282 Z-1.917
X-5.22 Y21.184 Z-1.956
X-4.921 Y20.799 Z-1.953
X-4.245 Y19.867 Z-1.951
X-3.309 Y18.454 Z-1.942
X-2.434 Y17.002
X-2.564 Y16.928 Z-1.855
X-1.477 Y14.9 Z-1.854
X-.509 Y12.813 Z-1.866
X-.463 Y12.672 Z-1.859
X-.429 Y12.459 Z-1.832
X-.342 Y9.375 Z-1.301
X-.256 Y6.291 Z-.923
X-.211 Y3.147 Z-.687
X-.196 Y.004 Z-.608
X-.211 Y-3.14 Z-.687
X-.256 Y-6.283 Z-.922
X-.336 Y-9.163 Z-1.271
X-.415 Y-12.042 Z-1.755
X-.478 Y-12.664 Z-1.849
X-.955 Y-13.782 Z-1.862
X-1.471 Y-14.884 Z-1.853
X-2.612 Y-17.031 Z-1.86
X-3.897 Y-19.095 Z-1.868
X-5.318 Y-21.068 Z-1.87
X-5.453 Y-21.145 Z-1.839
X-5.482 Y-21.163 Z-1.833
X-6.914 Y-22.049 Z-1.519
X-8.349 Y-22.93 Z-1.27
X-9.789 Y-23.804 Z-1.036
X-11.232 Y-24.672 Z-.866
X-14.129 Y-26.389 Z-.637
X-17.04 Y-28.082 Z-.612
X-18.963 Y-29.153 Z-.675
X-20.886 Y-30.223 Z-.831
X-22.809 Y-31.293 Z-1.075
X-24.732 Y-32.363 Z-1.401
X-27.112 Y-33.644 Z-1.877
X-27.72 Y-33.721 Z-1.871
X-28.329 Y-33.788 Z-1.867
X-29.551 Y-33.891 Z-1.861
X-32. Y-33.973 Z-1.85
X-34.449 Y-33.891 Z-1.861
X-36.888 Y-33.644 Z-1.877
X-37.397 Y-33.365 Z-1.755
X-37.907 Y-33.085 Z-1.642
X-38.926 Y-32.527 Z-1.448
X-40.964 Y-31.41 Z-1.099
X-43.002 Y-30.293 Z-.846
X-45.04 Y-29.177 Z-.688
X-46.001 Y-28.633 Z-.646
X-47.579 Y-27.725 Z-.598
X-49.153 Y-26.811 Z-.62
X-52.289 Y-24.96 Z-.808
X-55.407 Y-23.079 Z-1.228
X-56.959 Y-22.127 Z-1.495
X-58.507 Y-21.169 Z-1.83
X-58.681 Y-21.068 Z-1.869
X-59.043 Y-20.592 Z-1.864
X-59.397 Y-20.11 Z-1.858
X-60.081 Y-19.129 Z-1.869
X-61.352 Y-17.103 Z-1.862
X-62.488 Y-14.999 Z-1.859
X-63.486 Y-12.825 Z-1.867
X-63.506 Y-12.763 Z-1.863
X-63.577 Y-11.632 Z-1.669
X-63.633 Y-10.5 Z-1.491
X-63.703 Y-8.235 Z-1.162
X-63.744 Y-6.291 Z-.923
X-63.789 Y-3.147 Z-.687
X-63.804 Y-.004 Z-.608
X-63.789 Y3.139 Z-.687
X-63.744 Y6.283 Z-.922
X-63.657 Y9.376 Z-1.3
X-63.57 Y12.47 Z-1.834
X-63.547 Y12.609 Z-1.851
X-63.068 Y13.734 Z-1.863
X-62.55 Y14.843 Z-1.854
X-61.404 Y17.004 Z-1.86
X-60.112 Y19.082 Z-1.868
X-58.682 Y21.068 Z-1.87
X-58.547 Y21.145 Z-1.839
X-58.518 Y21.163 Z-1.833
X-57.086 Y22.049 Z-1.519
X-55.651 Y22.93 Z-1.27
X-54.211 Y23.804 Z-1.036
X-52.768 Y24.672 Z-.866
X-49.871 Y26.389 Z-.637
X-46.96 Y28.082 Z-.612
X-45.037 Y29.152 Z-.675
X-43.114 Y30.223 Z-.831
X-41.191 Y31.293 Z-1.075
X-39.269 Y32.363 Z-1.401
X-36.884 Y33.646 Z-1.878
X-36.277 Y33.722 Z-1.871
X-35.668 Y33.789 Z-1.868
X-34.447 Y33.891 Z-1.861
X-31.998 Y33.972 Z-1.85
X-29.549 Y33.89 Z-1.861
X-27.112 Y33.644 Z-1.877
X-26.602 Y33.364 Z-1.755
X-26.093 Y33.085 Z-1.642
X-25.074 Y32.527 Z-1.448
X-23.036 Y31.41 Z-1.099
X-20.998 Y30.293 Z-.846
X-18.96 Y29.177 Z-.688
X-18.001 Y28.633 Z-.646
X-17.04 Y28.082 Z-.612
X-14.125 Y26.387 Z-.637
X-11.224 Y24.667 Z-.867
X-9.779 Y23.798 Z-1.037
X-8.338 Y22.922 Z-1.272
X-6.9 Y22.041 Z-1.522
X-5.467 Y21.153 Z-1.836
X-5.321 Y21.069 Z-1.869
X-5.041 Y20.709 Z-1.867
X-4.367 Y19.78 Z-1.865
X-3.435 Y18.373 Z-1.856
X-2.564 Y16.928 Z-1.855
X-2.694 Y16.853 Z-1.768
X-1.613 Y14.836 Z-1.767
X-.65 Y12.76 Z-1.78
X-.609 Y12.636 Z-1.773
X-.578 Y12.443 Z-1.749
X-.492 Y9.366 Z-1.216
X-.406 Y6.288 Z-.838
X-.361 Y3.146 Z-.601
X-.346 Y.004 Z-.522
X-.361 Y-3.138 Z-.601
X-.406 Y-6.28 Z-.837
X-.486 Y-9.156 Z-1.187
X-.565 Y-12.033 Z-1.672
X-.625 Y-12.628 Z-1.763
X-1.098 Y-13.735 Z-1.776
X-1.609 Y-14.826 Z-1.766
X-2.74 Y-16.952 Z-1.773
X-4.012 Y-18.998 Z-1.782
X-5.419 Y-20.953 Z-1.783
X-5.529 Y-21.016 Z-1.758
X-5.56 Y-21.035 Z-1.751
X-6.992 Y-21.921 Z-1.437
X-8.427 Y-22.801 Z-1.186
X-9.866 Y-23.675 Z-.951
X-11.308 Y-24.543 Z-.781
X-14.204 Y-26.26 Z-.551
X-17.115 Y-27.952 Z-.526
X-19.037 Y-29.022 Z-.589
X-20.959 Y-30.092 Z-.745
X-22.881 Y-31.161 Z-.991
X-24.803 Y-32.231 Z-1.318
X-27.159 Y-33.499 Z-1.791
X-27.761 Y-33.575 Z-1.784
X-28.365 Y-33.64 Z-1.781
X-29.574 Y-33.742 Z-1.775
X-32. Y-33.823 Z-1.764
X-34.426 Y-33.742 Z-1.775
X-36.841 Y-33.499 Z-1.791
X-37.349 Y-33.22 Z-1.669
X-37.857 Y-32.942 Z-1.555
X-38.872 Y-32.386 Z-1.362
X-40.904 Y-31.272 Z-1.013
X-42.935 Y-30.159 Z-.76
X-44.966 Y-29.046 Z-.602
X-45.926 Y-28.502 Z-.56
X-47.505 Y-27.595 Z-.511
X-49.078 Y-26.681 Z-.534
X-52.213 Y-24.83 Z-.722
X-55.33 Y-22.95 Z-1.144
X-56.882 Y-21.999 Z-1.412
X-58.43 Y-21.04 Z-1.749
X-58.58 Y-20.953 Z-1.783
X-58.939 Y-20.48 Z-1.777
X-59.29 Y-20.002 Z-1.772
X-59.968 Y-19.028 Z-1.782
X-61.228 Y-17.018 Z-1.775
X-62.355 Y-14.93 Z-1.772
X-63.345 Y-12.773 Z-1.78
X-63.358 Y-12.734 Z-1.778
X-63.428 Y-11.61 Z-1.584
X-63.484 Y-10.485 Z-1.407
X-63.553 Y-8.233 Z-1.078
X-63.594 Y-6.288 Z-.838
X-63.639 Y-3.146 Z-.601
X-63.654 Y-.004 Z-.522
X-63.639 Y3.138 Z-.601
X-63.594 Y6.279 Z-.837
X-63.507 Y9.368 Z-1.216
X-63.42 Y12.456 Z-1.75
X-63.402 Y12.568 Z-1.764
X-62.926 Y13.684 Z-1.776
X-62.413 Y14.782 Z-1.768
X-61.277 Y16.924 Z-1.774
X-59.997 Y18.984 Z-1.782
X-58.581 Y20.953 Z-1.783
X-58.471 Y21.016 Z-1.758
X-58.44 Y21.035 Z-1.751
X-57.009 Y21.921 Z-1.437
X-55.573 Y22.801 Z-1.186
X-54.135 Y23.675 Z-.951
X-52.692 Y24.543 Z-.781
X-49.796 Y26.26 Z-.551
X-46.885 Y27.952 Z-.526
X-44.963 Y29.022 Z-.589
X-43.041 Y30.092 Z-.745
X-41.119 Y31.161 Z-.991
X-39.197 Y32.231 Z-1.318
X-36.838 Y33.501 Z-1.791
X-36.236 Y33.576 Z-1.785
X-35.632 Y33.641 Z-1.781
X-34.423 Y33.742 Z-1.775
X-31.998 Y33.822 Z-1.763
X-29.573 Y33.741 Z-1.774
X-27.159 Y33.499 Z-1.791
X-26.651 Y33.22 Z-1.668
X-26.143 Y32.942 Z-1.555
X-25.127 Y32.385 Z-1.362
X-23.096 Y31.272 Z-1.013
X-21.065 Y30.159 Z-.76
X-19.034 Y29.046 Z-.602
X-18.075 Y28.503 Z-.56
X-17.115 Y27.952 Z-.526
X-14.2 Y26.257 Z-.551
X-11.3 Y24.538 Z-.782
X-9.855 Y23.669 Z-.953
X-8.414 Y22.793 Z-1.188
X-6.977 Y21.912 Z-1.44
X-5.544 Y21.025 Z-1.755
X-5.421 Y20.954 Z-1.783
X-5.161 Y20.619 Z-1.78
X-4.49 Y19.693 Z-1.778
X-3.562 Y18.292 Z-1.769
X-2.694 Y16.853 Z-1.768
X-2.824 Y16.778 Z-1.682
X-1.748 Y14.772 Z-1.68
X-.79 Y12.707 Z-1.693
X-.755 Y12.601 Z-1.687
X-.728 Y12.428 Z-1.665
X-.642 Y9.357 Z-1.131
X-.556 Y6.285 Z-.753
X-.511 Y3.145 Z-.516
X-.496 Y.004 Z-.436
X-.511 Y-3.136 Z-.515
X-.556 Y-6.276 Z-.752
X-.635 Y-9.15 Z-1.102
X-.715 Y-12.023 Z-1.589
X-.772 Y-12.591 Z-1.676
X-1.242 Y-13.688 Z-1.689
X-1.748 Y-14.768 Z-1.679
X-2.868 Y-16.874 Z-1.687
X-4.127 Y-18.9 Z-1.695
X-5.519 Y-20.837 Z-1.697
X-7.069 Y-21.793 Z-1.355
X-8.504 Y-22.672 Z-1.102
X-9.942 Y-23.546 Z-.866
X-11.385 Y-24.414 Z-.695
X-14.28 Y-26.13 Z-.464
X-17.19 Y-27.822 Z-.441
X-19.111 Y-28.892 Z-.503
X-21.032 Y-29.961 Z-.659
X-22.953 Y-31.03 Z-.907
X-24.874 Y-32.099 Z-1.235
X-27.206 Y-33.354 Z-1.704
X-27.802 Y-33.428 Z-1.698
X-28.4 Y-33.493 Z-1.694
X-29.598 Y-33.593 Z-1.688
X-32. Y-33.673 Z-1.677
X-34.402 Y-33.593 Z-1.688
X-36.794 Y-33.354 Z-1.704
X-37.3 Y-33.076 Z-1.582
X-37.806 Y-32.799 Z-1.468
X-38.819 Y-32.244 Z-1.277
X-40.843 Y-31.134 Z-.928
X-42.868 Y-30.025 Z-.674
X-44.893 Y-28.915 Z-.516
X-45.852 Y-28.372 Z-.475
X-47.43 Y-27.465 Z-.425
X-49.003 Y-26.551 Z-.448
X-52.137 Y-24.701 Z-.637
X-55.254 Y-22.821 Z-1.061
X-56.805 Y-21.87 Z-1.329
X-58.353 Y-20.911 Z-1.668
X-58.48 Y-20.838 Z-1.697
X-58.835 Y-20.368 Z-1.69
X-59.184 Y-19.892 Z-1.686
X-59.857 Y-18.924 Z-1.695
X-61.107 Y-16.925 Z-1.688
X-62.227 Y-14.849 Z-1.685
X-63.21 Y-12.706 Z-1.693
X-63.279 Y-11.588 Z-1.499
X-63.334 Y-10.469 Z-1.323
X-63.403 Y-8.23 Z-.994
X-63.444 Y-6.285 Z-.753
X-63.489 Y-3.145 Z-.516
X-63.504 Y-.005 Z-.436
X-63.489 Y3.136 Z-.515
X-63.444 Y6.275 Z-.752
X-63.357 Y9.359 Z-1.131
X-63.27 Y12.442 Z-1.667
X-63.257 Y12.527 Z-1.678
X-62.785 Y13.633 Z-1.69
X-62.276 Y14.721 Z-1.681
X-61.15 Y16.844 Z-1.687
X-59.883 Y18.886 Z-1.695
X-58.481 Y20.837 Z-1.697
X-56.931 Y21.793 Z-1.355
X-55.496 Y22.672 Z-1.102
X-54.058 Y23.546 Z-.866
X-52.616 Y24.414 Z-.695
X-49.72 Y26.13 Z-.464
X-46.81 Y27.822 Z-.441
X-44.889 Y28.891 Z-.503
X-42.968 Y29.961 Z-.659
X-41.047 Y31.03 Z-.907
X-39.126 Y32.099 Z-1.235
X-36.791 Y33.355 Z-1.705
X-36.195 Y33.43 Z-1.698
X-35.597 Y33.494 Z-1.694
X-34.4 Y33.593 Z-1.688
X-31.998 Y33.672 Z-1.677
X-29.596 Y33.592 Z-1.688
X-27.205 Y33.353 Z-1.704
X-26.699 Y33.076 Z-1.582
X-26.193 Y32.799 Z-1.468
X-25.181 Y32.244 Z-1.277
X-23.156 Y31.134 Z-.928
X-21.132 Y30.025 Z-.674
X-19.107 Y28.915 Z-.516
X-18.149 Y28.373 Z-.475
X-17.19 Y27.822 Z-.441
X-14.275 Y26.128 Z-.465
X-11.376 Y24.408 Z-.697
X-9.931 Y23.539 Z-.868
X-8.491 Y22.664 Z-1.105
X-7.054 Y21.783 Z-1.358
X-5.621 Y20.896 Z-1.674
X-5.521 Y20.839 Z-1.696
X-5.281 Y20.529 Z-1.694
X-4.612 Y19.606 Z-1.691
X-3.688 Y18.211 Z-1.682
X-2.824 Y16.778
X-2.954 Y16.704 Z-1.595
X-1.884 Y14.708 Z-1.594
X-.931 Y12.654 Z-1.607
X-.901 Y12.565 Z-1.601
X-.877 Y12.413 Z-1.582
X-.792 Y9.348 Z-1.047
X-.706 Y6.282 Z-.667
X-.661 Y3.144 Z-.43
X-.646 Y.005 Z-.351
X-.661 Y-3.134 Z-.43
X-.706 Y-6.273 Z-.666
X-.785 Y-9.143 Z-1.018
X-.865 Y-12.013 Z-1.507
X-.919 Y-12.554 Z-1.59
X-1.385 Y-13.64 Z-1.602
X-1.887 Y-14.71 Z-1.593
X-2.996 Y-16.796 Z-1.6
X-4.242 Y-18.803 Z-1.608
X-5.62 Y-20.722 Z-1.61
X-7.147 Y-21.664 Z-1.273
X-8.581 Y-22.544 Z-1.019
X-10.019 Y-23.417 Z-.782
X-11.461 Y-24.285 Z-.61
X-14.355 Y-26.001 Z-.378
X-17.264 Y-27.692 Z-.355
X-19.185 Y-28.761 Z-.416
X-21.105 Y-29.83 Z-.574
X-23.026 Y-30.899 Z-.823
X-24.946 Y-31.967 Z-1.151
X-27.253 Y-33.209 Z-1.618
X-27.843 Y-33.282 Z-1.611
X-28.435 Y-33.346 Z-1.607
X-29.621 Y-33.444 Z-1.602
X-32. Y-33.523 Z-1.591
X-34.379 Y-33.444 Z-1.602
X-36.747 Y-33.209 Z-1.618
X-37.252 Y-32.932 Z-1.496
X-37.756 Y-32.656 Z-1.382
X-38.765 Y-32.103 Z-1.191
X-40.783 Y-30.997 Z-.843
X-42.801 Y-29.891 Z-.587
X-44.819 Y-28.785 Z-.43
X-45.778 Y-28.242 Z-.389
X-47.355 Y-27.335 Z-.338
X-48.929 Y-26.421 Z-.362
X-52.062 Y-24.571 Z-.552
X-55.178 Y-22.692 Z-.977
X-56.729 Y-21.741 Z-1.246
X-58.275 Y-20.783 Z-1.587
X-58.379 Y-20.723 Z-1.61
X-58.731 Y-20.257 Z-1.603
X-59.075 Y-19.786 Z-1.6
X-59.741 Y-18.827 Z-1.608
X-60.979 Y-16.847 Z-1.602
X-62.087 Y-14.792 Z-1.598
X-63.062 Y-12.671 Z-1.606
X-63.13 Y-11.561 Z-1.414
X-63.185 Y-10.45 Z-1.238
X-63.253 Y-8.227 Z-.91
X-63.294 Y-6.282 Z-.667
X-63.339 Y-3.143 Z-.43
X-63.354 Y-.005 Z-.351
X-63.339 Y3.134 Z-.43
X-63.294 Y6.272 Z-.666
X-63.207 Y9.35 Z-1.047
X-63.121 Y12.428 Z-1.584
X-63.111 Y12.487 Z-1.591
X-62.643 Y13.582 Z-1.603
X-62.139 Y14.66 Z-1.594
X-61.023 Y16.764 Z-1.6
X-59.768 Y18.788 Z-1.608
X-58.38 Y20.722 Z-1.61
X-56.853 Y21.664 Z-1.273
X-55.419 Y22.544 Z-1.019
X-53.981 Y23.417 Z-.782
X-52.539 Y24.285 Z-.61
X-49.645 Y26.001 Z-.378
X-46.736 Y27.692 Z-.355
X-44.815 Y28.761 Z-.416
X-42.895 Y29.83 Z-.574
X-40.975 Y30.899 Z-.823
X-39.054 Y31.967 Z-1.151
X-36.744 Y33.21 Z-1.618
X-36.154 Y33.283 Z-1.612
X-35.562 Y33.347 Z-1.607
X-34.376 Y33.444 Z-1.602
X-31.998 Y33.522 Z-1.59
X-29.62 Y33.443 Z-1.601
X-27.252 Y33.208 Z-1.618
X-26.748 Y32.932 Z-1.496
X-26.243 Y32.655 Z-1.382
X-25.234 Y32.102 Z-1.191
X-23.217 Y30.997 Z-.843
X-21.199 Y29.891 Z-.587
X-19.181 Y28.785 Z-.43
X-18.224 Y28.242 Z-.389
X-17.264 Y27.692 Z-.355
X-14.351 Y25.998 Z-.378
X-11.452 Y24.279 Z-.611
X-10.008 Y23.41 Z-.783
X-8.567 Y22.535 Z-1.021
X-5.698 Y20.767 Z-1.593
X-5.622 Y20.723 Z-1.61
X-5.401 Y20.439 Z-1.607
X-4.734 Y19.52 Z-1.605
X-3.814 Y18.131 Z-1.596
X-2.954 Y16.704 Z-1.595
X-3.084 Y16.629 Z-1.508
X-2.02 Y14.644 Z-1.507
X-1.071 Y12.601 Z-1.52
X-1.048 Y12.53 Z-1.516
X-1.027 Y12.398 Z-1.498
X-.941 Y9.339 Z-.962
X-.856 Y6.279 Z-.582
X-.811 Y3.142 Z-.344
X-.8 Y1.574 Z-.275
X-.796 Y.005 Z-.265
X-.8 Y-1.564 Z-.274
X-.811 Y-3.132 Z-.344
X-.856 Y-6.269 Z-.581
X-.935 Y-9.136 Z-.934
X-1.014 Y-12.004 Z-1.424
X-1.066 Y-12.518 Z-1.503
X-1.528 Y-13.593 Z-1.516
X-2.025 Y-14.652 Z-1.506
X-3.124 Y-16.717 Z-1.513
X-4.358 Y-18.706 Z-1.522
X-5.721 Y-20.607 Z-1.524
X-8.659 Y-22.415 Z-.935
X-10.096 Y-23.288 Z-.697
X-11.537 Y-24.156 Z-.525
X-14.431 Y-25.871 Z-.292
X-17.339 Y-27.562 Z-.269
X-19.259 Y-28.631 Z-.33
X-21.178 Y-29.699 Z-.488
X-23.098 Y-30.767 Z-.739
X-25.017 Y-31.835 Z-1.068
X-27.299 Y-33.063 Z-1.531
X-27.884 Y-33.136 Z-1.525
X-28.47 Y-33.199 Z-1.52
X-29.645 Y-33.295 Z-1.515
X-32. Y-33.373 Z-1.504
X-34.355 Y-33.295 Z-1.515
X-36.701 Y-33.063 Z-1.531
X-37.203 Y-32.788 Z-1.41
X-37.706 Y-32.512 Z-1.295
X-38.712 Y-31.961 Z-1.105
X-40.723 Y-30.859 Z-.757
X-42.734 Y-29.756 Z-.501
X-44.745 Y-28.654 Z-.344
X-45.704 Y-28.111 Z-.303
X-46.989 Y-27.373 Z-.257
X-46.914 Y-27.243 Z-.171
X-45.083 Y-28.166
X-42.175 Y-29.344 Z-.17
X-39.267 Y-30.19 Z-.173
X-37.328 Y-30.6 Z-.169
X-34.421 Y-30.962 Z-.17
X-31.513 Y-31.049 Z-.172
X-29.575 Y-30.962 Z-.17
X-26.666 Y-30.599
X-23.76 Y-29.943 Z-.173
X-20.852 Y-28.978 Z-.174
X-18.913 Y-28.164 Z-.171
X-17.09 Y-27.245
X-18.849 Y-28.229 Z-.221
X-20.608 Y-29.213 Z-.351
X-24.127 Y-31.181 Z-.807
X-27.346 Y-32.918 Z-1.444
X-27.925 Y-32.99 Z-1.439
X-28.505 Y-33.051 Z-1.433
X-29.668 Y-33.147 Z-1.429
X-32. Y-33.223 Z-1.417
X-34.332 Y-33.147 Z-1.429
X-36.654 Y-32.918 Z-1.444
X-37.155 Y-32.644 Z-1.324
X-37.656 Y-32.369 Z-1.208
X-38.658 Y-31.82 Z-1.019
X-40.663 Y-30.721 Z-.672
X-42.667 Y-29.622 Z-.415
X-44.672 Y-28.523 Z-.258
X-45.63 Y-27.981 Z-.217
X-46.914 Y-27.243 Z-.171
X-46.989 Y-27.373 Z-.257
X-49.813 Y-25.729 Z-.307
X-52.622 Y-24.061 Z-.545
X-54.021 Y-23.218 Z-.713
X-55.417 Y-22.369 Z-.948
X-58.198 Y-20.654 Z-1.505
X-58.278 Y-20.608 Z-1.524
X-58.626 Y-20.147 Z-1.516
X-58.967 Y-19.68 Z-1.513
X-59.625 Y-18.73 Z-1.521
X-60.85 Y-16.77 Z-1.515
X-61.948 Y-14.736 Z-1.512
X-62.914 Y-12.635 Z-1.52
X-62.981 Y-11.534 Z-1.328
X-63.036 Y-10.431 Z-1.153
X-63.103 Y-8.224 Z-.826
X-63.144 Y-6.278 Z-.582
X-63.189 Y-3.142 Z-.344
X-63.2 Y-1.574 Z-.275
X-63.204 Y-.005 Z-.265
X-63.2 Y1.563 Z-.274
X-63.189 Y3.132 Z-.344
X-63.144 Y6.268 Z-.581
X-63.057 Y9.341 Z-.962
X-62.971 Y12.414 Z-1.5
X-62.966 Y12.446 Z-1.504
X-62.502 Y13.531 Z-1.516
X-62.002 Y14.599 Z-1.507
X-60.896 Y16.684 Z-1.514
X-59.653 Y18.689 Z-1.522
X-58.279 Y20.607 Z-1.524
X-55.663 Y22.219 Z-.989
X-53.109 Y23.768 Z-.604
X-51.827 Y24.535 Z-.449
X-50.543 Y25.297 Z-.357
X-47.966 Y26.808 Z-.262
X-47.89 Y26.678 Z-.176
X-49.933 Y25.35 Z-.174
X-51.872 Y23.872 Z-.176
X-53.81 Y22.111 Z-.174
X-54.892 Y20.983 Z-.175
X-55.748 Y20.011 Z-.176
X-57.004 Y18.439 Z-.173
X-58.564 Y16.102 Z-.174
X-59.657 Y14.15 Z-.175
X-60.96 Y11.222 Z-.174
X-61.649 Y9.27 Z-.173
X-62.115 Y7.319 Z-.141
X-62.581 Y5.367 Z-.176
X-62.866 Y3.414 Z-.173
X-63.025 Y1.462 Z-.17
Y-1.467
X-62.742 Y-4.394 Z-.173
X-62.403 Y-6.346 Z-.17
X-61.647 Y-9.275 Z-.173
X-60.954 Y-11.225 Z-.171
X-60.558 Y-12.202 Z-.177
X-59.654 Y-14.155 Z-.175
X-58.562 Y-16.106 Z-.173
X-56.715 Y-18.811 Z-.175
G03 X-49.204 Y-25.866 I24.952 J19.038
G01 X-47.816 Y-26.722
X-50.41 Y-25.203 Z-.269
X-51.703 Y-24.436 Z-.359
X-52.993 Y-23.664 Z-.514
X-55.563 Y-22.105 Z-.902
X-58.121 Y-20.525 Z-1.424
X-58.177 Y-20.493 Z-1.437
X-58.521 Y-20.036 Z-1.429
X-58.858 Y-19.574 Z-1.427
X-59.51 Y-18.633 Z-1.435
X-60.722 Y-16.692 Z-1.429
X-61.809 Y-14.679 Z-1.425
X-62.766 Y-12.6 Z-1.434
X-62.833 Y-11.507 Z-1.242
X-62.886 Y-10.412 Z-1.068
X-62.953 Y-8.222 Z-.741
X-62.994 Y-6.275 Z-.497
X-63.039 Y-3.141 Z-.259
X-63.054 Y-.005 Z-.179
X-63.05 Y1.562 Z-.189
X-63.039 Y3.13 Z-.258
X-62.994 Y6.265 Z-.496
X-62.908 Y9.332 Z-.877
X-62.821 Y12.4 Z-1.417
X-62.361 Y13.475 Z-1.429
X-61.865 Y14.535 Z-1.42
X-60.77 Y16.601 Z-1.427
X-59.539 Y18.59 Z-1.435
X-58.178 Y20.492 Z-1.437
X-55.586 Y22.09 Z-.906
X-53.032 Y23.639 Z-.518
X-51.751 Y24.406 Z-.363
X-50.467 Y25.168 Z-.272
X-47.89 Y26.678 Z-.176
X-47.966 Y26.808 Z-.262
X-46.661 Y27.562 Z-.269
X-44.741 Y28.63 Z-.33
X-42.822 Y29.699 Z-.488
X-40.902 Y30.767 Z-.739
X-38.983 Y31.835 Z-1.068
X-36.697 Y33.065 Z-1.532
X-36.113 Y33.137 Z-1.525
X-35.527 Y33.2 Z-1.52
X-34.353 Y33.296 Z-1.515
X-31.998 Y33.372 Z-1.504
X-29.643 Y33.295 Z-1.515
X-27.299 Y33.063 Z-1.531
X-26.796 Y32.788 Z-1.41
X-26.293 Y32.512 Z-1.295
X-25.288 Y31.961 Z-1.105
X-23.277 Y30.859 Z-.757
X-21.266 Y29.756 Z-.501
X-19.255 Y28.654 Z-.344
X-18.298 Y28.112 Z-.303
X-17.339 Y27.562 Z-.269
X-17.015 Y27.375 Z-.257
X-17.09 Y27.245 Z-.171
X-18.917 Y28.166
X-19.884 Y28.587 Z-.173
X-21.823 Y29.265 Z-.127
X-23.763 Y29.944 Z-.173
X-26.672 Y30.6 Z-.169
X-29.579 Y30.962 Z-.17
X-32.487 Y31.049 Z-.172
X-34.425 Y30.962 Z-.17
X-37.334 Y30.599
X-40.24 Y29.943 Z-.173
X-43.148 Y28.978 Z-.174
X-45.087 Y28.164 Z-.171
X-46.828 Y27.292 Z-.174
X-45.089 Y28.265 Z-.223
X-43.351 Y29.237 Z-.355
X-39.873 Y31.181 Z-.807
X-36.651 Y32.92 Z-1.445
X-36.072 Y32.991 Z-1.439
X-35.492 Y33.052 Z-1.433
X-34.329 Y33.147 Z-1.429
X-31.998 Y33.222 Z-1.417
X-29.667 Y33.146 Z-1.428
X-27.346 Y32.918 Z-1.444
X-26.844 Y32.643 Z-1.324
X-26.343 Y32.369 Z-1.208
X-25.341 Y31.819 Z-1.019
X-23.337 Y30.721 Z-.672
X-21.333 Y29.622 Z-.415
X-19.328 Y28.523 Z-.258
X-17.09 Y27.245 Z-.171
X-17.015 Y27.375 Z-.257
X-14.184 Y25.726 Z-.307
X-11.367 Y24.053 Z-.546
X-9.964 Y23.208 Z-.715
X-8.564 Y22.358 Z-.952
X-5.775 Y20.639 Z-1.511
X-5.316 Y20.036 Z-1.503
X-4.857 Y19.433 Z-1.518
X-3.941 Y18.05 Z-1.509
X-3.084 Y16.629 Z-1.508
X-3.214 Y16.554 Z-1.422
X-2.155 Y14.58 Z-1.42
X-1.212 Y12.548 Z-1.433
X-1.176 Y11.706 Z-1.277
X-1.14 Y10.865 Z-1.14
X-1.069 Y9.182 Z-.866
X-1.006 Y6.276 Z-.497
X-.961 Y3.141 Z-.259
X-.946 Y.005 Z-.179
X-.95 Y-1.562 Z-.189
X-.961 Y-3.13 Z-.258
X-1.006 Y-6.266 Z-.496
X-1.085 Y-9.13 Z-.849
X-1.164 Y-11.994 Z-1.341
X-1.213 Y-12.481 Z-1.417
X-1.671 Y-13.545 Z-1.429
X-2.164 Y-14.594 Z-1.419
X-3.252 Y-16.639 Z-1.427
X-4.473 Y-18.608 Z-1.435
X-5.822 Y-20.492 Z-1.437
X-8.427 Y-22.098 Z-.904
X-10.993 Y-23.654 Z-.515
X-12.28 Y-24.425 Z-.36
X-13.571 Y-25.19 Z-.269
X-16.16 Y-26.707 Z-.175
X-14.424 Y-25.613 Z-.174
X-13.1 Y-24.636
X-10.19 Y-22.113 Z-.176
X-8.668 Y-20.511 Z-.172
X-8.665 Y-20.507
X-7.283 Y-18.808 Z-.175
X-6.732 Y-18.055 Z-.174
X-5.436 Y-16.102
X-4.343 Y-14.15 Z-.175
X-3.045 Y-11.222 Z-.171
X-2.351 Y-9.27 Z-.173
X-1.596 Y-6.342 Z-.17
X-1.258 Y-4.391 Z-.173
X-.975 Y-1.462 Z-.17
Y1.467
X-1.258 Y4.394 Z-.173
X-1.597 Y6.346 Z-.17
X-2.353 Y9.275 Z-.173
X-3.407 Y12.125 Z-.176
X-4.346 Y14.155 Z-.175
X-5.438 Y16.106 Z-.173
X-7.285 Y18.811 Z-.175
G03 X-14.796 Y25.866 I-24.952 J-19.038
G01 X-16.168 Y26.711
X-16.183 Y26.686 Z-.158
X-16.992 Y27.163 Z-.154
X-18.926 Y28.138
X-18.929 Y28.139
X-21.834 Y29.316 Z-.153
X-23.77 Y29.915 Z-.156
X-26.676 Y30.57 Z-.152
X-29.581 Y30.932
X-32.485 Y31.019 Z-.155
X-34.419 Y30.932 Z-.152
X-34.422
X-37.327 Y30.57
X-40.232 Y29.914 Z-.156
X-42.169 Y29.315 Z-.153
X-45.074 Y28.138 Z-.154
X-47.312 Y26.995 Z-.157
X-49.191 Y25.839
X-51.852 Y23.849 Z-.159
X-53.788 Y22.09 Z-.157
X-54.868 Y20.965 Z-.158
X-54.87 Y20.963
X-56.692 Y18.795 Z-.159
X-58.538 Y16.087 Z-.156
X-59.628 Y14.14 Z-.157
X-59.629 Y14.137
X-60.931 Y11.212 Z-.156
X-61.619 Y9.265
X-61.62 Y9.262
X-62.374 Y6.337 Z-.153
X-62.712 Y4.387 Z-.155
X-62.995 Y1.461 Z-.153
Y-1.464
X-62.712 Y-4.389 Z-.155
X-62.374 Y-6.336 Z-.153
Y-6.339
X-61.619 Y-9.265 Z-.156
X-60.927 Y-11.212 Z-.154
X-60.926 Y-11.214
X-60.089 Y-13.164 Z-.158
X-59.629 Y-14.137 Z-.157
G03 X-51.804 Y-23.89 I27.945 J14.408
G01 X-49.188 Y-25.84
X-47.008 Y-27.163 Z-.154
X-45.074 Y-28.138
X-45.071 Y-28.139
X-42.166 Y-29.316 Z-.153
X-40.23 Y-29.915 Z-.156
X-37.324 Y-30.57 Z-.152
X-34.419 Y-30.932
X-31.515 Y-31.019 Z-.155
X-29.581 Y-30.932 Z-.152
X-29.578
X-26.673 Y-30.57
X-23.768 Y-29.914 Z-.156
X-21.831 Y-29.315 Z-.153
X-18.926 Y-28.138 Z-.154
X-16.992 Y-27.163
X-16.99 Y-27.161
X-14.441 Y-25.589 Z-.156
X-12.148 Y-23.849 Z-.159
X-10.212 Y-22.093 Z-.158
X-8.69 Y-20.491 Z-.155
X-8.688 Y-20.488
X-7.309 Y-18.792 Z-.158
X-7.307 Y-18.79
X-6.097 Y-17.064 Z-.157
G03 X-3.434 Y-12.111 I-22.119 J15.085
G01 X-2.38 Y-9.262 Z-.156
X-1.626 Y-6.336 Z-.153
X-1.288 Y-4.389 Z-.155
Y-4.387
X-1.005 Y-1.461 Z-.153
Y1.464
X-1.288 Y4.389 Z-.155
X-1.626 Y6.336 Z-.153
Y6.339
X-2.381 Y9.265 Z-.156
X-3.435 Y12.112 Z-.159
X-4.372 Y14.14 Z-.157
X-5.462 Y16.087 Z-.156
X-5.464 Y16.09
X-6.758 Y18.039 Z-.157
X-8.273 Y19.99 Z-.159
X-9.13 Y20.963 Z-.158
X-9.132 Y20.965
X-10.212 Y22.09 Z-.157
X-10.213 Y22.091
X-12.15 Y23.851 Z-.159
X-14.812 Y25.84 Z-.157
X-16.183 Y26.686 Z-.158
X-16.168 Y26.711 Z-.175
X-13.571 Y25.191 Z-.269
X-12.277 Y24.423 Z-.36
X-10.986 Y23.65 Z-.516
X-8.413 Y22.09 Z-.906
X-5.852 Y20.51 Z-1.43
X-5.416 Y19.928 Z-1.42
X-4.979 Y19.346 Z-1.431
X-4.067 Y17.969 Z-1.422
X-3.214 Y16.554
X-2.755 Y15.792 Z-1.321
X-2.318 Y15.068 Z-1.025
X-1.927 Y14.419 Z-.548
X-1.6 Y13.876 Z.086
X-1.354 Y13.469 Z.844
X-1.202 Y13.215 Z1.69
X-1.15 Y13.13 Z2.58
G00 Z10.
M09
M05
M01
G91 G30 Z0.0
N40   
G40 G17 G49 G80
T06 M06
(Name:T1.5 Number:6)
(D=12.00)
(Stock_part=0.00)
G00 G90 G54 X-32. Y0.0 M03 S4000
G43 Z10. H06
M08
Z3.
G03 Y-4.5 I0.0 J-2.25 F1000.
X-32. Y-4.5 Z1.5 I0.0 J4.5
X-32. Y-4.5 Z0.0 I0.0 J4.5
X-32. Y-4.5 Z-1.5 I0.0 J4.5
X-32. Y-4.5 Z-3. I0.0 J4.5
X-32. Y-4.5 Z-4.5 I0.0 J4.5
X-32. Y-4.5 Z-6. I0.0 J4.5
X-32. Y-4.5 Z-7.5 I0.0 J4.5
X-32. Y-4.5 Z-9. I0.0 J4.5
X-29.191 Y-3.516 Z-9.161 I0.0 J4.5
I-2.809 J3.516
X-32. Y0.0 I-1.404 J1.758
G00 Z3.
G03 Y-9. I0.0 J-4.5
X-32. Y-9. Z1.5 I0.0 J9.
X-32. Y-9. Z0.0 I0.0 J9.
X-32. Y-9. Z-1.5 I0.0 J9.
X-32. Y-9. Z-3. I0.0 J9.
X-32. Y-9. Z-4.5 I0.0 J9.
X-32. Y-9. Z-6. I0.0 J9.
X-32. Y-9. Z-7.5 I0.0 J9.
X-32. Y-9. Z-9. I0.0 J9.
X-26.382 Y-7.031 Z-9.161 I0.0 J9.
I-5.618 J7.031
X-32. Y0.0 I-2.809 J3.516
G00 Z10.
M09
M05
M01
G91 G30 Z0.0
N50   
G40 G17 G49 G80
T07 M06
(Name:D10 Number:7)
(D=10.00)
(Stock_part=0.00)
G00 G90 G54 X54. Y-5. M03 S900
G43 Z1. H07
M08
G99 G81 Z-25.004 R1. F100.
G80
G00 Z200. M09
M05
G91 G30 Z0.0
G91 G28 Y0.0
T01 M06
M30
(Help QQ:342375517 Tel/vx:18768801158 Created by:Wangrunkai)
(Time:22.22MIN)
%
