%
(2(1)-1.NC)
(Date:Sun May 31 10:46:11 2020)
(Machine:mill_3axis FANUC)
(Help QQ:342375517 Tel/vx:18768801158 Created by:Wangrunkai)
N10   
G40 G17 G49 G80
G91 G30 Z0.0
T01 M06
(Name:M63 Number:1)
(D=63.00)
(Stock_part=0.00)
G00 G90 G54 X-136.94 Y49. M03 S900
G43 Z10. H01
M08
Z3.
G01 Z0.0 F500.
X-74.
X74.
Y24.5
X-74.
Y0.0
X74.
Y-24.5
X-74.
Y-49.
X74.
X136.94
Z3.
G00 Z10.
M09
M05
M01
G91 G30 Z0.0
N20   
G40 G17 G49 G80
T02 M06
(Name:M12 Number:2)
(D=12.00)
(Stock_part=0.00)
G00 G90 G54 X0.0 Y-61. M03 S4000
G43 Z10. H02
M08
Z-2.
G01 Z-5. F1000.
Y-55.
X-64.
G02 X-80. Y-39. I0.0 J16.
G01 Y-29.458
G02 X-79.443 Y-26.933 I6. J0.0
G03 Y26.933 I-58.057 J26.933
G02 X-80. Y29.458 I5.443 J2.525
G01 Y39.
G02 X-64. Y55. I16. J0.0
G01 X64.
G02 X80. Y39. I0.0 J-16.
G01 Y29.458
G02 X79.443 Y26.933 I-6. J0.0
G03 Y-26.933 I58.057 J-26.933
G02 X80. Y-29.458 I-5.443 J-2.525
G01 Y-39.
G02 X64. Y-55. I-16. J0.0
G01 X0.0
Y-61.
Z-2.
G00 Z10.
Z-7.
G01 Z-10.
Y-55.
X-64.
G02 X-80. Y-39. I0.0 J16.
G01 Y-29.458
G02 X-79.443 Y-26.933 I6. J0.0
G03 Y26.933 I-58.057 J26.933
G02 X-80. Y29.458 I5.443 J2.525
G01 Y39.
G02 X-64. Y55. I16. J0.0
G01 X64.
G02 X80. Y39. I0.0 J-16.
G01 Y29.458
G02 X79.443 Y26.933 I-6. J0.0
G03 Y-26.933 I58.057 J-26.933
G02 X80. Y-29.458 I-5.443 J-2.525
G01 Y-39.
G02 X64. Y-55. I-16. J0.0
G01 X0.0
Y-61.
Z-7.
G00 Z10.
Z-12.
G01 Z-15.
Y-55.
X-64.
G02 X-80. Y-39. I0.0 J16.
G01 Y-29.458
G02 X-79.443 Y-26.933 I6. J0.0
G03 Y26.933 I-58.057 J26.933
G02 X-80. Y29.458 I5.443 J2.525
G01 Y39.
G02 X-64. Y55. I16. J0.0
G01 X64.
G02 X80. Y39. I0.0 J-16.
G01 Y29.458
G02 X79.443 Y26.933 I-6. J0.0
G03 Y-26.933 I58.057 J-26.933
G02 X80. Y-29.458 I-5.443 J-2.525
G01 Y-39.
G02 X64. Y-55. I-16. J0.0
G01 X0.0
Y-61.
Z-12.
G00 Z10.
Z-17.
G01 Z-20.
Y-55.
X-64.
G02 X-80. Y-39. I0.0 J16.
G01 Y-29.458
G02 X-79.443 Y-26.933 I6. J0.0
G03 Y26.933 I-58.057 J26.933
G02 X-80. Y29.458 I5.443 J2.525
G01 Y39.
G02 X-64. Y55. I16. J0.0
G01 X64.
G02 X80. Y39. I0.0 J-16.
G01 Y29.458
G02 X79.443 Y26.933 I-6. J0.0
G03 Y-26.933 I58.057 J-26.933
G02 X80. Y-29.458 I-5.443 J-2.525
G01 Y-39.
G02 X64. Y-55. I-16. J0.0
G01 X0.0
Y-61.
Z-17.
G00 Z10.
Z-22.
G01 Z-25.
Y-55.
X-64.
G02 X-80. Y-39. I0.0 J16.
G01 Y-29.458
G02 X-79.443 Y-26.933 I6. J0.0
G03 Y26.933 I-58.057 J26.933
G02 X-80. Y29.458 I5.443 J2.525
G01 Y39.
G02 X-64. Y55. I16. J0.0
G01 X64.
G02 X80. Y39. I0.0 J-16.
G01 Y29.458
G02 X79.443 Y26.933 I-6. J0.0
G03 Y-26.933 I58.057 J-26.933
G02 X80. Y-29.458 I-5.443 J-2.525
G01 Y-39.
G02 X64. Y-55. I-16. J0.0
G01 X0.0
Y-61.
Z-22.
G00 Z10.
Z-27.
G01 Z-30.
Y-55.
X-64.
G02 X-80. Y-39. I0.0 J16.
G01 Y-29.458
G02 X-79.443 Y-26.933 I6. J0.0
G03 Y26.933 I-58.057 J26.933
G02 X-80. Y29.458 I5.443 J2.525
G01 Y39.
G02 X-64. Y55. I16. J0.0
G01 X64.
G02 X80. Y39. I0.0 J-16.
G01 Y29.458
G02 X79.443 Y26.933 I-6. J0.0
G03 Y-26.933 I58.057 J-26.933
G02 X80. Y-29.458 I-5.443 J-2.525
G01 Y-39.
G02 X64. Y-55. I-16. J0.0
G01 X0.0
Y-61.
Z-27.
G00 Z10.
Z-32.
G01 Z-35.
Y-55.
X-64.
G02 X-80. Y-39. I0.0 J16.
G01 Y-29.458
G02 X-79.443 Y-26.933 I6. J0.0
G03 Y26.933 I-58.057 J26.933
G02 X-80. Y29.458 I5.443 J2.525
G01 Y39.
G02 X-64. Y55. I16. J0.0
G01 X64.
G02 X80. Y39. I0.0 J-16.
G01 Y29.458
G02 X79.443 Y26.933 I-6. J0.0
G03 Y-26.933 I58.057 J-26.933
G02 X80. Y-29.458 I-5.443 J-2.525
G01 Y-39.
G02 X64. Y-55. I-16. J0.0
G01 X0.0
Y-61.
Z-32.
G00 Z10.
Z-33.
G01 Z-36.
Y-55.
X-64.
G02 X-80. Y-39. I0.0 J16.
G01 Y-29.458
G02 X-79.443 Y-26.933 I6. J0.0
G03 Y26.933 I-58.057 J26.933
G02 X-80. Y29.458 I5.443 J2.525
G01 Y39.
G02 X-64. Y55. I16. J0.0
G01 X64.
G02 X80. Y39. I0.0 J-16.
G01 Y29.458
G02 X79.443 Y26.933 I-6. J0.0
G03 Y-26.933 I58.057 J-26.933
G02 X80. Y-29.458 I-5.443 J-2.525
G01 Y-39.
G02 X64. Y-55. I-16. J0.0
G01 X0.0
Y-61.
Z-33.
G00 Z10.
M09
M05
M01
G91 G30 Z0.0
N30   
G40 G17 G49 G80
T03 M06
(Name:M8 Number:3)
(D=8.00)
(Stock_part=0.30)
G00 G90 G54 X22.2 Y8.221 M03 S3000
G43 Z10. H03
M08
Z3.
G03 X17.798 Y3.7 Z-1. I-3.443 J-1.05 F1200.
G02 X22.2 Y2.232 I-11.798 J-42.7
G01 Y4.7
X13.266
G02 X17.798 Y3.7 I-7.266 J-43.7
G01 X16.733 Y-.155
G02 X26.2 Y-4.128 I-10.733 J-38.845
G01 Y8.7
X-26.2
Y1.3
X6.
G02 X16.733 Y-.155 I0.0 J-40.3
G01 X15.667 Y-4.011
G02 X30.2 Y-11.944 I-9.667 J-34.989
G01 Y12.
G03 X30.168 Y12.7 I-7.7 J0.0
G01 X-30.168
G03 X-30.2 Y12. I7.668 J-.7
G01 Y-2.7
X6.
G02 X15.667 Y-4.011 I0.0 J-36.3
G01 X14.602 Y-7.867
G02 X29.367 Y-16.7 I-8.602 J-31.133
G01 X33.214
G03 X34.2 Y-12. I-10.714 J4.7
G01 Y12.
G03 X33.214 Y16.7 I-11.7 J0.0
G01 X-33.214
G03 X-34.2 Y12. I10.714 J-4.7
G01 Y-6.7
X6.
G02 X14.602 Y-7.867 I0.0 J-32.3
G01 X13.537 Y-11.722
G02 X27.587 Y-20.7 I-7.537 J-27.278
G01 X35.569
G03 X38.2 Y-12. I-13.069 J8.7
G01 Y12.
G03 X35.569 Y20.7 I-15.7 J0.0
G01 X-35.569
G03 X-38.2 Y12. I13.069 J-8.7
G01 Y-10.7
X6.
G02 X13.537 Y-11.722 I0.0 J-28.3
G01 X12.472 Y-15.578
G02 X25.647 Y-24.7 I-6.472 J-23.422
G01 X37.56
G03 X42.2 Y-12. I-15.06 J12.7
G01 Y12.
G03 X37.56 Y24.7 I-19.7 J0.0
G01 X-37.56
G03 X-42.2 Y12. I15.06 J-12.7
G01 Y-12.
G03 X-42.014 Y-14.7 I19.7 J0.0
G01 X6.
G02 X12.472 Y-15.578 I0.0 J-24.3
G01 X11.406 Y-19.433
G02 X23.493 Y-28.7 I-5.406 J-19.567
G01 X39.317
G03 X46.2 Y-12. I-16.817 J16.7
G01 Y12.
G03 X39.317 Y28.7 I-23.7 J0.0
G01 X-39.317
G03 X-46.2 Y12. I16.817 J-16.7
G01 Y-12.
G03 X-45.233 Y-18.7 I23.7 J0.0
G01 X6.
G02 X11.406 Y-19.433 I0.0 J-20.3
G01 X10.341 Y-23.289
G02 X21.033 Y-32.7 I-4.341 J-15.711
G01 X40.907
G03 X50.2 Y-12. I-18.407 J20.7
G01 Y12.
G03 X40.907 Y32.7 I-27.7 J0.0
G01 X-40.907
G03 X-50.2 Y12. I18.407 J-20.7
G01 Y-12.
G03 X-48.05 Y-22.7 I27.7 J0.0
G01 X6.
G02 X10.341 Y-23.289 I0.0 J-16.3
G01 X9.276 Y-27.144
G02 X18.083 Y-36.7 I-3.276 J-11.856
G01 X41.761
G03 X42.853 Y-36.303 I0.0 J1.7
X54.2 Y-12. I-20.353 J24.303
G01 Y12.
G03 X42.853 Y36.303 I-31.7 J0.0
X41.761 Y36.7 I-1.092 J-1.303
G01 X-41.761
G03 X-42.853 Y36.303 I0.0 J-1.7
X-54.2 Y12. I20.353 J-24.303
G01 Y-12.
G03 X-51.069 Y-25.737 I31.7 J0.0
X-49.537 Y-26.7 I1.532 J.737
G01 X6.
G02 X9.276 Y-27.144 I0.0 J-12.3
G01 X8.21 Y-31.
G02 X14.3 Y-39. I-2.21 J-8.
G01 Y-40.7
X41.761
G03 X45.421 Y-39.37 I0.0 J5.7
X58.2 Y-12. I-22.921 J27.37
G01 Y12.
G03 X45.421 Y39.37 I-35.7 J0.0
X41.761 Y40.7 I-3.66 J-4.37
G01 X-41.761
G03 X-45.421 Y39.37 I0.0 J-5.7
X-58.2 Y12. I22.921 J-27.37
G01 Y-12.
G03 X-54.674 Y-27.47 I35.7 J0.0
X-49.537 Y-30.7 I5.137 J2.47
G01 X6.
G02 X8.21 Y-31. I0.0 J-8.3
G01 X9.276 Y-27.144
Z2.
G00 Z10.
X34.124 Y19.17
Z2.
G03 X37.163 Y24.7 Z-2. I3.039 J1.93
G01 X36.766
G02 X42.129 Y13.675 I-36.766 J-24.7
G03 X37.56 Y24.7 I-19.629 J-1.675
G01 X37.163
Y28.7
X28.281
G02 X38.324 Y-12.44 I-28.281 J-28.7
G01 X42.129 Y-13.675
G02 X36.766 Y-24.7 I-42.129 J13.675
G01 X37.56
G03 X42.129 Y-13.675 I-15.06 J12.7
G01 X38.324 Y-12.44
G02 X28.281 Y-28.7 I-38.324 J12.44
G01 X39.317
G03 X46.2 Y-12. I-16.817 J16.7
G01 Y12.
G03 X39.317 Y28.7 I-23.7 J0.0
G01 X37.163
Y32.7
X15.743
G02 X19.84 Y-30.389 I-15.743 J-32.7
X21.033 Y-32.7 I-13.84 J-8.611
G01 X40.907
G03 X50.2 Y-12. I-18.407 J20.7
G01 Y12.
G03 X40.907 Y32.7 I-27.7 J0.0
G01 X37.163
Y36.7
X-15.743
Y32.7
X-28.281
Y28.7
X-36.766 Y24.7
X-37.56
G03 X-42.129 Y13.675 I15.06 J-12.7
G02 X-36.766 Y24.7 I42.129 J-13.675
G01 X-28.281 Y28.7
X-39.317
G03 X-46.2 Y12. I16.817 J-16.7
G01 Y-12.
G03 X-46.114 Y-14.015 I23.7 J0.0
G01 X-42.129 Y-13.675
G03 X-42.014 Y-14.7 I19.629 J1.675
G01 X-41.782
G02 X-42.129 Y-13.675 I41.782 J14.7
G01 X-46.114 Y-14.015
G03 X-45.233 Y-18.7 I23.614 J2.015
G01 X-35.69
G02 X-28.281 Y28.7 I35.69 J18.7
G01 Y32.7
X-40.907
G03 X-50.2 Y12. I18.407 J-20.7
G01 Y-12.
G03 X-48.05 Y-22.7 I27.7 J0.0
G01 X-28.317
G02 X-15.743 Y32.7 I28.317 J22.7
G01 Y36.7
X-41.761
G03 X-42.853 Y36.303 I0.0 J-1.7
X-54.2 Y12. I20.353 J-24.303
G01 Y-12.
G03 X-51.069 Y-25.737 I31.7 J0.0
X-49.537 Y-26.7 I1.532 J.737
G01 X-18.164
G02 X13.568 Y-29.304 I18.164 J26.7
G01 X11.887 Y-25.674
G02 I-11.887 J25.674
G01 X13.568 Y-29.304
G02 X18.083 Y-36.7 I-7.568 J-9.696
G01 X41.761
G03 X42.853 Y-36.303 I0.0 J1.7
X54.2 Y-12. I-20.353 J24.303
G01 Y12.
G03 X42.853 Y36.303 I-31.7 J0.0
X41.761 Y36.7 I-1.092 J-1.303
G01 X37.163
Y40.7
X-41.761
G03 X-45.421 Y39.37 I0.0 J-5.7
X-58.2 Y12. I22.921 J-27.37
G01 Y-12.
G03 X-54.674 Y-27.47 I35.7 J0.0
X-49.537 Y-30.7 I5.137 J2.47
G01 X6.
G02 X14.3 Y-39. I0.0 J-8.3
G01 Y-40.7
X41.761
G03 X45.421 Y-39.37 I0.0 J5.7
X58.2 Y-12. I-22.921 J27.37
G01 Y12.
G03 X45.421 Y39.37 I-35.7 J0.0
X41.761 Y40.7 I-3.66 J-4.37
G01 X37.163
Y36.7
Z1.
G00 Z10.
X3.039 Y4.83
Z2.
G03 X0.0 Y-.7 Z-2. I-3.039 J-1.93
I0.0 J.7
G01 Y-4.7
G03 I0.0 J4.7
G01 Y-8.7
G03 I0.0 J8.7
G01 Y-4.7
Z1.
G00 Z10.
X-3.258 Y4.432
Z1.
G03 X-3.258 Y4.432 Z-5.061 I3.258 J-1.532
X0.0 Y-.7 Z-7. I3.258 J-1.532
I0.0 J.7
G01 Y-4.7
G03 I0.0 J4.7
G01 Y-8.7
G03 I0.0 J8.7
G01 Y-4.7
Z-4.
G00 Z10.
X41.068 Y-4.418
Z1.
G03 X41.068 Y-4.418 Z-5.061 I1.532 J3.258
X46.2 Y-1.16 Z-7. I1.532 J3.258
G01 Y12.
G03 X39.317 Y28.7 I-23.7 J0.0
G01 X29.698
G02 X39.485 Y-12.108 I-29.698 J-28.7
X44.526 Y-13.597 I-4.486 J-24.466
X46.087 Y-14.316 I-8.171 J-19.785
G03 X46.2 Y-12. I-23.587 J2.316
G01 Y-1.16
X50.2
Y12.
G03 X40.907 Y32.7 I-27.7 J0.0
G01 X17.944
G02 X33.819 Y-15.733 I-17.944 J-32.7
X42.996 Y-17.293 I1.18 J-20.841
X48.669 Y-21.08 I-6.642 J-16.089
G03 X50.2 Y-12. I-26.169 J9.08
G01 Y-1.16
X54.2
Y12.
G03 X42.853 Y36.303 I-31.7 J0.0
X41.761 Y36.7 I-1.092 J-1.303
G01 X-17.944
Y32.7
X-20.912
G02 X-20.729 Y31.009 I-17.088 J-2.7
X-17.944 Y32.7 I20.729 J-31.009
G01 Y36.7
X-26.511
G02 X-35.673 Y16.905 I-11.489 J-6.7
G01 X-34.974 Y12.967
X-40.345 Y8.829
G02 X-46.2 Y10.342 I2.345 J21.171
G01 Y-12.
G03 X-45.233 Y-18.7 I23.7 J0.0
G01 X-36.824
G02 X-40.345 Y8.829 I36.824 J18.7
G01 X-34.974 Y12.967
G02 X-49.697 Y17.254 I-3.026 J17.033
G03 X-50.2 Y12. I27.197 J-5.254
G01 Y-12.
G03 X-48.05 Y-22.7 I27.7 J0.0
G01 X-29.597
G02 X-34.974 Y12.967 I29.597 J22.7
G01 X-35.673 Y16.905
G02 X-50.781 Y26.321 I-2.327 J13.095
G01 X-46.937 Y27.427
G02 I8.937 J2.573
G01 X-50.781 Y26.321
G03 X-54.2 Y12. I28.281 J-14.321
G01 Y-12.
G03 X-51.069 Y-25.737 I31.7 J0.0
X-49.537 Y-26.7 I1.532 J.737
G01 X-19.9
G02 X14.407 Y-30.022 I19.9 J26.7
G01 X12.677 Y-26.416
G02 I-12.677 J26.416
G01 X14.407 Y-30.022
G02 X18.083 Y-36.7 I-8.407 J-8.978
G01 X21.749
G02 X23.129 Y-25.059 I10.116 J4.703
X28.529 Y-20.99 I10.555 J-8.39
X41.467 Y-20.989 I6.47 J-15.584
X47.225 Y-25.536 I-5.112 J-12.393
X48.989 Y-29.414 I-9.058 J-6.459
G01 X45.098 Y-30.342
G02 X43.975 Y-36.123 I-6.931 J-1.653
X40.613 Y-38.995 I-7.35 J5.199
X29.674 Y-39.138 I-5.62 J11.42
X26.099 Y-36.235 I3.856 J8.402
X26.261 Y-27.547 I5.766 J4.238
X30.06 Y-24.685 I7.424 J-5.902
X39.938 I4.939 J-11.889
X43.975 Y-27.867 I-3.583 J-8.697
X45.098 Y-30.342 I-5.807 J-4.128
G01 X48.989 Y-29.414
G03 X54.2 Y-12. I-26.489 J17.414
G01 Y-1.16
X58.2
Y12.
G03 X45.421 Y39.37 I-35.7 J0.0
X41.761 Y40.7 I-3.66 J-4.37
G01 X-41.761
G03 X-45.421 Y39.37 I0.0 J-5.7
X-58.2 Y12. I22.921 J-27.37
G01 Y-12.
G03 X-54.674 Y-27.47 I35.7 J0.0
X-49.537 Y-30.7 I5.137 J2.47
G01 X6.
G02 X14.3 Y-39. I0.0 J-8.3
G01 Y-40.7
X41.761
G03 X45.421 Y-39.37 I0.0 J5.7
X58.2 Y-12. I-22.921 J27.37
G01 Y-1.16
X54.2
Z-4.
G00 Z10.
X38.695 Y26.676
Z-4.
G03 X38.495 Y26.783 Z-10. I1.6 J3.225
G01 X48.743 Y20.866
G03 X40.907 Y32.7 I-26.243 J-8.867
G01 X28.246
X38.495 Y26.783
X36.495 Y23.319
X49.434 Y15.848
G02 X54.2 Y11.885 I-9.15 J-15.848
G03 X42.853 Y36.303 I-31.7 J.115
X41.761 Y36.7 I-1.092 J-1.303
G01 X-26.511
G02 X-24.701 Y30.128 I-11.489 J-6.7
G01 X-21.133 Y32.188
G02 X-16.983 Y33.3 I4.15 J-7.188
G01 X16.983
G02 X21.133 Y32.188 I0.0 J-8.3
G01 X36.495 Y23.319
X34.495 Y19.855
X47.434 Y12.384
G02 X51.158 Y-9.287 I-7.15 J-12.384
G01 X54.2 Y-11.885
G02 X49.434 Y-15.848 I-13.916 J11.885
G01 X46.743 Y-17.402
X48.743 Y-20.867
X48.562 Y-20.971
X48.67 Y-21.078
G03 X48.743 Y-20.867 I-26.17 J9.078
G01 X46.743 Y-17.402
X40.912 Y-20.769
G02 X41.469 Y-20.989 I-5.913 J-15.777
X47.225 Y-25.534 I-5.086 J-12.358
X48.991 Y-29.41 I-9.047 J-6.461
G03 X54.2 Y-12. I-26.491 J17.41
G01 Y-11.885
X58.2
Y12.
G03 X45.421 Y39.37 I-35.7 J0.0
X41.761 Y40.7 I-3.66 J-4.37
G01 X-41.761
G03 X-45.421 Y39.37 I0.0 J-5.7
X-54.349 Y28.128 I22.921 J-27.37
G01 X-50.781 Y26.321
G03 X-54.2 Y12. I28.281 J-14.321
G01 Y11.885
G02 X-49.434 Y15.848 I13.916 J-11.885
G01 X-44.761 Y18.547
G02 X-50.781 Y26.321 I6.761 J11.453
G01 X-46.937 Y27.427
G02 I8.937 J2.573
G01 X-50.781 Y26.321
X-54.349 Y28.128
G03 X-58.2 Y12. I31.849 J-16.128
G01 Y-12.
X-54.2 Y-11.885
G03 X-52.532 Y-22.147 I31.7 J-.115
G01 X-48.743 Y-20.866
G03 X-48.05 Y-22.7 I26.242 J8.867
G01 X-45.567
X-48.743 Y-20.866
X-52.532 Y-22.147
G03 X-51.069 Y-25.737 I30.032 J10.147
X-49.537 Y-26.7 I1.532 J.737
G01 X-30.639
X-49.434 Y-15.848
G02 X-54.2 Y-11.885 I9.15 J15.848
G01 X-58.2 Y-12.
G03 X-54.674 Y-27.47 I35.7 J0.0
X-49.537 Y-30.7 I5.137 J2.47
G01 X6.
G02 X13.355 Y-35.154 I0.0 J-8.3
G01 X16.9 Y-33.3
G02 X18.083 Y-36.7 I-10.9 J-5.7
G01 X21.754
G02 X20.715 Y-32.414 I10.079 J4.713
G01 X24.712 Y-32.26
G02 X26.259 Y-27.547 I7.121 J.273
X30.058 Y-24.685 I7.402 J-5.873
X39.94 I4.941 J-11.861
X43.975 Y-27.865 I-3.557 J-8.662
X44.418 Y-35.418 I-5.797 J-4.13
X40.615 Y-38.995 I-7.705 J4.38
X29.379 I-5.618 J11.388
X25.587 Y-35.418 I3.892 J7.923
X24.712 Y-32.26 I6.246 J3.431
G01 X20.715 Y-32.414
G02 X16.983 Y-33.3 I-3.732 J7.414
G01 X16.9
X13.355 Y-35.154
G02 X14.3 Y-39. I-7.355 J-3.846
G01 Y-40.7
X41.761
G03 X45.421 Y-39.37 I0.0 J5.7
X58.2 Y-12. I-22.921 J27.37
G01 Y-11.885
X54.2
X51.158 Y-9.287
G02 X47.434 Y-12.384 I-10.874 J9.287
G01 X19.133 Y-28.724
G02 X16.983 Y-29.3 I-2.15 J3.724
G01 X-16.983
G02 X-19.133 Y-28.724 I0.0 J4.3
G01 X-47.434 Y-12.384
G02 Y12.384 I7.15 J12.384
G01 X-19.133 Y28.724
G02 X-16.983 Y29.3 I2.15 J-3.724
G01 X16.983
G02 X19.133 Y28.724 I0.0 J-4.3
G01 X34.495 Y19.855
X36.495 Y23.319
Z-7.
G00 Z10.
X.227 Y-.693
Z-4.
G03 X0.0 Y-.7 Z-10. I-.227 J3.593
I0.0 J.7
G01 Y-4.7
G03 I0.0 J4.7
G01 Y-8.7
G03 I0.0 J8.7
G01 Y-4.7
Z-7.
G00 Z10.
X-1.534 Y6.157
Z-7.
G03 X-1.534 Y6.157 Z-13.061 I1.534 J-3.257
X0.0 Y-.7 Z-15.667 I1.534 J-3.257
I0.0 J.7
G01 Y-4.7
G03 I0.0 J4.7
G01 Y-8.7
G03 I0.0 J8.7
G01 Y-4.7
Z-12.667
G00 Z10.
X-1.534 Y6.157
Z-12.667
G03 X-1.534 Y6.157 Z-18.728 I1.534 J-3.257
X0.0 Y-.7 Z-21.333 I1.534 J-3.257
I0.0 J.7
G01 Y-4.7
G03 I0.0 J4.7
G01 Y-8.7
G03 I0.0 J8.7
G01 Y-4.7
Z-18.333
G00 Z10.
X-1.534 Y6.157
Z-18.333
G03 X-1.534 Y6.157 Z-24.394 I1.534 J-3.257
X0.0 Y-.7 Z-27. I1.534 J-3.257
I0.0 J.7
G01 Y-4.7
G03 I0.0 J4.7
G01 Y-8.7
G03 I0.0 J8.7
G01 Y-4.7
Z-24.
G00 Z10.
(Name:M8 Number:3)
(D=8.00)
(Stock_part=0.00)
G00 G90 G54 X-3.039 Y35.47 M03 S3000
Z10.
Z3.
G03 X0.0 Y41. Z-1. I3.039 J1.93 F1200.
G01 X-41.761
G03 X-45.614 Y39.6 I0.0 J-6.
X-58.5 Y12. I23.114 J-27.6
G01 Y-12.
G03 X-54.944 Y-27.6 I36. J0.0
X-49.537 Y-31. I5.407 J2.6
G01 X6.
G02 X14. Y-39. I0.0 J-8.
G01 Y-41.
X41.761
G03 X45.614 Y-39.6 I0.0 J6.
X58.5 Y-12. I-23.114 J27.6
G01 Y12.
G03 X45.614 Y39.6 I-36. J0.0
X41.761 Y41. I-3.852 J-4.6
G01 X0.0
Y37.
Z2.
G00 Z10.
X3.039 Y33.522
Z2.
G03 X0.0 Y27.993 Z-2. I-3.039 J-1.93
G02 I0.0 J-27.993
G01 Y31.993
Z1.
G00 Z10.
Y37.
Z1.
G01 Z-2.
Y41.
X-41.761
G03 X-45.614 Y39.6 I0.0 J-6.
X-58.5 Y12. I23.114 J-27.6
G01 Y-12.
G03 X-54.944 Y-27.6 I36. J0.0
X-49.537 Y-31. I5.407 J2.6
G01 X6.
G02 X14. Y-39. I0.0 J-8.
G01 Y-41.
X41.761
G03 X45.614 Y-39.6 I0.0 J6.
X58.5 Y-12. I-23.114 J27.6
G01 Y12.
G03 X45.614 Y39.6 I-36. J0.0
X41.761 Y41. I-3.852 J-4.6
G01 X0.0
Y37.
Z1.
G00 Z10.
X-3.039 Y3.47
Z2.
G03 X0.0 Y9. Z-2. I3.039 J1.93
I0.0 J-9.
G01 Y5.
Z1.
G00 Z10.
X3.258 Y3.868
Z1.
G03 X3.258 Y3.868 Z-5.061 I-3.258 J1.532
X0.0 Y9. Z-7. I-3.258 J1.532
I0.0 J-9.
G01 Y5.
Z-4.
G00 Z10.
X-3.258 Y34.132
Z1.
G03 X-3.258 Y34.132 Z-5.061 I3.258 J-1.532
X0.0 Y29. Z-7. I3.258 J-1.532
G02 I0.0 J-29.
G01 Y33.
Z-4.
G00 Z10.
X-27.046 Y37.
Z-4.
G01 Z-7.
X-38. Y41.
Y39.
G02 I0.0 J-9.
G01 Y41.
X-34.015 Y40.651
X-38. Y41.
X-41.761
G03 X-45.614 Y39.6 I0.0 J-6.
X-58.5 Y12. I23.114 J-27.6
G01 Y-12.
G03 X-54.944 Y-27.6 I36. J0.0
X-49.537 Y-31. I5.407 J2.6
G01 X6.
G02 X14. Y-39. I0.0 J-8.
G01 Y-41.
X41.761
G03 X45.614 Y-39.6 I0.0 J6.
X58.5 Y-12. I-23.114 J27.6
G01 Y12.
G03 X45.614 Y39.6 I-36. J0.0
X41.761 Y41. I-3.852 J-4.6
G01 X-38.
X-41.985 Y40.651
Z-4.
G00 Z10.
X48.837 Y-30.176
Z-4.
G01 Z-7.
X42.11 Y-38.626
X38.226 Y-39.58
X38.044 Y-39.625
G02 X29.991 Y-38.959 I-3.032 J12.338
X25.951 Y-35.456 I3.483 J8.098
X26.652 Y-27.537 I5.916 J3.467
X30.795 Y-24.718 I7.238 J-6.185
X39.792 Y-24.95 I4.195 J-11.882
X43.944 Y-28.365 I-3.344 J-8.297
X44.916 Y-33.044 I-5.812 J-3.647
X42.56 Y-37.291 I-7.239 J1.239
X38.408 Y-39.536 I-6.798 J7.612
G01 X38.226 Y-39.58
Z-4.
G00 Z10.
X38.64 Y-24.534
Z-4.
G01 X39.1 Y-24.663 Z-4.128
X39.792 Y-24.948 Z-4.328
X40.472 Y-25.222 Z-4.525
X42.15 Y-26.313 Z-5.061
X43.544 Y-27.749 Z-5.597
X43.944 Y-28.363 Z-5.794
X44.286 Y-28.903 Z-5.965
X44.837 Y-30.399 Z-6.392
X45.026 Y-31.981 Z-6.819
X44.841 Y-33.565 Z-7.246
X44.636 Y-34.17 Z-7.418
X44.41 Y-34.811 Z-7.6
X43.56 Y-36.247 Z-8.047
X42.42 Y-37.466 Z-8.494
X41.868 Y-37.863 Z-8.676
X41.223 Y-38.336 Z-8.891
X39.904 Y-39.037 Z-9.291
X38.499 Y-39.547 Z-9.691
X37.716 Y-39.708 Z-9.906
X37.37 Y-39.773 Z-10.
X37.024 Y-39.837
G02 X29.411 Y-38.674 I-2.035 J12.173
X25.951 Y-35.458 I3.877 J7.64
X26.649 Y-27.537 I5.913 J3.47
X30.795 Y-24.716 I7.245 J-6.191
X39.792 Y-24.948 I4.195 J-11.882
X43.944 Y-28.363 I-3.342 J-8.295
X44.636 Y-34.17 I-5.731 J-3.628
X41.868 Y-37.863 I-7.257 J2.555
X37.716 Y-39.708 I-6.296 J8.575
G01 X37.37 Y-39.773
X33.516 Y-40.846
X22.235 Y-37.
Z-7.
G00 Z10.
X40.197 Y-20.835
Z-7.
G01 Z-10.
X35.548 Y-23.519
X33.548 Y-20.055
X18.983 Y-28.464
G02 X16.983 Y-29. I-2. J3.464
G01 X-16.983
G02 X-18.983 Y-28.464 I0.0 J4.
G01 X-47.284 Y-12.124
G02 Y12.124 I7. J12.124
G01 X-18.983 Y28.464
G02 X-16.983 Y29. I2. J-3.464
G01 X16.983
G02 X18.983 Y28.464 I0.0 J-4.
G01 X47.284 Y12.124
G02 Y-12.124 I-7. J-12.124
G01 X33.548 Y-20.055
X35.548 Y-23.519
X40.197 Y-20.835
Z-7.
G00 Z10.
X0.0 Y37.
Z-7.
G01 Z-10.
Y41.
X-41.761
G03 X-45.614 Y39.6 I0.0 J-6.
X-58.5 Y12. I23.114 J-27.6
G01 Y-12.
G03 X-54.944 Y-27.6 I36. J0.0
X-49.537 Y-31. I5.407 J2.6
G01 X6.
G02 X14. Y-39. I0.0 J-8.
G01 Y-41.
X41.761
G03 X45.614 Y-39.6 I0.0 J6.
X58.5 Y-12. I-23.114 J27.6
G01 Y12.
G03 X45.614 Y39.6 I-36. J0.0
X41.761 Y41. I-3.852 J-4.6
G01 X0.0
Y37.
Z-7.
G00 Z10.
X-27.046
Z-7.
G01 Z-10.
X-38. Y41.
Y39.
G02 I0.0 J-9.
G01 Z-7.
G00 Z10.
X.227 Y-8.993
Z-4.
G03 X0.0 Y-9. Z-10. I-.227 J3.593
I0.0 J9.
G01 Y-5.
Z-7.
G00 Z10.
X-1.534 Y-2.143
Z-7.
G03 X-1.534 Y-2.143 Z-13.061 I1.534 J-3.257
X0.0 Y-9. Z-15.667 I1.534 J-3.257
I0.0 J9.
G01 Y-5.
Z-12.667
G00 Z10.
X-1.534 Y-2.143
Z-12.667
G03 X-1.534 Y-2.143 Z-18.728 I1.534 J-3.257
X0.0 Y-9. Z-21.333 I1.534 J-3.257
I0.0 J9.
G01 Y-5.
Z-18.333
G00 Z10.
X-1.534 Y-2.143
Z-18.333
G03 X-1.534 Y-2.143 Z-24.394 I1.534 J-3.257
X0.0 Y-9. Z-27. I1.534 J-3.257
I0.0 J9.
G01 Y-5.
Z-24.
G00 Z10.
M09
M05
M01
G91 G30 Z0.0
N40   
G40 G17 G49 G80
T05 M06
(Name:M8R1 Number:5)
(D=8.00 R=1.00)
(Stock_part=0.00)
G00 G90 G54 X29.025 Y.729 M03 S4500
G43 Z10. H05
M08
Z.787
G01 X29.015 Y.647 Z-.105 F1500.
X28.979 Y.37 Z-.956
X28.92 Y-.088 Z-1.724
X28.841 Y-.704 Z-2.369
X28.746 Y-1.447 Z-2.86
X28.639 Y-2.279 Z-3.173
X28.525 Y-3.16 Z-3.29
X28.459 Y-3.726 Z-3.292
X28.326 Y-4.617 Z-3.289
X28.242 Y-5.103 Z-3.29
X28.051 Y-6.077 Z-3.289
X27.939 Y-6.563 Z-3.291
X27.819 Y-7.047 Z-3.29
X27.697 Y-7.53 Z-3.289
X27.654 Y-7.676 Z-3.29
X27.555 Y-8.02
X27.535 Y-8.072 Z-3.294
X27.468 Y-8.313 Z-3.292
X27.408 Y-8.508 Z-3.29
X27.254 Y-8.992 Z-3.287
X27.087 Y-9.477 Z-3.29
X27.062 Y-9.538 Z-3.294
X26.982 Y-9.778 Z-3.291
X26.914 Y-9.964 Z-3.289
G02 X26.107 Y-11.911 I-32.432 J12.296
G01 X26.079 Y-11.965 Z-3.292
X26.01 Y-12.123 Z-3.289
X25.886 Y-12.392 Z-3.29
X25.647 Y-12.883 Z-3.289
X25.61 Y-12.947 Z-3.293
X25.524 Y-13.118 Z-3.29
X25.397 Y-13.361
X25.274 Y-13.594 Z-3.291
X25.138 Y-13.856 Z-3.29
X25.104 Y-13.91 Z-3.294
X25.038 Y-14.036 Z-3.291
X24.551 Y-14.866 Z-3.292
X24.274 Y-15.314 Z-3.29
X23.636 Y-16.287 Z-3.289
X23.61 Y-16.318 Z-3.293
X23.579 Y-16.369 Z-3.29
X22.797 Y-17.438 Z-3.288
X22.307 Y-18.054 Z-3.292
X22.167 Y-18.229 Z-3.291
X22.143 Y-18.255 Z-3.294
X22.121 Y-18.287 Z-3.291
X21.756 Y-18.717 Z-3.29
X21.699 Y-18.777 Z-3.294
X21.634 Y-18.857 Z-3.291
X21.244 Y-19.292 Z-3.293
X21.148 Y-19.404 Z-3.29
X20.881 Y-19.69 Z-3.289
X20.176 Y-20.413
X19.922 Y-20.662 Z-3.29
X19.293 Y-21.242 Z-3.293
X19.204 Y-21.329 Z-3.29
X18.863 Y-21.632 Z-3.291
X18.776 Y-21.701 Z-3.295
X18.717 Y-21.756 Z-3.291
X18.285 Y-22.121
X18.255 Y-22.142 Z-3.294
X18.231 Y-22.166 Z-3.291
X18.057 Y-22.308 Z-3.289
X17.68 Y-22.607 Z-3.291
X17.046 Y-23.092 Z-3.292
X16.877 Y-23.215
X16.773 Y-23.292 Z-3.29
X16.357 Y-23.579
X16.313 Y-23.605 Z-3.293
X16.287 Y-23.627 Z-3.29
X15.645 Y-24.065
X14.828 Y-24.573 Z-3.291
X14.526 Y-24.754 Z-3.287
X14.342 Y-24.858 Z-3.288
X14.021 Y-25.038 Z-3.289
X13.905 Y-25.098 Z-3.293
X13.856 Y-25.13 Z-3.289
X13.601 Y-25.27 Z-3.29
X13.37 Y-25.4
X13.282 Y-25.436 Z-3.297
X13.213 Y-25.477 Z-3.291
X13.126 Y-25.522 Z-3.289
X12.945 Y-25.608 Z-3.293
X12.883 Y-25.642 Z-3.289
X12.143 Y-26.009 Z-3.291
X11.968 Y-26.083 Z-3.293
X11.911 Y-26.112 Z-3.289
X11.034 Y-26.495 Z-3.291
X10.964 Y-26.523 Z-3.293
X10.939 Y-26.536 Z-3.29
X9.785 Y-26.981
X9.541 Y-27.066 Z-3.292
X9.48 Y-27.091 Z-3.288
X9.173 Y-27.192 Z-3.29
X8.333 Y-27.468 Z-3.292
X8.074 Y-27.538 Z-3.293
X8.022 Y-27.556 Z-3.289
X7.049 Y-27.82 Z-3.288
X6.564 Y-27.939 Z-3.291
X6.503 Y-27.953
X6.131 Y-28.03 Z-3.293
X6.077 Y-28.046 Z-3.29
X5.591 Y-28.152 Z-3.288
X4.132 Y-28.405 Z-3.289
X3.211 Y-28.514 Z-3.294
X3.16 Y-28.524 Z-3.29
X2.674 Y-28.576 Z-3.288
X1.702 Y-28.649 Z-3.29
X1.215 Y-28.674 Z-3.288
X.243 Y-28.698
X-.242
X-1.212 Y-28.674
X-1.7 Y-28.649 Z-3.29
X-1.853 Y-28.637 Z-3.291
X-2.674 Y-28.576 Z-3.288
X-3.16 Y-28.524 Z-3.29
X-3.211 Y-28.514 Z-3.294
X-4.131 Y-28.405 Z-3.29
X-5.587 Y-28.153 Z-3.288
X-6.077 Y-28.047 Z-3.291
X-6.132 Y-28.031 Z-3.295
X-6.497 Y-27.955 Z-3.291
X-6.548 Y-27.943
X-7.048 Y-27.82 Z-3.288
X-8.022 Y-27.557 Z-3.289
X-8.074 Y-27.539 Z-3.293
X-8.331 Y-27.468 Z-3.292
X-9.48 Y-27.091 Z-3.288
X-9.541 Y-27.066 Z-3.292
X-9.78 Y-26.982 Z-3.29
X-9.964 Y-26.914 Z-3.292
X-10.939 Y-26.536 Z-3.29
X-10.964 Y-26.523 Z-3.293
X-11.032 Y-26.496 Z-3.29
X-11.911 Y-26.112 Z-3.289
X-11.968 Y-26.083 Z-3.293
X-12.14 Y-26.01 Z-3.29
X-12.883 Y-25.642 Z-3.289
X-12.945 Y-25.608 Z-3.293
X-13.122 Y-25.524 Z-3.289
X-13.368 Y-25.401 Z-3.29
X-13.594 Y-25.274
X-13.856 Y-25.13 Z-3.289
X-13.905 Y-25.098 Z-3.293
X-14.021 Y-25.038 Z-3.289
X-14.342 Y-24.859
X-14.525 Y-24.754 Z-3.287
X-14.863 Y-24.551 Z-3.291
X-15.644 Y-24.065 Z-3.29
X-16.287 Y-23.629 Z-3.291
X-16.314 Y-23.606 Z-3.294
X-16.359 Y-23.579 Z-3.291
X-16.771 Y-23.294
G02 X-18.231 Y-22.166 I17.006 J23.528
G01 X-18.255 Y-22.142 Z-3.294
X-18.285 Y-22.121 Z-3.291
X-18.717 Y-21.756
X-18.776 Y-21.701 Z-3.295
X-18.861 Y-21.634 Z-3.291
X-19.204 Y-21.329 Z-3.29
X-19.293 Y-21.242 Z-3.293
X-19.399 Y-21.148 Z-3.29
X-19.69 Y-20.877
X-19.798 Y-20.774 Z-3.292
X-19.921 Y-20.662 Z-3.29
X-20.176 Y-20.413 Z-3.289
X-20.881 Y-19.69
X-21.146 Y-19.406 Z-3.29
X-21.243 Y-19.292 Z-3.293
X-21.326 Y-19.204 Z-3.29
X-21.634 Y-18.855
X-21.699 Y-18.776 Z-3.293
X-21.756 Y-18.717 Z-3.29
X-22.121 Y-18.287 Z-3.291
X-22.143 Y-18.255 Z-3.294
X-22.166 Y-18.231 Z-3.292
X-22.307 Y-18.055
X-22.797 Y-17.438 Z-3.288
X-23.579 Y-16.367 Z-3.289
X-23.61 Y-16.318 Z-3.292
X-23.636 Y-16.287 Z-3.29
X-24.274 Y-15.314
X-24.574 Y-14.828 Z-3.292
X-25.037 Y-14.038 Z-3.291
X-25.104 Y-13.91 Z-3.294
X-25.138 Y-13.856 Z-3.291
X-25.521 Y-13.124 Z-3.29
X-25.61 Y-12.947 Z-3.293
X-25.647 Y-12.883 Z-3.289
X-25.877 Y-12.41 Z-3.29
X-26.007 Y-12.129 Z-3.289
X-26.079 Y-11.965 Z-3.292
X-26.107 Y-11.911 Z-3.289
X-26.232 Y-11.64 Z-3.288
X-26.329 Y-11.425 Z-3.287
X-26.496 Y-11.026 Z-3.291
X-26.671 Y-10.587 Z-3.289
X-26.982 Y-9.78 Z-3.292
X-27.062 Y-9.538 Z-3.294
X-27.086 Y-9.48 Z-3.29
X-27.254 Y-8.994 Z-3.287
X-27.407 Y-8.51 Z-3.289
X-27.468 Y-8.314 Z-3.292
X-27.535 Y-8.072 Z-3.294
X-27.554 Y-8.022 Z-3.29
X-27.654 Y-7.676
X-27.696 Y-7.536 Z-3.289
X-27.955 Y-6.499 Z-3.291
X-28.035 Y-6.134 Z-3.292
X-28.051 Y-6.077 Z-3.289
X-28.242 Y-5.105 Z-3.29
X-28.326 Y-4.619 Z-3.289
X-28.47 Y-3.646 Z-3.291
X-28.476 Y-3.574 Z-3.292
X-28.516 Y-3.212 Z-3.293
X-28.525 Y-3.16 Z-3.29
X-28.54 Y-2.981 Z-3.292
X-28.562 Y-2.747 Z-3.293
X-28.572 Y-2.674 Z-3.29
X-28.619 Y-2.188 Z-3.289
X-28.672 Y-1.224 Z-3.291
X-28.693 Y-.729 Z-3.288
X-28.696 Y-.243 Z-3.289
X-28.698 Y.242 Z-3.292
X-28.693 Y.725 Z-3.288
X-28.649 Y1.7 Z-3.291
X-28.628 Y2.038 Z-3.289
X-28.619 Y2.186
X-28.54 Y2.981 Z-3.292
X-28.525 Y3.16 Z-3.29
X-28.516 Y3.212 Z-3.293
X-28.462 Y3.692 Z-3.291
X-28.326 Y4.617 Z-3.289
X-28.242 Y5.104 Z-3.29
X-28.051 Y6.077 Z-3.289
X-28.035 Y6.134 Z-3.292
X-27.955 Y6.502 Z-3.291
X-27.827 Y7.018
X-27.697 Y7.53 Z-3.289
X-27.655 Y7.676
X-27.555 Y8.02 Z-3.29
X-27.535 Y8.072 Z-3.294
X-27.468 Y8.313 Z-3.292
X-27.408 Y8.508 Z-3.29
X-27.254 Y8.992 Z-3.287
X-27.087 Y9.477 Z-3.29
X-27.062 Y9.538 Z-3.294
X-26.982 Y9.778 Z-3.291
X-26.914 Y9.964 Z-3.289
G02 X-26.107 Y11.911 I32.43 J-12.295
G01 X-26.079 Y11.965 Z-3.292
X-26.01 Y12.123 Z-3.289
X-25.886 Y12.392 Z-3.29
X-25.647 Y12.883 Z-3.289
X-25.61 Y12.947 Z-3.293
X-25.524 Y13.118 Z-3.29
X-25.397 Y13.361
X-25.274 Y13.594 Z-3.291
X-25.138 Y13.856 Z-3.29
X-25.104 Y13.91 Z-3.294
X-25.038 Y14.036 Z-3.291
X-24.551 Y14.866 Z-3.292
X-24.274 Y15.314 Z-3.29
X-23.636 Y16.287 Z-3.289
X-23.61 Y16.318 Z-3.293
X-23.579 Y16.369 Z-3.29
X-22.797 Y17.438 Z-3.288
X-22.307 Y18.054 Z-3.292
X-22.167 Y18.229 Z-3.291
X-22.143 Y18.255 Z-3.294
X-22.121 Y18.287 Z-3.291
X-21.756 Y18.717 Z-3.29
X-21.699 Y18.777 Z-3.294
X-21.634 Y18.857 Z-3.291
X-21.326 Y19.204 Z-3.29
X-21.244 Y19.292 Z-3.293
X-21.148 Y19.404 Z-3.29
X-20.881 Y19.69 Z-3.289
X-20.176 Y20.413
X-19.922 Y20.662 Z-3.29
X-19.293 Y21.242 Z-3.293
X-19.204 Y21.329 Z-3.29
X-18.863 Y21.632 Z-3.291
X-18.776 Y21.701 Z-3.295
X-18.717 Y21.756 Z-3.291
X-18.285 Y22.121
X-18.255 Y22.142 Z-3.294
X-18.231 Y22.166 Z-3.291
X-18.057 Y22.309 Z-3.29
X-17.748 Y22.555 Z-3.291
X-17.046 Y23.092 Z-3.292
X-16.877 Y23.215
X-16.773 Y23.292 Z-3.29
X-16.359 Y23.579 Z-3.291
X-16.314 Y23.606 Z-3.294
X-16.287 Y23.629 Z-3.291
X-15.645 Y24.065 Z-3.29
X-14.863 Y24.551 Z-3.291
X-14.526 Y24.754 Z-3.287
X-14.342 Y24.858 Z-3.288
X-14.021 Y25.038 Z-3.289
X-13.905 Y25.098 Z-3.293
X-13.856 Y25.13 Z-3.289
X-13.37 Y25.399
X-13.128 Y25.521
X-12.945 Y25.608 Z-3.293
X-12.883 Y25.642 Z-3.289
X-12.143 Y26.009 Z-3.291
X-11.968 Y26.083 Z-3.293
X-11.911 Y26.112 Z-3.289
X-11.034 Y26.495 Z-3.291
X-10.964 Y26.523 Z-3.293
X-10.939 Y26.536 Z-3.29
X-9.785 Y26.981
X-9.541 Y27.066 Z-3.292
X-9.48 Y27.091 Z-3.288
X-9.236 Y27.172 Z-3.29
X-8.333 Y27.468 Z-3.292
X-8.074 Y27.539 Z-3.293
X-8.022 Y27.557 Z-3.289
X-7.049 Y27.82 Z-3.288
X-6.564 Y27.939 Z-3.291
X-6.496 Y27.955
X-6.131 Y28.03 Z-3.293
X-6.077 Y28.046 Z-3.29
X-5.591 Y28.152 Z-3.288
X-4.132 Y28.402 Z-3.287
X-3.211 Y28.514 Z-3.294
X-3.16 Y28.524 Z-3.29
X-2.674 Y28.576 Z-3.288
X-1.702 Y28.649 Z-3.29
X-1.215 Y28.674 Z-3.288
X-.243 Y28.698
X.242
X1.212 Y28.674
X1.701 Y28.649 Z-3.29
X1.853 Y28.637 Z-3.291
X2.674 Y28.576 Z-3.288
X3.16 Y28.524 Z-3.29
X3.211 Y28.514 Z-3.294
X4.131 Y28.405 Z-3.29
X5.584 Y28.153 Z-3.288
X5.7 Y28.127 Z-3.29
X6.077 Y28.047 Z-3.291
X6.132 Y28.031 Z-3.295
X6.502 Y27.955 Z-3.292
X6.563 Y27.94 Z-3.291
X7.048 Y27.82 Z-3.288
X8.022 Y27.556 Z-3.289
X8.074 Y27.538 Z-3.293
X8.331 Y27.468 Z-3.292
X9.48 Y27.092 Z-3.288
X9.541 Y27.067 Z-3.292
X9.783 Y26.982 Z-3.291
X9.96 Y26.915
X10.939 Y26.536 Z-3.29
X10.964 Y26.523 Z-3.293
X11.032 Y26.496 Z-3.29
X11.911 Y26.112 Z-3.289
X11.968 Y26.083 Z-3.293
X12.14 Y26.01 Z-3.29
X12.883 Y25.642 Z-3.289
X12.945 Y25.608 Z-3.293
X13.122 Y25.524 Z-3.289
X13.213 Y25.477 Z-3.291
X13.281 Y25.435 Z-3.297
X13.322 Y25.422 Z-3.291
X13.368 Y25.401 Z-3.29
X13.856 Y25.13 Z-3.289
X13.905 Y25.098 Z-3.293
X14.021 Y25.038 Z-3.289
X14.342 Y24.859
X14.526 Y24.754 Z-3.287
X14.863 Y24.552 Z-3.291
X15.644 Y24.065 Z-3.29
X16.287 Y23.627
X16.313 Y23.605 Z-3.293
X16.357 Y23.579 Z-3.29
X16.771 Y23.294 Z-3.291
X16.877 Y23.215 Z-3.292
X17.046 Y23.093
X17.887 Y22.444 Z-3.289
X18.231 Y22.166 Z-3.291
X18.255 Y22.142 Z-3.294
X18.285 Y22.121 Z-3.291
X18.717 Y21.756
X18.776 Y21.701 Z-3.295
X18.861 Y21.634 Z-3.291
X19.204 Y21.329 Z-3.29
X19.293 Y21.242 Z-3.293
X19.399 Y21.148 Z-3.29
X19.69 Y20.877
X19.798 Y20.774 Z-3.292
X19.921 Y20.662 Z-3.29
X20.176 Y20.413 Z-3.289
X21.012 Y19.553 Z-3.288
X21.244 Y19.292 Z-3.293
X21.634 Y18.858 Z-3.291
X21.699 Y18.777 Z-3.294
X21.756 Y18.718 Z-3.29
X22.119 Y18.29 Z-3.291
X22.143 Y18.255 Z-3.294
X22.166 Y18.231 Z-3.292
X22.307 Y18.055
X22.797 Y17.438 Z-3.288
X23.578 Y16.371 Z-3.291
X23.61 Y16.318 Z-3.293
X23.636 Y16.287 Z-3.289
X24.273 Y15.314
X24.574 Y14.828 Z-3.292
X25.037 Y14.038 Z-3.291
X25.104 Y13.91 Z-3.294
X25.138 Y13.856 Z-3.291
X25.521 Y13.124 Z-3.29
X25.61 Y12.947 Z-3.293
X25.647 Y12.883 Z-3.289
X25.877 Y12.41 Z-3.29
X26.007 Y12.129 Z-3.289
X26.079 Y11.965 Z-3.292
X26.107 Y11.911 Z-3.289
X26.232 Y11.64 Z-3.288
X26.329 Y11.425 Z-3.287
X26.496 Y11.026 Z-3.291
X26.671 Y10.587 Z-3.289
X26.726 Y10.453 Z-3.288
X26.913 Y9.966 Z-3.289
X26.982 Y9.78 Z-3.292
X27.062 Y9.538 Z-3.294
X27.086 Y9.48 Z-3.29
X27.254 Y8.994 Z-3.287
X27.407 Y8.51 Z-3.289
X27.468 Y8.314 Z-3.292
X27.535 Y8.072 Z-3.294
X27.554 Y8.022 Z-3.29
X27.617 Y7.804
X27.696 Y7.536 Z-3.289
X27.955 Y6.499 Z-3.291
X28.035 Y6.134 Z-3.292
X28.051 Y6.077 Z-3.289
X28.242 Y5.105 Z-3.29
X28.326 Y4.619 Z-3.289
X28.469 Y3.65 Z-3.291
X28.476 Y3.574 Z-3.292
X28.516 Y3.212 Z-3.293
X28.525 Y3.16 Z-3.29
X28.54 Y2.981 Z-3.292
X28.562 Y2.747 Z-3.293
X28.572 Y2.674 Z-3.29
G02 X28.619 Y-2.185 I-27.619 J-2.696
G01 X28.54 Y-2.981 Z-3.292
X28.525 Y-3.16 Z-3.29
X28.421 Y-3.14 Z-3.184
X28.364 Y-3.646 Z-3.186
X28.236 Y-4.5 Z-3.183
G02 X27.297 Y-8.508 I-26.923 J4.196
G01 X27.183 Y-8.866 Z-3.181
G02 X25.689 Y-12.558 I-27.338 J8.914
G01 X25.531 Y-12.875 Z-3.183
X25.038 Y-13.818 Z-3.184
X25.024 Y-13.843
X24.449 Y-14.828 Z-3.186
X24.065 Y-15.441 Z-3.185
X23.506 Y-16.287 Z-3.184
G02 X19.69 Y-20.732 I-23.718 J16.5
G01 X19.132 Y-21.25 Z-3.185
X18.863 Y-21.489 Z-3.186
X18.717 Y-21.616 Z-3.185
X17.913 Y-22.29 Z-3.182
X17.135 Y-22.891 Z-3.185
X16.773 Y-23.161 Z-3.184
X15.697 Y-23.902
X14.764 Y-24.487 Z-3.185
X14.342 Y-24.736 Z-3.183
X13.274 Y-25.329
X13.204 Y-25.358 Z-3.189
X13.148 Y-25.391 Z-3.184
G02 X9.136 Y-27.093 I-12.806 J24.605
G01 X8.379 Y-27.342 Z-3.186
X8.053 Y-27.437 Z-3.184
X8.022 Y-27.446 Z-3.183
X6.937 Y-27.738 Z-3.182
X6.564 Y-27.83 Z-3.185
X6.423 Y-27.862
X5.591 Y-28.043 Z-3.182
X4.502 Y-28.235 Z-3.184
G02 X1.48 Y-28.554 I-4.388 J27.047
G01 X1.215 Y-28.567 Z-3.181
G02 X-1.213 Y-28.568 I-1.226 J29.775
G01 X-1.701 Y-28.543 Z-3.184
G02 X-4.131 Y-28.297 I1.6 J27.947
G01 X-5.481 Y-28.065 Z-3.182
X-6.551 Y-27.833 Z-3.185
X-6.935 Y-27.739 Z-3.182
X-7.048 Y-27.71
X-8.022 Y-27.447 Z-3.183
X-8.413 Y-27.33 Z-3.186
X-8.994 Y-27.14 Z-3.184
X-9.47 Y-26.982 Z-3.183
X-9.872 Y-26.835 Z-3.186
X-9.966 Y-26.799 Z-3.185
X-10.939 Y-26.421 Z-3.184
X-11.902 Y-26. Z-3.183
X-12.299 Y-25.812 Z-3.184
X-12.397 Y-25.765
X-13.368 Y-25.279 Z-3.183
X-14.452 Y-24.673 Z-3.182
X-15.064 Y-24.301 Z-3.185
X-15.697 Y-23.902 Z-3.184
X-16.772 Y-23.162 Z-3.185
X-17.259 Y-22.796
X-17.7 Y-22.457 Z-3.184
X-17.913 Y-22.29 Z-3.182
X-18.708 Y-21.625 Z-3.185
G02 X-21.614 Y-18.717 I18.943 J21.845
G01 X-21.85 Y-18.447 Z-3.181
X-22.029 Y-18.231 Z-3.184
X-22.121 Y-18.119 Z-3.185
X-22.719 Y-17.365 Z-3.182
X-23.536 Y-16.244 Z-3.183
X-24.147 Y-15.314 Z-3.184
X-24.488 Y-14.764 Z-3.186
X-25.038 Y-13.818 Z-3.184
X-25.524 Y-12.89 Z-3.183
X-25.689 Y-12.558 Z-3.182
X-25.762 Y-12.406 Z-3.184
X-26.213 Y-11.425 Z-3.181
X-26.416 Y-10.939 Z-3.184
X-26.664 Y-10.32 Z-3.182
X-26.799 Y-9.966
X-26.849 Y-9.831 Z-3.184
X-27.183 Y-8.867 Z-3.181
X-27.433 Y-8.057 Z-3.185
X-27.625 Y-7.384 Z-3.183
X-27.852 Y-6.473 Z-3.184
X-27.945 Y-6.067 Z-3.183
X-28.158 Y-4.964
G02 X-28.575 Y-1.011 I26.743 J4.817
G01 X-28.586 Y-.729 Z-3.181
X-28.588 Y-.527 Z-3.183
X-28.59 Y-.243
X-28.592 Y.242 Z-3.185
X-28.589 Y.527 Z-3.184
G02 X-27.945 Y6.067 I28.579 J-.517
G01 X-27.863 Y6.423 Z-3.185
X-27.842 Y6.517
X-27.586 Y7.533 Z-3.182
G02 X-25.531 Y12.875 I27.949 J-7.685
G01 X-25.024 Y13.842 Z-3.185
X-24.45 Y14.828
X-24.065 Y15.441
X-23.506 Y16.287 Z-3.184
X-22.719 Y17.365 Z-3.182
X-22.028 Y18.231 Z-3.185
X-21.475 Y18.877
G02 X-18.717 Y21.617 I21.22 J-18.601
G01 X-17.912 Y22.29 Z-3.182
X-17.135 Y22.891 Z-3.185
X-16.773 Y23.162 Z-3.184
X-15.697 Y23.901
X-14.764 Y24.488 Z-3.185
X-14.342 Y24.737 Z-3.182
X-14.153 Y24.843 Z-3.183
X-13.37 Y25.278
G02 X-9.136 Y27.093 I13.29 J-25.156
G01 X-8.379 Y27.342 Z-3.186
X-8.005 Y27.451 Z-3.183
X-6.937 Y27.739 Z-3.182
X-6.564 Y27.831 Z-3.184
X-6.472 Y27.851
X-5.591 Y28.043 Z-3.182
X-4.132 Y28.295 Z-3.181
X-2.947 Y28.441 Z-3.184
X-2.62 Y28.474 Z-3.183
X-1.481 Y28.554
X-1.215 Y28.567 Z-3.181
G02 X1.331 Y28.563 I1.224 J-29.12
G01 X1.776 Y28.537 Z-3.184
X2.69 Y28.468 Z-3.183
G02 X6.627 Y27.816 I-3.028 J-30.481
G01 X6.984 Y27.727 Z-3.181
X7.049 Y27.71 Z-3.182
X8.005 Y27.451 Z-3.183
X8.413 Y27.33 Z-3.186
X8.508 Y27.299 Z-3.185
X8.867 Y27.181 Z-3.184
X9.472 Y26.982 Z-3.183
G02 X13.075 Y25.428 I-9.366 J-26.67
G01 X13.148 Y25.39 Z-3.185
X13.203 Y25.357 Z-3.19
X13.236 Y25.346 Z-3.185
X13.273 Y25.329 Z-3.183
X14.453 Y24.674 Z-3.181
X14.828 Y24.448 Z-3.185
X15.696 Y23.903 Z-3.184
X16.809 Y23.135
X17.701 Y22.455
X17.912 Y22.29 Z-3.182
X18.118 Y22.121 Z-3.185
G02 X20.26 Y20.176 I-17.986 J-21.956
G01 X20.965 Y19.447 Z-3.182
X21.615 Y18.717 Z-3.184
X22.029 Y18.231 Z-3.185
X22.07 Y18.181
X22.456 Y17.701
X22.719 Y17.365 Z-3.182
X22.799 Y17.259 Z-3.183
X23.536 Y16.243 Z-3.184
X24.147 Y15.314
X24.45 Y14.828 Z-3.186
X25.017 Y13.856 Z-3.185
X25.524 Y12.89 Z-3.183
X25.689 Y12.558 Z-3.182
X25.762 Y12.406 Z-3.184
X26.213 Y11.425 Z-3.182
X26.439 Y10.882 Z-3.183
X26.8 Y9.966 Z-3.182
X27.141 Y8.994 Z-3.181
X27.341 Y8.364 Z-3.185
X27.585 Y7.536 Z-3.182
X27.851 Y6.472 Z-3.185
X27.945 Y6.067 Z-3.183
X28.159 Y4.964
X28.218 Y4.619 Z-3.182
X28.236 Y4.501 Z-3.183
X28.371 Y3.576 Z-3.185
X28.419 Y3.16 Z-3.184
X28.441 Y2.931
X28.521 Y2.055 Z-3.183
X28.565 Y1.215
G02 X28.508 Y-2.224 I-26.787 J-1.274
G01 X28.421 Y-3.14 Z-3.184
X28.314 Y-3.145 Z-3.078
X28.26 Y-3.62 Z-3.08
X28.147 Y-4.383 Z-3.077
G02 X27.186 Y-8.508 I-26.782 J4.063
G01 X27.112 Y-8.739 Z-3.075
X27.029 Y-8.994
X26.686 Y-9.966 Z-3.077
G02 X25.407 Y-12.883 I-25.925 J9.624
G01 X24.946 Y-13.764 Z-3.078
X24.9 Y-13.846
X24.351 Y-14.785 Z-3.08
X23.939 Y-15.441 Z-3.079
X23.397 Y-16.257 Z-3.078
G02 X18.632 Y-21.549 I-23.614 J16.469
G01 X17.838 Y-22.214 Z-3.076
X17.027 Y-22.839 Z-3.08
X16.773 Y-23.03 Z-3.079
G02 X14.686 Y-24.41 I-17.033 J23.483
G01 X14.379 Y-24.592 Z-3.076
X14.278 Y-24.65 Z-3.077
X13.252 Y-25.22 Z-3.078
X13.179 Y-25.258 Z-3.077
X13.126 Y-25.28 Z-3.082
X13.084 Y-25.305 Z-3.078
X13.031 Y-25.332 Z-3.077
X12.31 Y-25.69 Z-3.078
X12.159 Y-25.762 Z-3.08
X11.93 Y-25.87 Z-3.078
G02 X6.415 Y-27.755 I-12.035 J26.204
G01 X5.591 Y-27.935 Z-3.076
X5.485 Y-27.955
X4.385 Y-28.146 Z-3.078
X3.91 Y-28.218
X3.06 Y-28.322
X2.674 Y-28.364 Z-3.076
X2.603 Y-28.37 Z-3.077
G02 X-2.892 Y-28.34 I-2.596 J28.687
G01 X-3.144 Y-28.313 Z-3.078
X-3.907 Y-28.219 Z-3.077
X-4.131 Y-28.189 Z-3.078
X-5.374 Y-27.977 Z-3.076
X-5.586 Y-27.936
X-6.02 Y-27.842 Z-3.078
X-6.555 Y-27.723 Z-3.079
X-6.823 Y-27.657 Z-3.077
X-7.049 Y-27.6 Z-3.076
X-8.009 Y-27.34 Z-3.077
X-8.32 Y-27.248 Z-3.079
G02 X-13.321 Y-25.183 I8.631 J28.
G01 X-14.379 Y-24.592 Z-3.076
X-14.828 Y-24.323 Z-3.079
G02 X-21.541 Y-18.641 I14.767 J24.251
G01 X-21.775 Y-18.371 Z-3.075
X-22.212 Y-17.835 Z-3.079
X-22.695 Y-17.219 Z-3.078
X-23.46 Y-16.167 Z-3.077
X-24.038 Y-15.287 Z-3.078
X-24.41 Y-14.687 Z-3.08
X-24.94 Y-13.775 Z-3.078
X-25.524 Y-12.651 Z-3.077
X-25.757 Y-12.164 Z-3.078
X-26.071 Y-11.484 Z-3.075
X-26.097 Y-11.425
X-26.301 Y-10.939 Z-3.078
X-26.686 Y-9.966 Z-3.076
X-26.857 Y-9.491 Z-3.078
X-27.029 Y-8.994 Z-3.075
X-27.112 Y-8.741
X-27.325 Y-8.049 Z-3.078
X-27.472 Y-7.542 Z-3.077
G02 X-28.475 Y-.862 I27.914 J7.606
G01 X-28.481 Y-.729 Z-3.076
X-28.485 Y.328 Z-3.079
X-28.479 Y.729 Z-3.077
X-28.421 Y1.974 Z-3.076
X-28.323 Y3.043 Z-3.078
X-28.255 Y3.646 Z-3.079
X-28.091 Y4.736 Z-3.076
X-28.055 Y4.946
X-28.032 Y5.073 Z-3.077
X-27.854 Y5.977
X-27.835 Y6.069 Z-3.078
X-27.656 Y6.824 Z-3.079
X-27.554 Y7.23 Z-3.077
X-27.478 Y7.526 Z-3.076
G02 X-25.407 Y12.883 I27.708 J-7.63
G01 X-24.899 Y13.846 Z-3.079
X-24.326 Y14.828
X-23.939 Y15.441
X-23.376 Y16.287 Z-3.078
X-22.642 Y17.292 Z-3.076
X-21.918 Y18.198 Z-3.079
X-21.48 Y18.71 Z-3.078
G02 X-14.687 Y24.41 I21.448 J-18.663
G01 X-14.38 Y24.593 Z-3.075
X-14.277 Y24.652 Z-3.076
X-13.289 Y25.199 Z-3.079
X-12.31 Y25.69 Z-3.078
X-11.829 Y25.916 Z-3.077
X-10.804 Y26.361 Z-3.079
X-9.664 Y26.799 Z-3.078
X-9.484 Y26.865 Z-3.076
X-9.432 Y26.884
X-9.136 Y26.982 Z-3.077
X-8.424 Y27.215 Z-3.08
X-7.932 Y27.361 Z-3.077
X-7.049 Y27.6 Z-3.076
X-6.825 Y27.657
X-6.564 Y27.722 Z-3.078
X-6.451 Y27.747
X-5.617 Y27.929 Z-3.077
G02 X-1.215 Y28.462 I5.692 J-28.557
G01 X.044 Y28.488 Z-3.074
X.243 Y28.486 Z-3.076
X1.215 Y28.462
X1.447 Y28.452 Z-3.075
X1.702 Y28.436 Z-3.078
G02 X6.531 Y27.73 I-1.747 J-28.805
G01 X7.014 Y27.61 Z-3.075
X8.009 Y27.339 Z-3.077
X8.508 Y27.188 Z-3.079
X9.426 Y26.886 Z-3.076
X9.479 Y26.867 Z-3.077
X10.449 Y26.501
G02 X12.348 Y25.671 I-9.322 J-23.923
G01 X13.083 Y25.304 Z-3.078
X13.125 Y25.279 Z-3.082
X13.15 Y25.271 Z-3.079
X13.178 Y25.258 Z-3.078
X13.321 Y25.183
X13.369 Y25.157
X14.38 Y24.593 Z-3.075
X14.687 Y24.41 Z-3.078
G02 X20.662 Y19.611 I-14.678 J-24.393
G01 X20.861 Y19.403 Z-3.075
X21.541 Y18.64 Z-3.078
X21.995 Y18.105 Z-3.079
X22.697 Y17.218 Z-3.077
X23.459 Y16.167 Z-3.079
X24.038 Y15.287 Z-3.078
G02 X26.142 Y11.316 I-23.071 J-14.768
G01 X26.495 Y10.458 Z-3.076
X26.719 Y9.881 Z-3.077
X27.029 Y8.994 Z-3.075
X27.275 Y8.215 Z-3.079
X27.325 Y8.049
X27.473 Y7.544 Z-3.076
X27.763 Y6.381 Z-3.079
X27.833 Y6.077 Z-3.077
G02 X28.255 Y3.646 I-29.991 J-6.457
G01 X28.268 Y3.534 Z-3.079
X28.311 Y3.16 Z-3.078
G02 X28.484 Y-.184 I-27.593 J-3.104
G01 X28.481 Y-.729 Z-3.076
X28.46 Y-1.215 Z-3.079
X28.441 Y-1.582 Z-3.077
X28.402 Y-2.227
X28.314 Y-3.145 Z-3.078
X28.205 Y-3.16 Z-2.972
X28.149 Y-3.646 Z-2.974
X28.057 Y-4.266 Z-2.972
G02 X27.346 Y-7.597 I-27.604 J4.149
G01 X27.041 Y-8.613 Z-2.97
X26.809 Y-9.307 Z-2.971
X26.572 Y-9.966 Z-2.97
G02 X25.288 Y-12.883 I-27.437 J10.341
G01 X24.867 Y-13.686 Z-2.972
X24.806 Y-13.797
X24.246 Y-14.754 Z-2.974
X23.907 Y-15.295 Z-2.972
X23.579 Y-15.795
X23.383 Y-16.091 Z-2.971
X22.607 Y-17.16 Z-2.972
X21.919 Y-18.03 Z-2.973
X21.662 Y-18.34 Z-2.97
X21.017 Y-19.072 Z-2.972
X20.462 Y-19.665
X20.068 Y-20.068
G02 X18.413 Y-21.596 I-19.057 J18.989
G01 X17.763 Y-22.139 Z-2.97
X16.773 Y-22.897 Z-2.973
X16.287 Y-23.241 Z-2.972
X15.8 Y-23.576 Z-2.971
X15.404 Y-23.838 Z-2.973
X15.314 Y-23.896 Z-2.972
X14.609 Y-24.332 Z-2.974
X14.342 Y-24.491 Z-2.971
X14.237 Y-24.551
X13.215 Y-25.119 Z-2.972
X13.084 Y-25.187 Z-2.971
X13.048 Y-25.202 Z-2.974
X13.019 Y-25.219 Z-2.971
X12.983 Y-25.238
X12.412 Y-25.521 Z-2.972
X12.077 Y-25.684 Z-2.974
X11.911 Y-25.761 Z-2.973
X11.74 Y-25.839 Z-2.971
X10.723 Y-26.28 Z-2.972
X9.844 Y-26.619 Z-2.973
X9.309 Y-26.811 Z-2.972
X8.37 Y-27.12 Z-2.974
X8.152 Y-27.187 Z-2.973
X8.022 Y-27.226 Z-2.971
X7.536 Y-27.359
X7.049 Y-27.49 Z-2.97
X6.395 Y-27.651 Z-2.973
X5.54 Y-27.837 Z-2.97
X4.268 Y-28.058 Z-2.973
X3.726 Y-28.134 Z-2.971
G02 X.243 Y-28.379 I-3.657 J27.101
G01 X-.122 Y-28.381 Z-2.969
X-.243 Y-28.379 Z-2.97
X-1.306 Y-28.351 Z-2.971
X-1.702 Y-28.33 Z-2.972
X-2.674 Y-28.258 Z-2.97
X-2.947 Y-28.228 Z-2.971
X-3.16 Y-28.204 Z-2.972
X-4.132 Y-28.08 Z-2.973
X-5.369 Y-27.87 Z-2.969
X-5.561 Y-27.833 Z-2.97
X-6.077 Y-27.721 Z-2.972
X-6.711 Y-27.576 Z-2.971
X-7.049 Y-27.49 Z-2.97
X-7.95 Y-27.246 Z-2.971
X-8.022 Y-27.226
X-8.227 Y-27.165 Z-2.972
G02 X-17.599 Y-22.267 I8.23 J27.16
G01 X-17.763 Y-22.139 Z-2.97
X-18.03 Y-21.919 Z-2.973
X-18.174 Y-21.798
X-18.717 Y-21.334
X-19.169 Y-20.927 Z-2.972
G02 X-21.473 Y-18.556 I18.384 J20.175
G01 X-21.699 Y-18.296 Z-2.969
X-21.919 Y-18.03 Z-2.973
X-22.1 Y-17.805
G02 X-24.867 Y-13.686 I21.431 J17.388
G01 X-25.288 Y-12.883 Z-2.971
G02 X-26.749 Y-9.48 I24.892 J12.702
G01 X-26.982 Y-8.795 Z-2.97
X-27.222 Y-8.022 Z-2.972
X-27.386 Y-7.453
G02 X-28.354 Y-1.215 I27.394 J7.446
G01 X-28.375 Y-.729 Z-2.97
X-28.378 Y-.243 Z-2.971
X-28.38 Y.243 Z-2.973
X-28.37 Y.8 Z-2.972
G02 X-28.205 Y3.16 I25.496 J-.602
G01 X-28.161 Y3.539 Z-2.973
X-28.147 Y3.646
X-27.964 Y4.856 Z-2.969
X-27.724 Y6.077 Z-2.972
X-27.616 Y6.545 Z-2.973
X-27.365 Y7.536 Z-2.97
X-27.075 Y8.508
X-26.917 Y8.994
X-26.574 Y9.966 Z-2.969
X-26.123 Y11.093 Z-2.971
G02 X-25.315 Y12.832 I26.574 J-11.298
G01 X-24.805 Y13.797 Z-2.973
X-24.202 Y14.828 Z-2.972
G02 X-22.607 Y17.162 I26.106 J-16.134
G01 X-22.565 Y17.217 Z-2.97
X-21.919 Y18.03 Z-2.973
X-21.375 Y18.669 Z-2.972
X-21.017 Y19.072
G02 X-18.231 Y21.75 I21.338 J-19.415
G01 X-18.029 Y21.919 Z-2.974
X-17.761 Y22.137 Z-2.972
X-17.61 Y22.256 Z-2.973
X-16.661 Y22.981 Z-2.972
X-15.8 Y23.576 Z-2.971
X-15.404 Y23.836 Z-2.973
X-15.21 Y23.961 Z-2.972
X-14.72 Y24.266 Z-2.973
X-14.61 Y24.333 Z-2.972
X-14.319 Y24.506 Z-2.969
X-14.239 Y24.551 Z-2.97
X-14.073 Y24.644 Z-2.971
X-13.374 Y25.033
X-12.725 Y25.366
X-11.911 Y25.763
X-10.826 Y26.237 Z-2.974
X-9.966 Y26.573 Z-2.973
X-9.383 Y26.788 Z-2.97
X-8.37 Y27.12 Z-2.974
X-7.832 Y27.279 Z-2.971
X-7.049 Y27.49 Z-2.97
X-6.418 Y27.646 Z-2.972
X-5.496 Y27.844 Z-2.971
X-5.071 Y27.921 Z-2.969
X-4.132 Y28.082 Z-2.971
X-3.16 Y28.204 Z-2.972
X-2.503 Y28.27 Z-2.971
X-1.702 Y28.33 Z-2.972
X-1.215 Y28.356 Z-2.97
X-.243 Y28.379
X0.0 Y28.382 Z-2.968
X.243 Y28.379 Z-2.97
X1.215 Y28.356
X1.702 Y28.33 Z-2.972
G02 X4.132 Y28.082 I-1.717 J-28.914
G01 X5.071 Y27.921 Z-2.969
X5.483 Y27.846 Z-2.971
X6.545 Y27.617 Z-2.972
X6.699 Y27.58 Z-2.97
X6.857 Y27.542 Z-2.969
X8.022 Y27.224 Z-2.972
X8.508 Y27.076 Z-2.973
X9.383 Y26.788 Z-2.97
X9.446 Y26.766 Z-2.971
X10.373 Y26.416
X10.939 Y26.19 Z-2.972
X11.911 Y25.763 Z-2.97
X12.982 Y25.237 Z-2.972
X13.064 Y25.195 Z-2.973
X13.083 Y25.187 Z-2.972
X13.366 Y25.038 Z-2.971
X14.319 Y24.506 Z-2.969
X14.61 Y24.333 Z-2.972
G02 X20.155 Y19.979 I-14.688 J-24.414
G01 X20.787 Y19.328 Z-2.97
X21.473 Y18.556 Z-2.973
X21.919 Y18.03
X22.607 Y17.162 Z-2.97
X23.317 Y16.185 Z-2.973
X23.947 Y15.233 Z-2.972
X24.051 Y15.069 Z-2.971
X24.196 Y14.838 Z-2.972
X24.772 Y13.856 Z-2.974
X25.336 Y12.79 Z-2.971
G02 X26.187 Y10.939 I-23.804 J-12.062
G01 X26.574 Y9.966 Z-2.969
X26.749 Y9.48 Z-2.972
X26.917 Y8.994 Z-2.97
X27.116 Y8.374 Z-2.972
X27.378 Y7.49 Z-2.97
X27.645 Y6.418 Z-2.974
X27.764 Y5.887 Z-2.971
X27.918 Y5.105
X27.955 Y4.898
X28.004 Y4.619 Z-2.97
X28.165 Y3.501 Z-2.973
X28.205 Y3.16 Z-2.972
X28.226 Y2.946
G02 X28.378 Y-.243 I-26.903 J-2.879
G01 X28.375 Y-.729 Z-2.97
X28.318 Y-1.883
X28.298 Y-2.188 Z-2.972
X28.284 Y-2.345 Z-2.971
X28.205 Y-3.16 Z-2.972
X28.099 Z-2.866
X28.042 Y-3.646 Z-2.867
X27.894 Y-4.619 Z-2.865
X27.78 Y-5.253
X27.589 Y-6.201
X27.398 Y-6.979
X27.217 Y-7.661
X26.964 Y-8.508 Z-2.864
X26.841 Y-8.888 Z-2.863
X26.815 Y-8.966
X26.496 Y-9.866 Z-2.865
X26.194 Y-10.637
X25.892 Y-11.366 Z-2.863
X25.412 Y-12.397 Z-2.866
X25.301 Y-12.62
G02 X23.884 Y-15.133 I-22.912 J11.268
G01 X23.306 Y-16.014 Z-2.865
X22.761 Y-16.773
X22.396 Y-17.259 Z-2.866
X21.843 Y-17.954
X21.624 Y-18.221 Z-2.863
X20.941 Y-18.997 Z-2.866
X20.473 Y-19.5
X19.811 Y-20.176 Z-2.864
X19.204 Y-20.75 Z-2.866
X18.605 Y-21.291 Z-2.867
X17.954 Y-21.844 Z-2.866
X17.687 Y-22.063 Z-2.863
X16.773 Y-22.764 Z-2.867
X16.314 Y-23.093 Z-2.866
G02 X8.213 Y-27.057 I-16.41 J23.273
G01 X8.022 Y-27.116 Z-2.864
X7.88 Y-27.155 Z-2.865
X7.049 Y-27.38 Z-2.864
X6.344 Y-27.553 Z-2.866
X5.484 Y-27.74 Z-2.863
X5.185 Y-27.794
X4.619 Y-27.893 Z-2.865
X4.132 Y-27.972 Z-2.867
X3.16 Y-28.097 Z-2.866
X2.674 Y-28.151 Z-2.864
X1.702 Y-28.223 Z-2.866
X1.029 Y-28.254 Z-2.864
X.129 Y-28.274 Z-2.863
X-.122 Y-28.275
X-.243 Y-28.273 Z-2.864
X-1.029 Y-28.254
G02 X-3.719 Y-28.028 I1.05 J28.644
G01 X-4.088 Y-27.979 Z-2.867
X-4.132 Y-27.972
X-5.355 Y-27.764 Z-2.864
X-6.182 Y-27.59 Z-2.866
X-6.598 Y-27.494
X-7.049 Y-27.38 Z-2.864
X-7.17 Y-27.348
X-8.135 Y-27.082 Z-2.865
X-8.453 Y-26.982 Z-2.867
X-8.861 Y-26.849 Z-2.866
G02 X-15.799 Y-23.448 I8.785 J26.705
G01 X-16.583 Y-22.903 Z-2.868
X-17.229 Y-22.418 Z-2.866
X-17.745 Y-22.016 Z-2.864
X-18.481 Y-21.398 Z-2.867
X-18.997 Y-20.941
X-19.69 Y-20.294 Z-2.864
X-20.289 Y-19.69 Z-2.866
X-20.846 Y-19.1
X-21.624 Y-18.221 Z-2.863
X-22.285 Y-17.402 Z-2.867
X-22.76 Y-16.773 Z-2.865
X-23.307 Y-16.014
X-23.831 Y-15.216 Z-2.867
X-24.255 Y-14.532 Z-2.868
X-24.718 Y-13.736 Z-2.867
X-25.167 Y-12.883 Z-2.865
G02 X-27.252 Y-7.536 I25.341 J12.959
G01 X-27.493 Y-6.598 Z-2.867
X-27.617 Y-6.077 Z-2.864
X-27.809 Y-5.105 Z-2.865
G02 X-28.272 Y-.243 I26.53 J4.979
G01 X-28.274 Y.243 Z-2.867
X-28.259 Y.911 Z-2.865
X-28.215 Y1.854
X-28.198 Y2.127
X-28.192 Y2.188
X-28.083 Y3.288 Z-2.867
X-28.028 Y3.727
X-27.863 Y4.816 Z-2.863
X-27.638 Y5.968 Z-2.866
X-27.503 Y6.559 Z-2.867
X-27.264 Y7.503 Z-2.864
X-26.968 Y8.494
X-26.71 Y9.266 Z-2.865
X-26.461 Y9.966 Z-2.862
X-26.05 Y10.993 Z-2.865
X-25.752 Y11.668
X-25.413 Y12.397 Z-2.864
X-25.289 Y12.649
X-25.21 Y12.802 Z-2.865
X-24.691 Y13.78 Z-2.868
X-24.255 Y14.532 Z-2.867
X-24.078 Y14.828 Z-2.865
X-23.502 Y15.719 Z-2.866
X-23.114 Y16.287
X-22.42 Y17.231 Z-2.864
X-21.843 Y17.954 Z-2.867
X-21.634 Y18.205 Z-2.866
X-21.398 Y18.481
X-20.755 Y19.204 Z-2.863
X-20.176 Y19.806 Z-2.866
X-19.591 Y20.385
X-18.772 Y21.148 Z-2.864
X-17.954 Y21.843 Z-2.867
X-17.745 Y22.013 Z-2.866
G02 X-14.532 Y24.256 I18.098 J-22.505
G01 X-14.272 Y24.411 Z-2.863
X-14.057 Y24.532 Z-2.864
X-13.373 Y24.913 Z-2.865
X-12.646 Y25.286
X-11.911 Y25.646 Z-2.864
X-10.792 Y26.135 Z-2.867
X-9.869 Y26.496
X-9.48 Y26.641 Z-2.865
X-9.335 Y26.692 Z-2.864
X-8.452 Y26.982 Z-2.868
X-7.745 Y27.192 Z-2.865
G02 X-.243 Y28.273 I7.679 J-26.718
G01 X0.0 Y28.276 Z-2.862
X1.36 Y28.243 Z-2.863
X2.404 Y28.171 Z-2.865
X3.16 Y28.097 Z-2.866
X4.132 Y27.975 Z-2.864
X4.979 Y27.829 Z-2.863
X5.391 Y27.755 Z-2.865
X6.183 Y27.59 Z-2.867
X6.82 Y27.441 Z-2.863
X8.022 Y27.113 Z-2.867
X8.508 Y26.964
X9.335 Y26.692 Z-2.864
X9.48 Y26.641 Z-2.865
X10.291 Y26.334
G02 X14.022 Y24.551 I-10.011 J-25.751
G01 X14.272 Y24.411 Z-2.863
X15.133 Y23.884 Z-2.866
G02 X20.129 Y19.854 I-15.045 J-23.765
G01 X20.756 Y19.204 Z-2.864
X21.398 Y18.481 Z-2.867
X21.843 Y17.954
X22.489 Y17.142 Z-2.864
X23.205 Y16.158 Z-2.867
X23.499 Y15.723 Z-2.866
X24.065 Y14.848 Z-2.865
X24.649 Y13.856 Z-2.868
X24.955 Y13.291 Z-2.866
X25.228 Y12.768 Z-2.865
G02 X27.281 Y7.442 I-25.886 J-13.036
G01 X27.55 Y6.356 Z-2.867
X27.674 Y5.796 Z-2.865
X27.803 Y5.14
X27.828 Y5.007
X27.896 Y4.619 Z-2.864
X27.955 Y4.228 Z-2.865
X28.038 Y3.657 Z-2.867
X28.129 Y2.848 Z-2.866
G02 X28.27 Y-.558 I-28.952 J-2.903
G01 X28.268 Y-.729 Z-2.864
X28.214 Y-1.832 Z-2.865
X28.166 Y-2.463
X28.099 Y-3.16 Z-2.866
X27.992 Z-2.759
X27.934 Y-3.646 Z-2.761
X27.793 Y-4.58 Z-2.76
X27.659 Y-5.319 Z-2.759
X27.509 Y-6.077 Z-2.758
X27.311 Y-6.892 Z-2.759
X27.088 Y-7.726 Z-2.76
X26.853 Y-8.508 Z-2.757
X26.642 Y-9.14 Z-2.758
X26.386 Y-9.856 Z-2.759
X26.01 Y-10.81
X25.797 Y-11.318 Z-2.757
X25.524 Y-11.911 Z-2.759
G02 X24.537 Y-13.841 I-28.978 J13.603
G01 X24.065 Y-14.64 Z-2.761
X23.641 Y-15.314 Z-2.76
G02 X19.918 Y-19.918 I-23.669 J15.333
G01 X19.675 Y-20.161 Z-2.757
X18.921 Y-20.866 Z-2.761
X18.406 Y-21.323
X17.612 Y-21.987 Z-2.757
X16.773 Y-22.632 Z-2.761
X16.222 Y-23.028 Z-2.76
X15.454 Y-23.552 Z-2.758
X14.828 Y-23.949 Z-2.76
X14.147 Y-24.357
X13.212 Y-24.88 Z-2.759
X12.924 Y-25.03
X12.894 Y-25.045
X12.397 Y-25.291
X11.921 Y-25.522 Z-2.761
X11.323 Y-25.79 Z-2.759
G02 X6.502 Y-27.407 I-11.229 J25.478
G01 X5.434 Y-27.641 Z-2.757
X4.24 Y-27.847 Z-2.761
X3.646 Y-27.93 Z-2.759
X2.674 Y-28.044 Z-2.757
X1.53 Y-28.126 Z-2.76
X.925 Y-28.151 Z-2.758
X.039 Y-28.168 Z-2.757
X-.122 Y-28.169 Z-2.756
X-.243 Y-28.167 Z-2.758
X-1.215 Y-28.141 Z-2.76
X-1.924 Y-28.1 Z-2.759
X-2.755 Y-28.036 Z-2.758
X-3.625 Y-27.933 Z-2.759
X-4.24 Y-27.847 Z-2.761
X-5.426 Y-27.643 Z-2.758
X-6.503 Y-27.408 Z-2.76
X-7.25 Y-27.216 Z-2.758
X-8.099 Y-26.982 Z-2.759
X-9.141 Y-26.643 Z-2.76
G02 X-14.828 Y-23.948 I9.135 J26.624
G01 X-15.412 Y-23.579 Z-2.758
X-16.287 Y-22.983 Z-2.761
X-16.506 Y-22.826 Z-2.762
X-16.773 Y-22.631 Z-2.761
X-17.612 Y-21.987 Z-2.758
X-18.406 Y-21.323 Z-2.761
X-18.921 Y-20.866
X-19.675 Y-20.161 Z-2.757
X-20.397 Y-19.425 Z-2.76
X-20.866 Y-18.921
X-21.541 Y-18.154 Z-2.757
X-22.121 Y-17.438 Z-2.761
X-22.629 Y-16.773 Z-2.759
X-23.23 Y-15.938
X-23.806 Y-15.055 Z-2.761
X-24.178 Y-14.455
X-24.618 Y-13.696
X-25.059 Y-12.862 Z-2.759
X-25.368 Y-12.242
X-25.829 Y-11.244 Z-2.757
X-26.154 Y-10.453 Z-2.758
X-26.491 Y-9.572 Z-2.76
X-26.766 Y-8.777 Z-2.757
X-27.001 Y-8.022 Z-2.76
X-27.211 Y-7.278
X-27.468 Y-6.249 Z-2.759
X-27.509 Y-6.077 Z-2.758
X-27.552 Y-5.864 Z-2.759
X-27.751 Y-4.822 Z-2.76
G02 X-28.149 Y-1.051 I25.622 J4.609
G01 X-28.162 Y-.729 Z-2.757
X-28.165 Y.453 Z-2.761
X-28.14 Y1.215 Z-2.759
G02 X-27.991 Y3.16 I23.036 J-.796
G01 X-27.955 Y3.468 Z-2.762
X-27.933 Y3.646 Z-2.761
X-27.764 Y4.766 Z-2.757
X-27.583 Y5.706 Z-2.759
X-27.468 Y6.239 Z-2.762
X-27.272 Y7.049 Z-2.759
G02 X-26.692 Y8.994 I27.471 J-7.135
G01 X-26.388 Y9.858 Z-2.757
X-25.973 Y10.901 Z-2.759
X-25.746 Y11.425
X-25.296 Y12.397 Z-2.758
X-24.878 Y13.209 Z-2.76
X-24.535 Y13.84 Z-2.762
X-23.968 Y14.804 Z-2.758
X-23.424 Y15.645 Z-2.76
X-22.983 Y16.287
X-22.414 Y17.066 Z-2.757
X-21.768 Y17.878 Z-2.761
X-21.322 Y18.405
X-20.636 Y19.177 Z-2.757
X-19.917 Y19.917 Z-2.76
X-19.425 Y20.397
X-18.668 Y21.099 Z-2.758
X-17.878 Y21.767 Z-2.761
X-17.259 Y22.261 Z-2.76
G02 X-14.455 Y24.179 I17.787 J-22.996
G01 X-14.224 Y24.316 Z-2.757
X-13.37 Y24.792 Z-2.759
X-12.904 Y25.038 Z-2.76
X-11.911 Y25.53 Z-2.758
X-10.816 Y26.01 Z-2.762
X-9.879 Y26.379 Z-2.761
X-9.287 Y26.596 Z-2.758
X-9.167 Y26.636
X-8.528 Y26.846 Z-2.761
X-7.822 Y27.059 Z-2.76
X-6.893 Y27.312 Z-2.757
X-6.563 Y27.395 Z-2.758
G02 X-4.111 Y27.871 I7.496 J-32.06
G01 X-3.12 Y27.995 Z-2.76
X-2.306 Y28.072 Z-2.759
X-1.395 Y28.134 Z-2.758
X-1.215 Y28.143 Z-2.757
X-1.047 Y28.148 Z-2.758
X-.243 Y28.167
X0.0 Y28.17 Z-2.756
X1.308 Y28.14 Z-2.757
X1.618 Y28.122 Z-2.759
X1.702 Y28.117
X2.674 Y28.041 Z-2.761
X3.037 Y28.003 Z-2.76
X3.16 Y27.99
X4.132 Y27.867 Z-2.758
X4.887 Y27.737 Z-2.757
X5.299 Y27.663 Z-2.759
X6.031 Y27.514 Z-2.76
X6.775 Y27.344 Z-2.756
X7.536 Y27.139 Z-2.759
X7.659 Y27.106
X7.98 Y27.014 Z-2.761
X8.088 Y26.982 Z-2.762
X8.465 Y26.866 Z-2.761
X8.508 Y26.853
X9.448 Y26.539 Z-2.759
G02 X17.259 Y22.261 I-9.517 J-26.642
G01 X17.878 Y21.767 Z-2.761
X18.668 Y21.099 Z-2.757
X19.425 Y20.397 Z-2.76
X19.917 Y19.917
X20.662 Y19.149 Z-2.758
X21.322 Y18.405 Z-2.761
X21.768 Y17.879
X22.414 Y17.066 Z-2.757
X23.093 Y16.132 Z-2.762
X23.553 Y15.448 Z-2.76
X23.996 Y14.759 Z-2.759
X24.526 Y13.856 Z-2.762
X24.877 Y13.209 Z-2.76
X25.295 Y12.397 Z-2.758
X25.791 Y11.323 Z-2.76
X26.045 Y10.724 Z-2.759
X26.38 Y9.879 Z-2.757
X26.491 Y9.573 Z-2.759
G02 X27.144 Y7.536 I-30.054 J-10.757
G01 X27.184 Y7.393 Z-2.757
X27.271 Y7.049 Z-2.759
X27.393 Y6.563 Z-2.76
X27.55 Y5.864
X27.741 Y4.891 Z-2.758
X27.789 Y4.619 Z-2.757
X27.805 Y4.514 Z-2.758
X27.955 Y3.467 Z-2.762
X27.991 Y3.16 Z-2.761
X28.032 Y2.751 Z-2.759
X28.104 Y1.945 Z-2.758
X28.159 Y.729 Z-2.761
X28.167 Y.081 Z-2.76
X28.162 Y-.729 Z-2.757
X28.111 Y-1.78 Z-2.759
X28.088 Y-2.121 Z-2.761
X28.083 Y-2.188
X28.048 Y-2.58 Z-2.759
X27.992 Y-3.16
X27.886 Z-2.653
X27.828 Y-3.646 Z-2.655
X27.678 Y-4.619
X27.639 Y-4.844 Z-2.654
X27.593 Y-5.105
X27.4 Y-6.077 Z-2.652
X27.223 Y-6.804 Z-2.653
X27.124 Y-7.191 Z-2.654
X27.052 Y-7.457 Z-2.655
X26.85 Y-8.154 Z-2.653
X26.742 Y-8.508 Z-2.651
X26.662 Y-8.754 Z-2.65
X26.389 Y-9.54 Z-2.654
X26.04 Y-10.453 Z-2.652
X25.702 Y-11.271 Z-2.651
X25.214 Y-12.314 Z-2.655
X25.038 Y-12.668 Z-2.654
G02 X21.693 Y-17.804 I-24.755 J12.464
G01 X21.474 Y-18.071 Z-2.651
X20.791 Y-18.846 Z-2.655
X20.322 Y-19.35
X20.098 Y-19.582 Z-2.654
X19.843 Y-19.843
X19.6 Y-20.086 Z-2.651
X19.516 Y-20.166 Z-2.652
X18.717 Y-20.907 Z-2.655
X18.331 Y-21.248
X17.536 Y-21.912 Z-2.652
X16.627 Y-22.607 Z-2.656
X15.981 Y-23.065 Z-2.653
X15.277 Y-23.542 Z-2.652
X14.342 Y-24.119 Z-2.655
X13.775 Y-24.446 Z-2.653
X13.254 Y-24.736
X13.134 Y-24.802 Z-2.652
X12.883 Y-24.932
X12.397 Y-25.173 Z-2.653
X11.911 Y-25.408 Z-2.655
X11.661 Y-25.524
X10.822 Y-25.893 Z-2.654
X10.562 Y-26.001 Z-2.653
X10.478 Y-26.035 Z-2.652
X9.48 Y-26.412 Z-2.655
X8.693 Y-26.681 Z-2.654
X7.954 Y-26.915 Z-2.652
X7.536 Y-27.029 Z-2.653
X7.049 Y-27.16
X6.414 Y-27.319 Z-2.654
X5.385 Y-27.543 Z-2.65
X4.369 Y-27.718 Z-2.654
X4.132 Y-27.756 Z-2.656
X4.02 Y-27.772
X3.16 Y-27.883 Z-2.654
X2.674 Y-27.938 Z-2.652
X1.643 Y-28.013 Z-2.654
X1.215 Y-28.034 Z-2.655
X.054 Y-28.063 Z-2.65
X-.822 Y-28.047 Z-2.652
X-1.215 Y-28.034 Z-2.655
X-1.535 Y-28.019 Z-2.654
X-2.674 Y-27.938 Z-2.652
X-3.63 Y-27.825 Z-2.654
X-4.132 Y-27.756 Z-2.656
X-5.162 Y-27.583 Z-2.652
X-5.483 Y-27.524
X-6.519 Y-27.294 Z-2.655
X-7.049 Y-27.16 Z-2.652
X-8.083 Y-26.877 Z-2.653
X-9.057 Y-26.559 Z-2.654
X-9.855 Y-26.274 Z-2.655
X-10.478 Y-26.035 Z-2.652
X-10.54 Y-26.01 Z-2.653
X-11.161 Y-25.746
X-11.911 Y-25.407 Z-2.655
X-12.883 Y-24.931 Z-2.652
X-13.134 Y-24.802
X-13.291 Y-24.716 Z-2.653
X-14.069 Y-24.279 Z-2.654
X-14.651 Y-23.933
X-15.314 Y-23.517 Z-2.651
X-16.146 Y-22.952 Z-2.655
X-16.711 Y-22.545
X-17.536 Y-21.912 Z-2.652
X-17.804 Y-21.693 Z-2.654
X-18.068 Y-21.471 Z-2.655
X-18.685 Y-20.936
X-19.351 Y-20.323 Z-2.653
X-19.6 Y-20.086 Z-2.651
X-19.843 Y-19.843 Z-2.654
X-20.069 Y-19.612
X-20.644 Y-19.006
X-21.248 Y-18.331 Z-2.653
X-21.474 Y-18.07 Z-2.651
X-21.693 Y-17.804 Z-2.655
X-21.909 Y-17.534
X-22.114 Y-17.276
X-22.335 Y-16.987
X-22.953 Y-16.146 Z-2.653
X-23.064 Y-15.989
X-23.154 Y-15.862
X-23.729 Y-14.978 Z-2.656
X-24.101 Y-14.377
X-24.452 Y-13.776 Z-2.654
X-24.544 Y-13.611 Z-2.655
X-25.038 Y-12.667 Z-2.654
X-25.289 Y-12.162
X-25.748 Y-11.163 Z-2.651
X-26.04 Y-10.453 Z-2.652
X-26.303 Y-9.773 Z-2.654
X-26.58 Y-8.994 Z-2.652
X-26.682 Y-8.694 Z-2.65
X-26.742 Y-8.508 Z-2.651
X-26.89 Y-8.022 Z-2.654
X-27.124 Y-7.191
X-27.308 Y-6.463
X-27.4 Y-6.077 Z-2.652
X-27.412 Y-6.021
X-27.62 Y-4.953 Z-2.654
X-27.754 Y-4.132 Z-2.653
X-27.826 Y-3.646 Z-2.654
X-27.852 Y-3.454 Z-2.653
X-27.93 Y-2.698
X-27.977 Y-2.188 Z-2.656
X-28.007 Y-1.728 Z-2.653
X-28.035 Y-1.215 Z-2.654
X-28.056 Y-.729 Z-2.652
X-28.06 Y.349 Z-2.655
X-28.034 Y1.215 Z-2.653
X-28.012 Y1.702 Z-2.654
G02 X-27.817 Y3.707 I25.013 J-1.422
G01 X-27.665 Y4.717 Z-2.651
X-27.493 Y5.616 Z-2.653
X-27.339 Y6.325 Z-2.656
X-27.087 Y7.345 Z-2.652
X-26.798 Y8.324 Z-2.653
X-26.496 Y9.235
X-26.234 Y9.966 Z-2.65
X-25.852 Y10.911 Z-2.654
X-25.746 Y11.161 Z-2.655
X-25.629 Y11.425 Z-2.653
X-25.178 Y12.397 Z-2.651
X-24.63 Y13.448 Z-2.656
X-24.47 Y13.737
X-24.41 Y13.844
X-23.931 Y14.661 Z-2.653
X-23.579 Y15.215 Z-2.654
X-23.093 Y15.944 Z-2.656
X-22.952 Y16.146 Z-2.655
X-22.852 Y16.287 Z-2.654
X-22.544 Y16.71 Z-2.653
X-22.338 Y16.99 Z-2.652
X-21.634 Y17.873 Z-2.655
X-21.02 Y18.589 Z-2.654
X-20.792 Y18.847
X-20.561 Y19.102 Z-2.651
X-19.842 Y19.842 Z-2.655
X-19.35 Y20.322
X-18.593 Y21.024 Z-2.652
X-17.745 Y21.739 Z-2.655
X-17.132 Y22.224 Z-2.654
X-16.433 Y22.753 Z-2.653
X-15.568 Y23.346 Z-2.655
X-14.979 Y23.73 Z-2.654
X-14.378 Y24.101 Z-2.653
X-14.177 Y24.221 Z-2.651
X-13.871 Y24.393 Z-2.652
X-13.37 Y24.671 Z-2.653
X-12.811 Y24.965 Z-2.654
X-11.835 Y25.448 Z-2.652
X-10.939 Y25.842 Z-2.654
X-10.562 Y25.998 Z-2.656
X-10.533 Y26.01
X-10.127 Y26.17 Z-2.654
X-9.861 Y26.272 Z-2.655
X-9.48 Y26.415 Z-2.653
X-9.249 Y26.498 Z-2.652
X-8.508 Y26.741 Z-2.654
X-7.951 Y26.912 Z-2.656
X-7.049 Y27.161 Z-2.652
X-6.462 Y27.309 Z-2.653
X-6.077 Y27.395
X-5.591 Y27.498 Z-2.654
X-4.796 Y27.645 Z-2.651
X-4.132 Y27.76 Z-2.652
X-4.086 Y27.767
X-3.662 Y27.822 Z-2.653
X-3.16 Y27.883 Z-2.654
X-2.674 Y27.934 Z-2.656
X-2.207 Y27.973 Z-2.653
X-1.702 Y28.011
X-1.215 Y28.038 Z-2.652
X-.243 Y28.061
X0.0 Y28.064 Z-2.65
X1.256 Y28.036 Z-2.651
X1.565 Y28.019 Z-2.653
X1.702 Y28.011
X2.188 Y27.975
X2.655 Y27.936 Z-2.656
X3.16 Y27.883 Z-2.654
X4.132 Y27.76 Z-2.652
X4.796 Y27.645 Z-2.651
X5.208 Y27.571 Z-2.653
X5.527 Y27.511 Z-2.655
X5.591 Y27.499
X6.52 Y27.296 Z-2.653
X6.749 Y27.241 Z-2.65
X6.88 Y27.206 Z-2.651
X7.573 Y27.019 Z-2.653
X8.153 Y26.851 Z-2.656
X8.508 Y26.741 Z-2.654
X9.24 Y26.501 Z-2.652
X10.126 Y26.17 Z-2.653
X10.532 Y26.01 Z-2.656
X10.849 Y25.88 Z-2.655
X11.835 Y25.447 Z-2.651
X12.883 Y24.929 Z-2.655
X13.112 Y24.809
X13.37 Y24.672 Z-2.653
X13.948 Y24.35 Z-2.652
X14.177 Y24.221 Z-2.651
X14.979 Y23.73 Z-2.654
X15.8 Y23.19 Z-2.653
X16.182 Y22.927 Z-2.654
X16.433 Y22.753 Z-2.653
X17.259 Y22.127 Z-2.654
X17.803 Y21.692 Z-2.656
X18.593 Y21.024 Z-2.651
X19.35 Y20.322 Z-2.655
X19.842 Y19.842
X20.561 Y19.103 Z-2.652
X21.247 Y18.33 Z-2.655
X21.693 Y17.803
X22.338 Y16.99 Z-2.652
X22.952 Y16.146 Z-2.656
X23.347 Y15.568 Z-2.654
X23.828 Y14.828 Z-2.652
X24.196 Y14.213 Z-2.656
X24.543 Y13.607 Z-2.657
X25.038 Y12.674 Z-2.653
X25.289 Y12.163
X25.745 Y11.16 Z-2.655
X25.841 Y10.939 Z-2.654
X25.891 Y10.82 Z-2.653
X26.274 Y9.86 Z-2.651
X26.58 Y8.994 Z-2.652
X26.798 Y8.324 Z-2.653
X27.087 Y7.345 Z-2.651
X27.118 Y7.225 Z-2.652
X27.284 Y6.563 Z-2.654
X27.375 Y6.171 Z-2.656
X27.409 Y6.017
X27.593 Y5.105 Z-2.653
X27.681 Y4.619 Z-2.651
X27.825 Y3.646 Z-2.656
X27.883 Y3.16 Z-2.655
X27.89 Y3.096
X27.933 Y2.674 Z-2.653
X27.979 Y2.188
X27.998 Y1.945 Z-2.652
X28.012 Y1.702 Z-2.654
X28.052 Y.729 Z-2.656
X28.06 Y.349 Z-2.655
X28.062 Y.243
X28.06 Y-.243 Z-2.653
X28.056 Y-.729 Z-2.652
X28.035 Y-1.215 Z-2.654
X28.007 Y-1.728 Z-2.653
X27.977 Y-2.176 Z-2.656
X27.933 Y-2.674 Z-2.653
X27.886 Y-3.16
X27.779 Z-2.547
X27.72 Y-3.646 Z-2.549
X27.569 Y-4.619
X27.488 Y-5.085 Z-2.548
X27.291 Y-6.077 Z-2.546
X27.036 Y-7.103 Z-2.548
X26.833 Y-7.841
X26.573 Y-8.687 Z-2.543
X26.313 Y-9.435 Z-2.548
X26.115 Y-9.966
X25.926 Y-10.453 Z-2.546
X25.81 Y-10.739 Z-2.547
X25.606 Y-11.223 Z-2.544
X25.208 Y-12.082 Z-2.547
X24.809 Y-12.883
X24.557 Y-13.364 Z-2.548
X24.455 Y-13.551 Z-2.547
X23.997 Y-14.342 Z-2.55
X23.495 Y-15.147 Z-2.549
X23.387 Y-15.314 Z-2.548
X23.077 Y-15.785 Z-2.547
X22.607 Y-16.443
X22.121 Y-17.091 Z-2.549
X21.617 Y-17.728
X21.398 Y-17.995 Z-2.545
X20.716 Y-18.771 Z-2.549
X20.176 Y-19.348
X19.525 Y-20.011 Z-2.544
X18.717 Y-20.764 Z-2.55
X18.255 Y-21.172 Z-2.549
X17.993 Y-21.396 Z-2.548
X17.745 Y-21.604
X17.461 Y-21.836 Z-2.545
X16.685 Y-22.43 Z-2.55
X16.068 Y-22.875 Z-2.548
X15.314 Y-23.391 Z-2.546
X14.601 Y-23.838 Z-2.549
X13.991 Y-24.2 Z-2.548
X13.055 Y-24.723 Z-2.545
X12.409 Y-25.049 Z-2.547
X12.063 Y-25.216 Z-2.549
X11.911 Y-25.289
X11.425 Y-25.513 Z-2.548
X10.741 Y-25.812 Z-2.547
X10.453 Y-25.931 Z-2.546
X10.396 Y-25.953
X9.48 Y-26.298 Z-2.549
X8.609 Y-26.597 Z-2.548
X8.022 Y-26.784 Z-2.546
X6.959 Y-27.073 Z-2.547
X6.325 Y-27.23 Z-2.548
X5.363 Y-27.438 Z-2.544
X4.28 Y-27.624 Z-2.549
X3.435 Y-27.743 Z-2.547
X2.572 Y-27.839 Z-2.546
X1.702 Y-27.903 Z-2.548
X1.215 Y-27.927 Z-2.549
X.729 Y-27.943 Z-2.546
X.243 Y-27.955
X-.243
X-.718 Y-27.944
X-1.215 Y-27.927 Z-2.549
X-1.702 Y-27.903 Z-2.548
X-1.757 Y-27.899
X-2.188 Y-27.868 Z-2.546
X-2.674 Y-27.831 Z-2.545
X-3.565 Y-27.726 Z-2.548
X-4.132 Y-27.647 Z-2.55
X-5.105 Y-27.486 Z-2.546
X-5.591 Y-27.392
X-6.468 Y-27.196 Z-2.549
X-7.049 Y-27.05 Z-2.546
X-8.022 Y-26.784
X-8.994 Y-26.468 Z-2.549
X-9.808 Y-26.178 Z-2.548
X-10.521 Y-25.903 Z-2.546
X-11.418 Y-25.517 Z-2.548
X-11.739 Y-25.369 Z-2.549
X-11.911 Y-25.288
X-12.734 Y-24.888 Z-2.546
X-12.883 Y-24.812
X-13.055 Y-24.723 Z-2.545
X-13.991 Y-24.2 Z-2.548
X-14.742 Y-23.752
X-15.288 Y-23.407 Z-2.545
X-16.069 Y-22.875 Z-2.549
X-16.565 Y-22.519 Z-2.551
X-17.259 Y-21.993 Z-2.547
X-17.46 Y-21.836 Z-2.545
X-17.729 Y-21.618 Z-2.548
X-17.993 Y-21.396
X-18.255 Y-21.172 Z-2.549
X-18.4 Y-21.046 Z-2.55
X-19.024 Y-20.482 Z-2.548
X-19.525 Y-20.011 Z-2.544
X-20.247 Y-19.274 Z-2.549
X-20.715 Y-18.771
X-21.398 Y-17.995 Z-2.545
X-21.604 Y-17.745 Z-2.549
X-21.834 Y-17.458
X-22.363 Y-16.773
X-22.877 Y-16.07 Z-2.546
X-23.078 Y-15.785 Z-2.547
X-23.56 Y-15.045 Z-2.55
X-24.023 Y-14.3 Z-2.549
X-24.338 Y-13.76 Z-2.548
X-24.381 Y-13.686 Z-2.547
X-24.553 Y-13.371 Z-2.548
X-24.808 Y-12.883 Z-2.547
G02 X-26.468 Y-8.994 I24.252 J12.648
G01 X-26.598 Y-8.609 Z-2.544
X-26.63 Y-8.508
X-26.894 Y-7.623 Z-2.549
X-27.036 Y-7.103
X-27.232 Y-6.326 Z-2.547
X-27.291 Y-6.077 Z-2.545
X-27.322 Y-5.93 Z-2.546
X-27.39 Y-5.591
X-27.485 Y-5.105 Z-2.548
X-27.624 Y-4.288 Z-2.547
X-27.737 Y-3.512
X-27.754 Y-3.36 Z-2.548
X-27.779 Y-3.16 Z-2.547
X-27.869 Y-2.188 Z-2.55
X-27.929 Y-1.215 Z-2.548
X-27.95 Y-.729 Z-2.546
X-27.954 Y-.243 Z-2.547
X-27.956 Y.239 Z-2.549
X-27.945 Y.72 Z-2.55
X-27.928 Y1.215 Z-2.547
X-27.904 Y1.702 Z-2.546
X-27.878 Y2.111 Z-2.547
X-27.873 Y2.188
X-27.781 Y3.112 Z-2.549
X-27.7 Y3.774 Z-2.548
X-27.566 Y4.667 Z-2.545
X-27.487 Y5.095 Z-2.547
X-27.403 Y5.525
X-27.233 Y6.312 Z-2.55
X-26.982 Y7.326 Z-2.546
X-26.713 Y8.238 Z-2.547
X-26.467 Y8.994
X-26.222 Y9.692 Z-2.545
X-26.12 Y9.966 Z-2.544
X-26.089 Y10.045
X-25.724 Y10.939 Z-2.549
X-25.664 Y11.079
X-25.516 Y11.417 Z-2.548
X-25.053 Y12.412 Z-2.545
X-24.551 Y13.369 Z-2.55
X-24.378 Y13.682 Z-2.551
X-24.28 Y13.856 Z-2.55
X-23.943 Y14.434 Z-2.549
X-23.654 Y14.903 Z-2.546
X-23.075 Y15.782 Z-2.551
X-22.721 Y16.287 Z-2.547
X-22.396 Y16.732 Z-2.546
X-22.262 Y16.914 Z-2.545
X-21.602 Y17.745 Z-2.55
X-21.395 Y17.992
X-21.172 Y18.255 Z-2.549
X-20.485 Y19.027 Z-2.544
X-19.767 Y19.767 Z-2.549
X-19.204 Y20.314
X-18.517 Y20.948 Z-2.545
X-17.727 Y21.616 Z-2.55
X-17.093 Y22.121 Z-2.548
X-16.356 Y22.676 Z-2.547
X-15.49 Y23.269 Z-2.549
X-14.902 Y23.653 Z-2.548
X-14.129 Y24.126 Z-2.545
X-13.922 Y24.242 Z-2.546
X-13.373 Y24.548 Z-2.547
X-12.732 Y24.886 Z-2.548
X-11.755 Y25.368 Z-2.546
X-10.939 Y25.726 Z-2.547
X-10.593 Y25.87 Z-2.55
X-10.453 Y25.927
X-9.692 Y26.222 Z-2.548
X-9.48 Y26.301 Z-2.546
X-9.303 Y26.365
X-8.314 Y26.69 Z-2.549
X-7.865 Y26.825 Z-2.55
X-7.486 Y26.933 Z-2.546
X-7.049 Y27.051 Z-2.545
X-6.436 Y27.206 Z-2.547
X-5.525 Y27.402 Z-2.549
X-4.704 Y27.554 Z-2.545
X-4.132 Y27.652 Z-2.546
X-4.06 Y27.664
X-3.16 Y27.776 Z-2.548
X-2.692 Y27.825 Z-2.55
X-2.571 Y27.836 Z-2.549
X-1.654 Y27.907 Z-2.547
X-1.215 Y27.931 Z-2.545
X-.245 Y27.955 Z-2.546
X-.007 Y27.958 Z-2.544
X.242 Y27.955 Z-2.546
X.729 Y27.943
X1.215 Y27.929 Z-2.544
X1.654 Y27.907 Z-2.547
X1.702 Y27.904
X2.659 Y27.828 Z-2.55
X3.306 Y27.758 Z-2.548
X4.132 Y27.652 Z-2.546
X5.178 Y27.468 Z-2.547
X5.591 Y27.389 Z-2.549
X5.691 Y27.369
X6.563 Y27.177 Z-2.546
X6.724 Y27.138 Z-2.544
X7.486 Y26.933 Z-2.546
X8.022 Y26.779 Z-2.55
X8.314 Y26.69 Z-2.549
X8.508 Y26.629 Z-2.548
X9.303 Y26.365 Z-2.547
X10.044 Y26.088
X10.679 Y25.834 Z-2.55
X10.939 Y25.726 Z-2.547
X11.403 Y25.524
X11.754 Y25.367 Z-2.545
X11.911 Y25.293 Z-2.546
X12.883 Y24.808 Z-2.549
X13.367 Y24.551 Z-2.547
G02 X17.186 Y22.048 I-13.327 J-24.495
G01 X17.745 Y21.602 Z-2.55
X18.517 Y20.948 Z-2.545
X19.275 Y20.247 Z-2.549
X19.843 Y19.69
X20.486 Y19.027 Z-2.545
X21.172 Y18.255 Z-2.549
X21.395 Y17.992 Z-2.55
X21.617 Y17.728
X22.262 Y16.914 Z-2.545
X22.875 Y16.069 Z-2.55
X23.062 Y15.8 Z-2.551
X23.27 Y15.491 Z-2.548
X23.771 Y14.717 Z-2.547
X24.281 Y13.856 Z-2.55
X24.551 Y13.37
X25.053 Y12.412 Z-2.545
X25.502 Y11.447 Z-2.547
X25.81 Y10.738
X26.171 Y9.83 Z-2.545
X26.467 Y8.994 Z-2.547
X26.779 Y8.022 Z-2.548
X26.99 Y7.296 Z-2.545
X27.232 Y6.313 Z-2.549
X27.403 Y5.525 Z-2.547
X27.574 Y4.619 Z-2.544
X27.716 Y3.646 Z-2.549
X27.794 Y2.999 Z-2.548
X27.889 Y1.978 Z-2.546
X27.927 Y1.243 Z-2.547
X27.945 Y.739 Z-2.55
X27.956 Y.248 Z-2.549
X27.954 Y-.243 Z-2.547
X27.95 Y-.725 Z-2.546
X27.93 Y-1.191 Z-2.548
X27.905 Y-1.652 Z-2.547
X27.861 Y-2.281 Z-2.549
X27.826 Y-2.674 Z-2.547
X27.779 Y-3.16
X27.672 Z-2.441
X27.613 Y-3.646 Z-2.443
X27.531 Y-4.195 Z-2.441
X27.468 Y-4.575 Z-2.444
X27.354 Y-5.219 Z-2.441
X27.182 Y-6.077 Z-2.44
X26.949 Y-7.016 Z-2.443
X26.77 Y-7.673
X26.482 Y-8.626 Z-2.437
X26.184 Y-9.48 Z-2.442
X25.811 Y-10.453 Z-2.44
X25.512 Y-11.176 Z-2.439
X25.038 Y-12.188 Z-2.443
X24.689 Y-12.883 Z-2.441
X24.303 Y-13.607 Z-2.44
X23.89 Y-14.312 Z-2.444
X23.385 Y-15.12 Z-2.443
X22.945 Y-15.789 Z-2.441
X22.391 Y-16.557 Z-2.442
X21.856 Y-17.259
X21.323 Y-17.92 Z-2.439
X20.662 Y-18.672 Z-2.443
X20.62 Y-18.717 Z-2.444
X20.176 Y-19.195 Z-2.443
X19.933 Y-19.447 Z-2.442
X19.704 Y-19.682 Z-2.441
X19.45 Y-19.936 Z-2.438
X18.717 Y-20.62 Z-2.444
X18.12 Y-21.148 Z-2.443
X17.917 Y-21.321 Z-2.442
X17.667 Y-21.531
X17.385 Y-21.761 Z-2.439
X16.666 Y-22.312 Z-2.444
X16.558 Y-22.392 Z-2.445
X16.287 Y-22.59 Z-2.446
X15.417 Y-23.195 Z-2.44
X15.314 Y-23.263
X15.123 Y-23.388
X14.256 Y-23.922 Z-2.444
X13.37 Y-24.429 Z-2.44
X12.883 Y-24.694 Z-2.439
X11.911 Y-25.171 Z-2.443
X11.145 Y-25.521 Z-2.441
X10.453 Y-25.817 Z-2.44
X9.48 Y-26.184 Z-2.444
X8.524 Y-26.513 Z-2.442
X7.896 Y-26.71 Z-2.44
X7.049 Y-26.94 Z-2.441
X6.236 Y-27.141 Z-2.442
X5.423 Y-27.318 Z-2.439
X4.626 Y-27.461 Z-2.44
X3.922 Y-27.57 Z-2.445
X3.017 Y-27.686 Z-2.441
X2.674 Y-27.724 Z-2.439
X2.545 Y-27.735 Z-2.44
X1.588 Y-27.802 Z-2.443
X.729 Y-27.837 Z-2.44
X-.096 Y-27.851 Z-2.438
X-1.215 Y-27.821 Z-2.444
X-1.702 Y-27.796 Z-2.443
X-1.831 Y-27.788 Z-2.442
X-2.674 Y-27.724 Z-2.439
X-3.527 Y-27.623 Z-2.442
X-4.132 Y-27.54 Z-2.445
X-4.619 Y-27.462 Z-2.44
X-5.105 Y-27.378 Z-2.439
X-5.366 Y-27.33
X-5.511 Y-27.301 Z-2.44
X-6.462 Y-27.087 Z-2.444
X-6.563 Y-27.062
X-7.049 Y-26.939 Z-2.441
X-8.022 Y-26.673 Z-2.44
X-8.978 Y-26.36 Z-2.443
X-9.76 Y-26.083 Z-2.442
X-10.453 Y-25.817 Z-2.44
X-11.337 Y-25.436 Z-2.442
X-12.188 Y-25.038
X-12.977 Y-24.645 Z-2.439
X-13.913 Y-24.122 Z-2.443
X-14.454 Y-23.803
X-14.818 Y-23.579 Z-2.441
X-15.123 Y-23.388 Z-2.439
X-15.683 Y-23.014 Z-2.441
X-16.287 Y-22.59 Z-2.446
X-16.836 Y-22.184 Z-2.442
X-17.035 Y-22.032
X-17.385 Y-21.761 Z-2.439
X-17.917 Y-21.32 Z-2.442
X-18.438 Y-20.869 Z-2.445
X-18.949 Y-20.407 Z-2.442
X-19.198 Y-20.176 Z-2.441
X-19.45 Y-19.936 Z-2.438
X-19.682 Y-19.704 Z-2.441
X-19.933 Y-19.447 Z-2.442
X-20.168 Y-19.204 Z-2.443
X-20.28 Y-19.083
X-20.64 Y-18.695
X-21.323 Y-17.92 Z-2.439
X-21.857 Y-17.259 Z-2.443
X-22.391 Y-16.557 Z-2.442
X-22.937 Y-15.8 Z-2.441
X-23.385 Y-15.12 Z-2.443
X-23.945 Y-14.222 Z-2.444
X-24.303 Y-13.608 Z-2.441
X-24.689 Y-12.883
X-25.128 Y-12.002 Z-2.442
X-25.521 Y-11.15 Z-2.44
X-25.811 Y-10.453
X-26.184 Y-9.48 Z-2.443
X-26.392 Y-8.89 Z-2.439
X-26.519 Y-8.508 Z-2.438
X-26.79 Y-7.6 Z-2.444
X-27.048 Y-6.629 Z-2.442
X-27.209 Y-5.949 Z-2.44
X-27.376 Y-5.105 Z-2.442
X-27.53 Y-4.194 Z-2.441
X-27.633 Y-3.482 Z-2.442
X-27.656 Y-3.291
X-27.672 Y-3.16 Z-2.441
X-27.762 Y-2.188 Z-2.445
X-27.823 Y-1.215 Z-2.442
X-27.845 Y-.623 Z-2.44
X-27.849 Y.243 Z-2.444
X-27.838 Y.729 Z-2.445
X-27.799 Y1.702 Z-2.441
X-27.766 Y2.188
X-27.668 Y3.16 Z-2.444
X-27.584 Y3.832 Z-2.442
X-27.548 Y4.075 Z-2.441
X-27.467 Y4.617 Z-2.439
X-27.312 Y5.435 Z-2.441
X-27.177 Y6.077 Z-2.445
X-27.091 Y6.455 Z-2.443
X-27.065 Y6.563 Z-2.442
X-26.864 Y7.351 Z-2.44
X-26.628 Y8.153 Z-2.441
X-26.289 Y9.183
X-26.007 Y9.964 Z-2.437
X-25.645 Y10.854 Z-2.443
X-25.398 Y11.419 Z-2.442
X-24.973 Y12.333 Z-2.439
X-24.473 Y13.291 Z-2.444
X-24.158 Y13.856
X-23.738 Y14.568 Z-2.441
X-23.644 Y14.723 Z-2.439
X-23.579 Y14.825 Z-2.44
X-23.013 Y15.683 Z-2.445
X-22.597 Y16.277 Z-2.441
X-22.121 Y16.923 Z-2.44
X-21.556 Y17.634 Z-2.444
X-21.051 Y18.231 Z-2.443
X-20.41 Y18.952 Z-2.438
X-19.698 Y19.685 Z-2.444
X-19.502 Y19.877
X-19.204 Y20.168 Z-2.443
X-18.442 Y20.873 Z-2.439
X-17.666 Y21.528 Z-2.444
X-16.962 Y22.087 Z-2.442
X-16.287 Y22.596 Z-2.441
X-15.8 Y22.933 Z-2.442
X-15.72 Y22.987
X-15.12 Y23.385 Z-2.444
X-14.828 Y23.574 Z-2.442
X-14.525 Y23.762
X-14.082 Y24.031 Z-2.439
X-13.937 Y24.112
X-13.372 Y24.427 Z-2.441
X-12.653 Y24.807 Z-2.442
X-11.793 Y25.232 Z-2.44
X-10.939 Y25.61 Z-2.442
X-10.359 Y25.849 Z-2.444
X-9.966 Y26.005 Z-2.442
X-9.779 Y26.076
X-9.206 Y26.284
X-8.994 Y26.358 Z-2.44
X-8.508 Y26.518 Z-2.442
X-7.778 Y26.739 Z-2.444
X-7.4 Y26.846 Z-2.44
X-7.049 Y26.941 Z-2.439
X-6.631 Y27.05
X-6.563 Y27.067
X-5.591 Y27.28 Z-2.443
X-4.619 Y27.461 Z-2.439
X-4.132 Y27.544 Z-2.44
X-4.034 Y27.56
X-2.936 Y27.692 Z-2.444
X-2.009 Y27.775 Z-2.441
X-1.215 Y27.825 Z-2.439
X0.0 Y27.852 Z-2.437
X1.215 Y27.824 Z-2.438
X1.554 Y27.807 Z-2.441
X1.702 Y27.798
X2.674 Y27.719 Z-2.445
X3.485 Y27.63 Z-2.441
X4.132 Y27.544 Z-2.44
X5.222 Y27.351 Z-2.442
X6.077 Y27.178
X6.698 Y27.035 Z-2.438
X7.4 Y26.846 Z-2.44
X7.499 Y26.818 Z-2.441
X8.022 Y26.667 Z-2.445
X8.427 Y26.543 Z-2.443
X8.508 Y26.518 Z-2.442
X9.304 Y26.252 Z-2.441
X9.48 Y26.188
X9.962 Y26.006
X10.41 Y25.829 Z-2.444
X10.728 Y25.698
X11.674 Y25.287 Z-2.439
X12.397 Y24.935 Z-2.441
X12.883 Y24.687 Z-2.444
X13.139 Y24.551 Z-2.443
X13.368 Y24.43 Z-2.441
X13.856 Y24.158 Z-2.44
X14.082 Y24.031 Z-2.439
X14.819 Y23.579 Z-2.442
X15.562 Y23.093 Z-2.443
X15.787 Y22.941 Z-2.441
X16.28 Y22.601
X16.919 Y22.121 Z-2.442
X17.745 Y21.464 Z-2.444
X18.442 Y20.873 Z-2.439
X18.697 Y20.642 Z-2.441
X18.949 Y20.408
X19.195 Y20.176 Z-2.443
X19.314 Y20.06 Z-2.444
X19.685 Y19.698
X20.411 Y18.952 Z-2.439
X21.051 Y18.231 Z-2.443
X21.624 Y17.55
X22.186 Y16.838 Z-2.439
X22.607 Y16.263 Z-2.442
X23.083 Y15.58 Z-2.444
X23.577 Y14.828 Z-2.44
X23.924 Y14.257 Z-2.443
X24.3 Y13.604 Z-2.446
X24.642 Y12.974 Z-2.441
X24.973 Y12.333 Z-2.439
X25.395 Y11.425 Z-2.442
X25.728 Y10.657 Z-2.441
X25.81 Y10.453 Z-2.44
X26.006 Y9.966 Z-2.437
X26.28 Y9.21 Z-2.441
X26.628 Y8.154
X26.864 Y7.352 Z-2.439
X27.09 Y6.455 Z-2.443
X27.229 Y5.837 Z-2.444
X27.392 Y5.028 Z-2.44
X27.467 Y4.619 Z-2.439
X27.609 Y3.646 Z-2.444
X27.697 Y2.902 Z-2.442
X27.778 Y2.033 Z-2.44
X27.821 Y1.215 Z-2.441
X27.838 Y.737 Z-2.445
X27.848 Y.243 Z-2.443
X27.849 Y.138 Z-2.442
X27.848 Y-.243 Z-2.441
X27.844 Y-.726 Z-2.44
X27.797 Y-1.664 Z-2.442
X27.744 Y-2.398 Z-2.443
X27.719 Y-2.674 Z-2.441
X27.672 Y-3.16
X27.567 Y-3.15 Z-2.335
X27.509 Y-3.626 Z-2.337
X27.438 Y-4.102 Z-2.335
X27.374 Y-4.489 Z-2.338
X27.234 Y-5.28 Z-2.335
X27.073 Y-6.077 Z-2.334
X26.861 Y-6.929 Z-2.337
X26.673 Y-7.624 Z-2.338
X26.429 Y-8.441 Z-2.332
X26.183 Y-9.167 Z-2.334
X25.893 Y-9.948 Z-2.337
X25.697 Y-10.453 Z-2.334
X25.647 Y-10.576 Z-2.335
X25.417 Y-11.128 Z-2.332
X25.204 Y-11.591 Z-2.334
X25.049 Y-11.922 Z-2.336
X24.569 Y-12.883 Z-2.335
X24.225 Y-13.53 Z-2.334
X23.79 Y-14.273 Z-2.339
X23.308 Y-15.043 Z-2.338
X22.847 Y-15.744 Z-2.335
X22.315 Y-16.481 Z-2.337
X22.096 Y-16.773 Z-2.339
X21.895 Y-17.033 Z-2.338
X21.467 Y-17.577 Z-2.336
X21.248 Y-17.845 Z-2.333
X20.583 Y-18.6 Z-2.338
X20.023 Y-19.201 Z-2.337
X19.375 Y-19.861 Z-2.332
X18.717 Y-20.476 Z-2.337
X18.104 Y-21.021 Z-2.338
X17.578 Y-21.467 Z-2.335
X17.31 Y-21.685 Z-2.333
X17.036 Y-21.898 Z-2.336
X16.773 Y-22.099
X16.481 Y-22.315 Z-2.34
X16.208 Y-22.514
X15.34 Y-23.119 Z-2.334
X15.047 Y-23.311
X14.828 Y-23.448 Z-2.335
X14.142 Y-23.865 Z-2.339
X13.856 Y-24.032 Z-2.338
X13.525 Y-24.221 Z-2.334
X12.899 Y-24.567 Z-2.333
X12.734 Y-24.65 Z-2.334
X12.397 Y-24.818 Z-2.335
X11.882 Y-25.067 Z-2.338
X11.584 Y-25.205
X10.751 Y-25.577 Z-2.335
X10.232 Y-25.789 Z-2.334
X9.385 Y-26.105 Z-2.339
X8.44 Y-26.429 Z-2.336
X7.852 Y-26.612 Z-2.335
X7.049 Y-26.829
X6.294 Y-27.018 Z-2.338
X5.483 Y-27.197 Z-2.334
X4.625 Y-27.353 Z-2.335
X3.879 Y-27.468 Z-2.339
X3.16 Y-27.563 Z-2.336
X2.674 Y-27.618 Z-2.333
X1.702 Y-27.689 Z-2.338
X1.215 Y-27.714 Z-2.339
X.983 Y-27.722 Z-2.336
X0.0 Y-27.745 Z-2.331
X-.983 Y-27.722 Z-2.336
X-1.215 Y-27.714 Z-2.338
X-1.702 Y-27.689
X-2.674 Y-27.618 Z-2.333
X-3.646 Y-27.5 Z-2.337
X-3.879 Y-27.468 Z-2.339
X-4.101 Y-27.437 Z-2.34
X-5.105 Y-27.27 Z-2.333
X-5.591 Y-27.175 Z-2.334
X-6.444 Y-26.982 Z-2.339
X-7.22 Y-26.784 Z-2.335
X-8.022 Y-26.562 Z-2.334
X-8.923 Y-26.266 Z-2.338
X-9.739 Y-25.978 Z-2.337
X-10.579 Y-25.651 Z-2.334
X-11.425 Y-25.278 Z-2.337
X-11.853 Y-25.08 Z-2.338
X-11.882 Y-25.066
X-12.397 Y-24.818 Z-2.335
X-12.575 Y-24.73 Z-2.334
X-12.883 Y-24.574 Z-2.333
X-12.927 Y-24.551
X-13.213 Y-24.395 Z-2.334
X-13.525 Y-24.221 Z-2.335
X-14.406 Y-23.708 Z-2.337
X-15.046 Y-23.311 Z-2.334
X-15.34 Y-23.119 Z-2.333
X-15.629 Y-22.922 Z-2.335
X-16.27 Y-22.47 Z-2.341
X-16.481 Y-22.315 Z-2.34
X-16.773 Y-22.099 Z-2.336
X-17.31 Y-21.685 Z-2.333
X-17.578 Y-21.467 Z-2.336
X-17.842 Y-21.245
X-18.51 Y-20.662 Z-2.339
X-19.123 Y-20.1 Z-2.335
X-19.375 Y-19.861 Z-2.332
X-20.02 Y-19.204 Z-2.337
X-20.648 Y-18.527 Z-2.336
X-21.248 Y-17.844 Z-2.333
X-21.721 Y-17.259 Z-2.337
X-21.896 Y-17.034 Z-2.339
X-22.096 Y-16.773
X-22.725 Y-15.918 Z-2.334
X-22.924 Y-15.632 Z-2.335
X-23.495 Y-14.75 Z-2.339
X-23.868 Y-14.144 Z-2.338
X-24.226 Y-13.53 Z-2.335
X-24.569 Y-12.883
X-25.038 Y-11.945 Z-2.337
X-25.204 Y-11.591 Z-2.334
X-25.357 Y-11.258 Z-2.333
X-25.498 Y-10.939
X-25.524 Y-10.876 Z-2.334
X-25.697 Y-10.453
X-26.054 Y-9.524 Z-2.337
X-26.308 Y-8.806 Z-2.332
X-26.408 Y-8.508 Z-2.331
X-26.429 Y-8.441 Z-2.332
X-26.557 Y-8.022 Z-2.335
X-26.583 Y-7.935 Z-2.336
X-26.759 Y-7.312 Z-2.339
X-27.02 Y-6.299 Z-2.335
G02 X-27.566 Y-3.16 I29.838 J6.802
G01 X-27.655 Y-2.188 Z-2.339
X-27.717 Y-1.215 Z-2.336
X-27.738 Y-.729 Z-2.334
X-27.742 Y.243 Z-2.338
X-27.732 Y.729 Z-2.34
X-27.727 Y.876 Z-2.338
X-27.693 Y1.702 Z-2.336
X-27.668 Y2.075 Z-2.335
X-27.66 Y2.188
X-27.561 Y3.16 Z-2.339
X-27.468 Y3.889 Z-2.336
X-27.432 Y4.132 Z-2.334
X-27.359 Y4.617 Z-2.332
X-27.222 Y5.345 Z-2.335
X-27.067 Y6.077 Z-2.34
X-26.982 Y6.449 Z-2.337
X-26.956 Y6.563 Z-2.336
X-26.755 Y7.348 Z-2.334
X-26.543 Y8.068 Z-2.335
X-26.242 Y8.994
X-26.01 Y9.652 Z-2.334
X-25.927 Y9.875 Z-2.332
X-25.893 Y9.964
X-25.787 Y10.229 Z-2.333
X-25.647 Y10.575 Z-2.335
X-25.425 Y11.094 Z-2.338
X-25.278 Y11.425 Z-2.336
X-25.05 Y11.923 Z-2.335
X-24.894 Y12.253 Z-2.333
X-24.822 Y12.397
X-24.394 Y13.212 Z-2.339
X-24.046 Y13.836 Z-2.338
X-23.751 Y14.342 Z-2.336
X-23.545 Y14.681 Z-2.333
X-23.519 Y14.721 Z-2.334
X-23.31 Y15.045 Z-2.336
X-23.117 Y15.338 Z-2.337
X-22.722 Y15.916 Z-2.34
X-22.464 Y16.279 Z-2.335
X-22.11 Y16.763 Z-2.333
X-21.634 Y17.368 Z-2.336
X-21.465 Y17.576 Z-2.338
X-21.243 Y17.84 Z-2.339
X-20.794 Y18.364 Z-2.336
X-20.566 Y18.622 Z-2.335
X-20.335 Y18.877 Z-2.332
X-19.69 Y19.543 Z-2.337
X-19.043 Y20.173
X-18.367 Y20.798 Z-2.334
X-17.575 Y21.464 Z-2.339
X-16.773 Y22.098 Z-2.336
X-16.209 Y22.521 Z-2.335
X-15.8 Y22.804 Z-2.336
X-15.705 Y22.869 Z-2.337
X-15.337 Y23.115 Z-2.339
X-15.043 Y23.308
X-14.448 Y23.685 Z-2.336
X-14.034 Y23.936 Z-2.333
X-13.856 Y24.036
X-13.37 Y24.307 Z-2.335
X-12.573 Y24.727 Z-2.337
X-11.756 Y25.132 Z-2.335
X-10.918 Y25.503 Z-2.336
X-10.337 Y25.743 Z-2.339
X-9.528 Y26.057 Z-2.335
X-8.994 Y26.246 Z-2.334
X-8.508 Y26.406 Z-2.336
X-8.218 Y26.496 Z-2.339
X-7.692 Y26.653 Z-2.338
X-6.956 Y26.856 Z-2.333
X-6.563 Y26.959
X-6.462 Y26.982 Z-2.334
X-5.591 Y27.171 Z-2.338
X-4.526 Y27.369 Z-2.333
X-4.003 Y27.458 Z-2.334
X-3.646 Y27.503 Z-2.335
X-3.16 Y27.562 Z-2.337
X-2.359 Y27.64
X-1.702 Y27.692 Z-2.335
X-1.215 Y27.719 Z-2.333
X-.243 Y27.743 Z-2.334
X0.0 Y27.746 Z-2.331
X.243 Y27.743 Z-2.334
X1.215 Y27.719 Z-2.333
X1.702 Y27.692 Z-2.335
X1.91 Y27.676
X2.674 Y27.612 Z-2.339
X3.16 Y27.562 Z-2.337
X3.527 Y27.517 Z-2.335
X4.132 Y27.437 Z-2.334
X5.281 Y27.231 Z-2.337
X6.077 Y27.07 Z-2.336
X6.672 Y26.932 Z-2.332
X7.692 Y26.653 Z-2.338
X8.508 Y26.406 Z-2.336
X9.096 Y26.213 Z-2.334
X9.88 Y25.923 Z-2.335
X10.367 Y25.731 Z-2.339
X10.453 Y25.696
X10.869 Y25.524 Z-2.337
X10.939 Y25.494 Z-2.336
X11.425 Y25.282 Z-2.334
X11.594 Y25.207 Z-2.333
X11.911 Y25.058 Z-2.334
X12.25 Y24.891 Z-2.335
X12.858 Y24.58 Z-2.338
X13.216 Y24.39 Z-2.336
X13.37 Y24.307 Z-2.335
X13.804 Y24.065 Z-2.334
X14.034 Y23.936 Z-2.333
X14.743 Y23.501 Z-2.336
G02 X18.106 Y21.023 I-13.999 J-22.515
G01 X18.367 Y20.798 Z-2.333
X19.04 Y20.176 Z-2.337
X19.69 Y19.543
X20.336 Y18.878 Z-2.333
X20.91 Y18.231 Z-2.337
X21.465 Y17.576 Z-2.339
X21.898 Y17.037 Z-2.334
X22.103 Y16.773
X22.459 Y16.287 Z-2.335
X22.514 Y16.208 Z-2.336
X22.921 Y15.628 Z-2.34
X23.117 Y15.338 Z-2.337
X23.31 Y15.045 Z-2.336
X23.5 Y14.751 Z-2.334
X23.578 Y14.624 Z-2.335
X24.035 Y13.856 Z-2.338
X24.394 Y13.212 Z-2.339
X24.822 Y12.397 Z-2.333
X25.05 Y11.923 Z-2.334
X25.492 Y10.939 Z-2.338
X25.743 Y10.337 Z-2.333
X25.892 Y9.966 Z-2.331
X25.924 Y9.884 Z-2.332
X26.107 Y9.383 Z-2.335
X26.401 Y8.508 Z-2.337
X26.608 Y7.852 Z-2.336
X26.779 Y7.253 Z-2.335
X26.834 Y7.049 Z-2.334
X26.955 Y6.563 Z-2.336
X27.138 Y5.747 Z-2.338
X27.29 Y4.997 Z-2.334
X27.359 Y4.619 Z-2.332
X27.432 Y4.132 Z-2.334
X27.502 Y3.646 Z-2.339
X27.561 Y3.16
X27.6 Y2.805 Z-2.336
X27.668 Y2.088 Z-2.334
X27.704 Y1.466 Z-2.335
X27.732 Y.729 Z-2.34
X27.742 Y.243 Z-2.338
X27.743 Y.031 Z-2.336
X27.742 Y-.243 Z-2.335
X27.738 Y-.729 Z-2.334
X27.694 Y-1.601 Z-2.336
X27.663 Y-2.073 Z-2.339
X27.655 Y-2.188
X27.567 Y-3.15 Z-2.335
X27.468 Y-3.159 Z-2.238
X27.459 Y-3.16 Z-2.229
X27.405 Y-3.602 Z-2.231
X27.344 Y-4.008 Z-2.23
X27.276 Y-4.427 Z-2.232
X27.159 Y-5.105 Z-2.231
X26.982 Y-5.994 Z-2.228
X26.966 Y-6.071
X26.873 Y-6.454 Z-2.23
X26.587 Y-7.536 Z-2.233
X26.344 Y-8.356 Z-2.226
X26.201 Y-8.789 Z-2.227
X25.924 Y-9.566 Z-2.232
X25.566 Y-10.494 Z-2.228
X25.322 Y-11.081 Z-2.226
X24.935 Y-11.911 Z-2.231
X24.45 Y-12.883 Z-2.229
X24.148 Y-13.452 Z-2.228
X23.654 Y-14.291 Z-2.234
X23.231 Y-14.966 Z-2.232
X23.007 Y-15.314 Z-2.229
X22.848 Y-15.555
X22.721 Y-15.74
X22.649 Y-15.843
X22.121 Y-16.562 Z-2.232
X21.585 Y-17.259 Z-2.23
X21.391 Y-17.502
X21.172 Y-17.769 Z-2.227
X20.662 Y-18.354 Z-2.23
X20.021 Y-19.048 Z-2.233
X19.543 Y-19.543 Z-2.229
X19.3 Y-19.786 Z-2.226
X18.717 Y-20.332 Z-2.231
X18.028 Y-20.945 Z-2.233
X17.793 Y-21.148 Z-2.23
X17.502 Y-21.392 Z-2.229
X17.234 Y-21.61 Z-2.227
X16.694 Y-22.024 Z-2.231
X16.124 Y-22.444 Z-2.235
X15.264 Y-23.043 Z-2.227
X14.735 Y-23.381 Z-2.23
X14.064 Y-23.787 Z-2.233
X13.774 Y-23.956 Z-2.232
X13.447 Y-24.143 Z-2.228
X13.135 Y-24.317
X12.855 Y-24.47 Z-2.227
X12.695 Y-24.551 Z-2.228
X12.397 Y-24.7
X11.911 Y-24.935 Z-2.232
X11.841 Y-24.968 Z-2.233
X11.425 Y-25.161 Z-2.232
X11.176 Y-25.275 Z-2.23
X10.453 Y-25.588 Z-2.227
X9.966 Y-25.777 Z-2.229
X9.334 Y-26.01 Z-2.233
X8.356 Y-26.344 Z-2.23
X8.006 Y-26.456 Z-2.228
X7.868 Y-26.496 Z-2.229
X7.049 Y-26.719 Z-2.23
X6.563 Y-26.842 Z-2.233
X6.47 Y-26.865
X6.077 Y-26.959 Z-2.23
X5.66 Y-27.051 Z-2.228
X5.105 Y-27.162 Z-2.226
X4.165 Y-27.319 Z-2.234
X3.16 Y-27.456 Z-2.23
X2.674 Y-27.512 Z-2.227
X1.702 Y-27.582 Z-2.232
X1.215 Y-27.607 Z-2.233
X.243 Y-27.637 Z-2.227
X0.0 Y-27.639 Z-2.225
X-.243 Y-27.637 Z-2.227
X-1.215 Y-27.607 Z-2.233
X-1.702 Y-27.582 Z-2.232
X-2.674 Y-27.512 Z-2.227
X-3.149 Y-27.457 Z-2.23
X-3.58 Y-27.402 Z-2.231
X-4.132 Y-27.324 Z-2.234
X-5.105 Y-27.163 Z-2.227
X-5.569 Y-27.071 Z-2.228
X-5.977 Y-26.982 Z-2.23
X-6.077 Y-26.96 Z-2.231
X-6.473 Y-26.865 Z-2.233
X-7.049 Y-26.719 Z-2.23
X-7.408 Y-26.624 Z-2.228
X-8.022 Y-26.451
X-8.897 Y-26.163 Z-2.232
X-9.791 Y-25.844 Z-2.23
X-10.499 Y-25.57 Z-2.228
X-11.339 Y-25.2 Z-2.232
X-11.691 Y-25.038 Z-2.233
X-11.911 Y-24.934 Z-2.232
X-12.82 Y-24.488 Z-2.227
X-13.447 Y-24.143 Z-2.229
X-14.342 Y-23.622 Z-2.232
X-14.969 Y-23.234 Z-2.228
X-15.186 Y-23.093
X-15.264 Y-23.042 Z-2.227
X-15.553 Y-22.845 Z-2.229
X-15.84 Y-22.646 Z-2.232
X-16.405 Y-22.239 Z-2.234
X-16.67 Y-22.042 Z-2.231
X-16.764 Y-21.972 Z-2.23
X-17.234 Y-21.61 Z-2.227
X-17.503 Y-21.392 Z-2.229
X-17.767 Y-21.17 Z-2.23
X-18.028 Y-20.945 Z-2.233
X-18.287 Y-20.718 Z-2.234
X-18.799 Y-20.257 Z-2.23
X-19.051 Y-20.023 Z-2.229
X-19.3 Y-19.786 Z-2.226
X-19.873 Y-19.204 Z-2.23
X-20.489 Y-18.544 Z-2.232
X-20.947 Y-18.03 Z-2.228
X-21.172 Y-17.769 Z-2.227
X-21.391 Y-17.502 Z-2.23
X-21.585 Y-17.259
X-21.82 Y-16.958 Z-2.234
X-22.021 Y-16.694
X-22.649 Y-15.842 Z-2.228
X-22.76 Y-15.684 Z-2.229
X-22.848 Y-15.555
X-23.378 Y-14.735 Z-2.233
X-23.79 Y-14.067 Z-2.232
X-24.193 Y-13.37 Z-2.228
X-24.255 Y-13.254 Z-2.229
X-24.45 Y-12.883
X-24.935 Y-11.911 Z-2.231
X-25.277 Y-11.178 Z-2.226
X-25.382 Y-10.939 Z-2.227
X-25.418 Y-10.854 Z-2.228
X-25.582 Y-10.453
X-25.62 Y-10.356 Z-2.229
X-25.971 Y-9.441 Z-2.231
X-26.225 Y-8.723 Z-2.226
X-26.297 Y-8.508 Z-2.225
X-26.328 Y-8.41 Z-2.226
X-26.447 Y-8.022 Z-2.229
X-26.496 Y-7.851 Z-2.231
X-26.719 Y-7.049 Z-2.232
X-26.869 Y-6.472 Z-2.23
X-26.967 Y-6.062 Z-2.228
X-27.086 Y-5.487
X-27.159 Y-5.105 Z-2.231
X-27.244 Y-4.619 Z-2.233
X-27.344 Y-4.008 Z-2.229
X-27.398 Y-3.646 Z-2.23
X-27.406 Y-3.584
X-27.459 Y-3.16 Z-2.228
X-27.506 Y-2.674 Z-2.229
X-27.548 Y-2.188 Z-2.234
X-27.611 Y-1.215 Z-2.23
X-27.632 Y-.729 Z-2.228
X-27.635 Y.243 Z-2.233
X-27.625 Y.729 Z-2.234
X-27.618 Y.94 Z-2.232
X-27.587 Y1.702 Z-2.23
X-27.562 Y2.065 Z-2.229
X-27.553 Y2.188
X-27.503 Y2.708
X-27.468 Y3.025 Z-2.233
X-27.394 Y3.646 Z-2.234
X-27.251 Y4.619 Z-2.226
X-27.132 Y5.254 Z-2.228
X-26.962 Y6.057 Z-2.234
X-26.807 Y6.72 Z-2.229
X-26.699 Y7.151 Z-2.227
X-26.458 Y7.983 Z-2.23
X-26.129 Y8.994
X-25.91 Y9.617 Z-2.227
X-25.705 Y10.148
X-25.4 Y10.884 Z-2.233
X-24.939 Y11.911 Z-2.228
X-24.703 Y12.397 Z-2.227
X-24.315 Y13.133 Z-2.233
X-23.92 Y13.842 Z-2.232
X-23.46 Y14.617 Z-2.227
X-23.04 Y15.261 Z-2.231
X-22.645 Y15.839 Z-2.234
X-22.514 Y16.025 Z-2.232
X-22.327 Y16.287 Z-2.229
X-22.035 Y16.687 Z-2.227
X-21.974 Y16.766
X-21.389 Y17.5 Z-2.233
X-20.719 Y18.288 Z-2.23
X-20.491 Y18.547 Z-2.229
X-20.26 Y18.802 Z-2.226
X-19.69 Y19.392 Z-2.23
X-19.048 Y20.021 Z-2.232
X-18.547 Y20.492 Z-2.229
X-18.292 Y20.723 Z-2.228
X-17.629 Y21.283 Z-2.233
X-16.958 Y21.82 Z-2.232
X-16.287 Y22.333 Z-2.229
X-15.681 Y22.756 Z-2.231
X-14.966 Y23.231 Z-2.233
X-14.213 Y23.705 Z-2.229
X-13.856 Y23.914 Z-2.227
X-13.37 Y24.186 Z-2.228
X-13.111 Y24.324 Z-2.231
X-12.397 Y24.697
X-11.706 Y25.038 Z-2.229
X-11.514 Y25.127 Z-2.228
X-11.425 Y25.167
X-10.607 Y25.517 Z-2.233
X-9.798 Y25.842 Z-2.23
X-9.198 Y26.063 Z-2.229
X-8.994 Y26.135 Z-2.228
X-8.508 Y26.294 Z-2.23
X-7.85 Y26.496 Z-2.234
X-7.049 Y26.721 Z-2.227
X-6.471 Y26.871
X-6.077 Y26.96 Z-2.229
X-5.591 Y27.062 Z-2.232
X-4.428 Y27.278 Z-2.227
X-3.929 Y27.36 Z-2.228
X-3.646 Y27.396
X-3.16 Y27.454 Z-2.231
X-2.674 Y27.504 Z-2.234
X-2.395 Y27.529 Z-2.232
X-1.702 Y27.585 Z-2.229
X-1.215 Y27.613 Z-2.227
X-.243 Y27.637
X0.0 Y27.639 Z-2.225
X.243 Y27.637 Z-2.228
X1.215 Y27.613 Z-2.227
X1.702 Y27.585 Z-2.229
X1.811 Y27.577
X2.674 Y27.504 Z-2.234
X3.147 Y27.456 Z-2.231
X4.011 Y27.347 Z-2.229
X4.841 Y27.205 Z-2.228
X5.591 Y27.063 Z-2.233
X6.077 Y26.961 Z-2.23
X6.456 Y26.875 Z-2.228
X6.549 Y26.853 Z-2.227
X6.646 Y26.829 Z-2.226
X7.536 Y26.586 Z-2.231
X8.299 Y26.359 Z-2.232
X8.508 Y26.294 Z-2.23
X9.048 Y26.117 Z-2.228
X9.798 Y25.841 Z-2.229
X10.453 Y25.58 Z-2.233
X10.887 Y25.4 Z-2.231
X10.939 Y25.378 Z-2.23
X11.425 Y25.166 Z-2.228
X11.514 Y25.127 Z-2.227
X12.171 Y24.811 Z-2.228
X12.883 Y24.445 Z-2.232
X13.11 Y24.325 Z-2.231
X13.37 Y24.186 Z-2.229
X13.732 Y23.984 Z-2.228
X13.987 Y23.841 Z-2.226
X14.67 Y23.421 Z-2.231
X15.314 Y23.002 Z-2.233
X16.128 Y22.448 Z-2.229
X16.672 Y22.043 Z-2.23
X17.531 Y21.363 Z-2.233
X17.745 Y21.187 Z-2.231
X18.03 Y20.947 Z-2.23
X18.292 Y20.723 Z-2.227
X18.886 Y20.176 Z-2.23
X19.541 Y19.541 Z-2.233
X20.261 Y18.803 Z-2.227
X20.769 Y18.231 Z-2.231
X21.389 Y17.5 Z-2.233
X21.969 Y16.773 Z-2.228
X22.444 Y16.124 Z-2.231
X22.844 Y15.551 Z-2.234
X23.233 Y14.968 Z-2.229
X23.424 Y14.673 Z-2.228
X23.557 Y14.457 Z-2.229
X24.05 Y13.613 Z-2.235
X24.484 Y12.816 Z-2.229
X24.814 Y12.174 Z-2.227
X25.272 Y11.174 Z-2.232
X25.565 Y10.494 Z-2.229
X25.843 Y9.799 Z-2.226
X25.96 Y9.48 Z-2.228
X26.01 Y9.339 Z-2.229
X26.289 Y8.508 Z-2.231
X26.496 Y7.856 Z-2.23
X26.687 Y7.187 Z-2.229
X26.846 Y6.563 Z-2.23
X27.018 Y5.798 Z-2.233
X27.187 Y4.966 Z-2.228
X27.21 Y4.846 Z-2.227
X27.251 Y4.619 Z-2.226
X27.394 Y3.646 Z-2.233
X27.453 Y3.16 Z-2.234
X27.503 Y2.708 Z-2.229
X27.56 Y2.096
X27.587 Y1.702 Z-2.23
X27.593 Y1.577 Z-2.229
X27.625 Y.729 Z-2.234
X27.635 Y.243 Z-2.233
X27.632 Y-.729 Z-2.228
X27.589 Y-1.573 Z-2.231
X27.556 Y-2.068 Z-2.234
X27.548 Y-2.188
X27.506 Y-2.674 Z-2.229
X27.459 Y-3.16
X27.353 Y-3.149 Z-2.122
X27.296 Y-3.614 Z-2.125
X27.155 Y-4.506 Z-2.127
X27.05 Y-5.105 Z-2.125
X26.957 Y-5.591 Z-2.122
X26.878 Y-5.976
X26.687 Y-6.754 Z-2.125
X26.476 Y-7.536 Z-2.127
X26.259 Y-8.271 Z-2.121
X26.214 Y-8.415 Z-2.12
X26.172 Y-8.548 Z-2.119
X25.853 Y-9.452 Z-2.126
X25.468 Y-10.453 Z-2.122
X25.227 Y-11.033 Z-2.12
X24.839 Y-11.863 Z-2.126
X24.33 Y-12.883 Z-2.123
X24.239 Y-13.057
X24.072 Y-13.37 Z-2.122
X23.579 Y-14.208 Z-2.128
X23.154 Y-14.889 Z-2.127
X22.88 Y-15.314 Z-2.123
X22.771 Y-15.478 Z-2.122
X22.607 Y-15.718 Z-2.123
X22.573 Y-15.767 Z-2.122
X22.369 Y-16.049 Z-2.123
X22.162 Y-16.328 Z-2.125
X21.634 Y-17.021 Z-2.126
X21.097 Y-17.694 Z-2.121
X20.629 Y-18.231 Z-2.124
X19.945 Y-18.972 Z-2.127
X19.468 Y-19.468 Z-2.123
X19.225 Y-19.711 Z-2.12
X19.204 Y-19.732
X18.594 Y-20.299 Z-2.126
X18.212 Y-20.642 Z-2.129
X17.953 Y-20.87 Z-2.127
X17.427 Y-21.316 Z-2.123
X17.259 Y-21.453 Z-2.122
X17.159 Y-21.534 Z-2.121
X16.679 Y-21.902 Z-2.125
X16.047 Y-22.367 Z-2.129
X15.187 Y-22.966 Z-2.121
X14.714 Y-23.269 Z-2.124
X13.986 Y-23.709 Z-2.128
X13.757 Y-23.842 Z-2.127
X13.37 Y-24.065 Z-2.122
X12.741 Y-24.409 Z-2.121
X11.818 Y-24.861 Z-2.127
X10.939 Y-25.263 Z-2.124
X10.327 Y-25.524 Z-2.122
X9.541 Y-25.821 Z-2.126
X8.637 Y-26.139 Z-2.125
X7.967 Y-26.357 Z-2.122
X7.548 Y-26.476
X6.449 Y-26.76 Z-2.127
X5.591 Y-26.958 Z-2.122
X5.105 Y-27.054 Z-2.12
X4.132 Y-27.215 Z-2.128
X3.062 Y-27.361 Z-2.123
X2.674 Y-27.404 Z-2.12
X2.188 Y-27.443 Z-2.122
X1.725 Y-27.474 Z-2.127
X1.215 Y-27.5 Z-2.128
X.243 Y-27.531 Z-2.121
X0.0 Y-27.533 Z-2.119
X-.243 Y-27.531 Z-2.121
X-1.215 Y-27.499 Z-2.127
X-1.694 Y-27.476
X-2.188 Y-27.443 Z-2.122
X-2.674 Y-27.404 Z-2.12
X-3.485 Y-27.307 Z-2.125
X-4.132 Y-27.215 Z-2.128
X-5.105 Y-27.055 Z-2.121
X-5.571 Y-26.962 Z-2.122
X-6.231 Y-26.813 Z-2.126
X-7.049 Y-26.608 Z-2.124
X-7.902 Y-26.376 Z-2.122
X-8.637 Y-26.139 Z-2.125
X-9.616 Y-25.795 Z-2.126
X-10.453 Y-25.474 Z-2.122
X-11.095 Y-25.194 Z-2.124
X-11.911 Y-24.816 Z-2.126
X-12.397 Y-24.581 Z-2.122
X-12.741 Y-24.409 Z-2.121
X-13.369 Y-24.065 Z-2.122
X-14.204 Y-23.579 Z-2.127
X-14.991 Y-23.093 Z-2.122
X-15.187 Y-22.966 Z-2.121
X-15.476 Y-22.769 Z-2.123
X-16.145 Y-22.296 Z-2.129
X-16.773 Y-21.831 Z-2.123
X-17.159 Y-21.534 Z-2.121
X-17.242 Y-21.467 Z-2.122
X-17.691 Y-21.094 Z-2.124
X-17.952 Y-20.869 Z-2.127
X-18.211 Y-20.642 Z-2.129
X-18.591 Y-20.303 Z-2.126
X-18.717 Y-20.188 Z-2.124
X-19.247 Y-19.69 Z-2.12
X-19.468 Y-19.468 Z-2.123
X-19.708 Y-19.222 Z-2.124
X-20.413 Y-18.468 Z-2.126
X-20.644 Y-18.213 Z-2.123
X-20.872 Y-17.955 Z-2.122
X-21.097 Y-17.694 Z-2.121
X-21.148 Y-17.631 Z-2.122
X-21.513 Y-17.178 Z-2.125
X-21.954 Y-16.606 Z-2.128
X-22.573 Y-15.766 Z-2.122
X-22.879 Y-15.314 Z-2.123
X-23.342 Y-14.591 Z-2.128
X-23.79 Y-13.856 Z-2.125
X-23.892 Y-13.683 Z-2.124
X-24.07 Y-13.374 Z-2.122
X-24.33 Y-12.883 Z-2.123
X-24.601 Y-12.348 Z-2.127
X-24.816 Y-11.911 Z-2.126
X-25.197 Y-11.098 Z-2.12
X-25.468 Y-10.453 Z-2.122
X-25.876 Y-9.39 Z-2.126
X-26.01 Y-9.02 Z-2.122
X-26.141 Y-8.639 Z-2.119
X-26.335 Y-8.022 Z-2.122
X-26.542 Y-7.296 Z-2.128
X-26.785 Y-6.366 Z-2.123
X-26.855 Y-6.077 Z-2.122
X-26.875 Y-5.985
X-27.05 Y-5.105 Z-2.125
X-27.216 Y-4.132
X-27.311 Y-3.489 Z-2.123
X-27.351 Y-3.16 Z-2.121
X-27.392 Y-2.75 Z-2.123
X-27.399 Y-2.674
X-27.441 Y-2.188 Z-2.128
X-27.468 Y-1.78 Z-2.127
X-27.502 Y-1.249 Z-2.124
X-27.518 Y-.899 Z-2.122
X-27.525 Y-.729 Z-2.121
X-27.528 Y.243 Z-2.128
X-27.503 Y1.181 Z-2.125
X-27.481 Y1.689 Z-2.123
X-27.468 Y1.881
X-27.447 Y2.188
X-27.406 Y2.611
X-27.369 Y2.953 Z-2.127
X-27.286 Y3.646 Z-2.128
X-27.161 Y4.505 Z-2.121
X-27.041 Y5.164 Z-2.122
X-26.852 Y6.062 Z-2.129
X-26.679 Y6.796 Z-2.123
X-26.602 Y7.102 Z-2.121
X-26.372 Y7.898 Z-2.124
X-26.022 Y8.979
X-25.76 Y9.717 Z-2.12
X-25.425 Y10.551 Z-2.125
X-25.05 Y11.412 Z-2.124
X-24.734 Y12.094 Z-2.121
X-24.583 Y12.397
X-24.406 Y12.738 Z-2.123
X-23.967 Y13.541 Z-2.129
X-23.579 Y14.214 Z-2.124
X-23.503 Y14.342 Z-2.123
X-23.375 Y14.553 Z-2.121
X-22.899 Y15.278 Z-2.126
X-22.569 Y15.762 Z-2.129
X-22.367 Y16.047 Z-2.125
X-22.196 Y16.287 Z-2.122
X-21.958 Y16.611 Z-2.121
X-21.874 Y16.721
X-21.313 Y17.424 Z-2.127
X-20.628 Y18.231 Z-2.124
X-20.416 Y18.471 Z-2.123
X-20.185 Y18.727 Z-2.12
X-19.581 Y19.35 Z-2.125
X-18.973 Y19.945 Z-2.127
X-18.731 Y20.176 Z-2.123
X-18.472 Y20.416
X-18.217 Y20.648 Z-2.122
X-17.624 Y21.148 Z-2.126
X-16.882 Y21.744
X-16.333 Y22.167 Z-2.123
X-15.8 Y22.546
X-14.888 Y23.153 Z-2.127
X-14.215 Y23.579 Z-2.123
X-13.856 Y23.792 Z-2.121
X-13.367 Y24.065 Z-2.122
X-12.448 Y24.551 Z-2.126
X-11.766 Y24.892 Z-2.122
X-11.469 Y25.031
X-11.434 Y25.047
X-10.939 Y25.263 Z-2.124
X-10.836 Y25.306 Z-2.125
X-10.064 Y25.622 Z-2.127
X-9.716 Y25.759 Z-2.124
X-9.363 Y25.892 Z-2.123
X-8.994 Y26.023 Z-2.121
X-8.508 Y26.182 Z-2.124
X-8.257 Y26.26 Z-2.127
X-8.077 Y26.316 Z-2.128
X-7.928 Y26.361 Z-2.129
X-7.536 Y26.475 Z-2.126
X-7.14 Y26.587 Z-2.122
X-6.45 Y26.767 Z-2.121
X-5.591 Y26.953 Z-2.127
X-4.337 Y27.186 Z-2.121
X-3.856 Y27.262 Z-2.122
X-3.16 Y27.347 Z-2.126
X-2.674 Y27.397 Z-2.128
X-2.608 Y27.403
X-2.188 Y27.44 Z-2.125
X-1.712 Y27.478 Z-2.123
X-1.215 Y27.507 Z-2.121
X0.0 Y27.533 Z-2.119
X.243 Y27.531 Z-2.121
X1.215 Y27.507
X1.702 Y27.479 Z-2.123
X2.188 Y27.44 Z-2.125
X2.674 Y27.396 Z-2.128
X3.286 Y27.332 Z-2.124
X3.917 Y27.253 Z-2.123
X4.337 Y27.186 Z-2.121
X5.591 Y26.954 Z-2.127
X6.367 Y26.786 Z-2.122
X6.621 Y26.726 Z-2.12
X7.14 Y26.587 Z-2.121
X7.519 Y26.48 Z-2.126
X8.212 Y26.274 Z-2.127
X8.508 Y26.182 Z-2.124
X9. Y26.022 Z-2.122
X9.715 Y25.759 Z-2.123
X10.453 Y25.465 Z-2.128
X10.708 Y25.359 Z-2.126
X10.939 Y25.262 Z-2.124
X11.402 Y25.06 Z-2.121
X11.453 Y25.038
X12.092 Y24.732 Z-2.122
X12.883 Y24.324 Z-2.127
X13.368 Y24.065 Z-2.123
X13.543 Y23.968 Z-2.122
X13.794 Y23.827 Z-2.121
X13.939 Y23.745 Z-2.12
X14.593 Y23.344 Z-2.125
X15.314 Y22.873 Z-2.127
X16.051 Y22.372 Z-2.122
X16.226 Y22.245 Z-2.123
X16.333 Y22.167
X17.02 Y21.634 Z-2.127
X17.745 Y21.049 Z-2.125
X18.231 Y20.635 Z-2.121
X18.847 Y20.065 Z-2.125
X19.465 Y19.465 Z-2.127
X19.69 Y19.24 Z-2.123
X19.948 Y18.976 Z-2.122
X20.186 Y18.727 Z-2.121
X20.416 Y18.471 Z-2.123
X20.644 Y18.213 Z-2.125
X21.313 Y17.424 Z-2.127
X21.835 Y16.773 Z-2.122
X22.196 Y16.287 Z-2.123
X22.651 Y15.643 Z-2.129
X23.198 Y14.828 Z-2.123
X23.347 Y14.596 Z-2.121
X23.503 Y14.342 Z-2.123
X23.789 Y13.856 Z-2.126
X24.064 Y13.37 Z-2.13
X24.236 Y13.054 Z-2.127
X24.406 Y12.738 Z-2.123
X24.734 Y12.094 Z-2.121
X25.191 Y11.093 Z-2.127
X25.483 Y10.412 Z-2.123
X25.663 Y9.966 Z-2.12
X25.76 Y9.717
X26.081 Y8.799 Z-2.125
X26.372 Y7.898 Z-2.124
X26.564 Y7.234 Z-2.122
X26.736 Y6.563 Z-2.124
X26.843 Y6.101 Z-2.128
X26.869 Y5.984 Z-2.129
X27.09 Y4.911 Z-2.122
X27.167 Y4.467 Z-2.121
X27.3 Y3.535 Z-2.128
X27.406 Y2.611 Z-2.123
X27.447 Y2.188 Z-2.122
X27.481 Y1.702 Z-2.123
X27.518 Y.729 Z-2.129
X27.525 Y.418 Z-2.128
X27.528 Y.243 Z-2.127
X27.525 Y-.729 Z-2.121
X27.508 Y-1.132 Z-2.123
X27.502 Y-1.249
X27.475 Y-1.685 Z-2.126
X27.441 Y-2.188 Z-2.128
X27.36 Y-3.087 Z-2.123
X27.353 Y-3.149 Z-2.122
X27.246 Y-3.16 Z-2.016
X27.184 Y-3.646 Z-2.018
X26.982 Y-4.876 Z-2.021
X26.831 Y-5.678 Z-2.016
X26.764 Y-6.002 Z-2.015
X26.753 Y-6.049 Z-2.016
X26.499 Y-7.045 Z-2.022
X26.38 Y-7.48
X26.318 Y-7.7 Z-2.02
X26.069 Y-8.523 Z-2.013
X25.757 Y-9.402 Z-2.02
X25.353 Y-10.453 Z-2.016
X25.132 Y-10.986 Z-2.014
X24.737 Y-11.829 Z-2.02
X24.36 Y-12.589 Z-2.019
X23.991 Y-13.296 Z-2.015
X23.634 Y-13.911 Z-2.02
X23.264 Y-14.513 Z-2.023
X22.694 Y-15.402 Z-2.016
X22.435 Y-15.777
X21.876 Y-16.531 Z-2.022
X21.24 Y-17.351 Z-2.018
X20.942 Y-17.712 Z-2.016
X20.495 Y-18.219 Z-2.019
X19.869 Y-18.897 Z-2.021
X19.393 Y-19.393 Z-2.016
X19.094 Y-19.69 Z-2.015
X18.571 Y-20.176 Z-2.02
X17.877 Y-20.794 Z-2.022
X17.259 Y-21.316 Z-2.016
X16.773 Y-21.699 Z-2.018
X16.205 Y-22.121 Z-2.024
X15.4 Y-22.692 Z-2.016
X15.314 Y-22.751
X15.111 Y-22.889 Z-2.014
X14.828 Y-23.073 Z-2.016
X14.678 Y-23.166 Z-2.018
X13.907 Y-23.631 Z-2.022
X13.151 Y-24.065 Z-2.016
X12.662 Y-24.33 Z-2.015
X11.68 Y-24.807 Z-2.022
X10.939 Y-25.146 Z-2.018
X10.335 Y-25.407 Z-2.015
X9.966 Y-25.55 Z-2.017
X9.274 Y-25.804 Z-2.022
X8.508 Y-26.069 Z-2.019
X7.928 Y-26.258 Z-2.015
X7.545 Y-26.367 Z-2.016
X6.413 Y-26.659 Z-2.022
X5.591 Y-26.849 Z-2.016
X5.497 Y-26.869
X5.105 Y-26.946 Z-2.013
X4.294 Y-27.082 Z-2.021
X3.646 Y-27.177
X2.957 Y-27.266 Z-2.016
X2.674 Y-27.297 Z-2.013
X1.808 Y-27.362 Z-2.02
X.789 Y-27.409 Z-2.018
X-.021 Y-27.427 Z-2.013
X-.243 Y-27.424 Z-2.014
X-.674 Y-27.413 Z-2.017
X-1.215 Y-27.392 Z-2.022
X-1.295 Y-27.389
X-2.188 Y-27.336 Z-2.016
X-2.31 Y-27.327
X-2.674 Y-27.297 Z-2.013
X-3.39 Y-27.212 Z-2.019
X-4.132 Y-27.107 Z-2.022
X-5.105 Y-26.947 Z-2.014
X-5.576 Y-26.853 Z-2.016
X-6.397 Y-26.663 Z-2.021
X-7.536 Y-26.369 Z-2.015
X-8.022 Y-26.228 Z-2.016
X-8.683 Y-26.01 Z-2.02
X-9.568 Y-25.699
X-9.95 Y-25.556 Z-2.017
X-10.335 Y-25.407 Z-2.015
X-11.014 Y-25.113 Z-2.018
X-11.911 Y-24.697 Z-2.019
X-12.662 Y-24.33 Z-2.015
X-13.29 Y-23.987 Z-2.017
X-13.994 Y-23.579 Z-2.021
X-14.247 Y-23.429 Z-2.02
X-14.342 Y-23.372
X-14.828 Y-23.072 Z-2.016
X-15.111 Y-22.889 Z-2.014
X-15.247 Y-22.797 Z-2.016
X-15.775 Y-22.43 Z-2.021
X-16.205 Y-22.121 Z-2.024
X-16.287 Y-22.061 Z-2.023
X-16.531 Y-21.879 Z-2.02
X-16.773 Y-21.698 Z-2.017
X-17.083 Y-21.458 Z-2.015
X-17.203 Y-21.361 Z-2.016
X-17.711 Y-20.937 Z-2.02
X-18.218 Y-20.493 Z-2.023
X-18.9 Y-19.873 Z-2.016
X-19.15 Y-19.636 Z-2.014
X-19.204 Y-19.583 Z-2.015
X-19.632 Y-19.146 Z-2.018
X-20.337 Y-18.392 Z-2.02
X-20.797 Y-17.88 Z-2.016
X-21.12 Y-17.498 Z-2.017
X-21.603 Y-16.888 Z-2.022
X-22.086 Y-16.252 Z-2.02
X-22.292 Y-15.972 Z-2.016
X-22.497 Y-15.69 Z-2.015
X-22.752 Y-15.314 Z-2.017
X-23.264 Y-14.513 Z-2.023
X-23.634 Y-13.911 Z-2.02
X-23.991 Y-13.296 Z-2.016
X-24.065 Y-13.158 Z-2.017
X-24.21 Y-12.883
X-24.697 Y-11.911 Z-2.021
X-24.964 Y-11.351 Z-2.015
X-25.206 Y-10.81
X-25.261 Y-10.676
X-25.352 Y-10.453
X-25.77 Y-9.369 Z-2.02
X-26.057 Y-8.555 Z-2.013
X-26.224 Y-8.022 Z-2.016
X-26.312 Y-7.72 Z-2.019
X-26.359 Y-7.557 Z-2.021
X-26.496 Y-7.056 Z-2.022
X-26.599 Y-6.666 Z-2.019
X-26.771 Y-5.964 Z-2.016
X-26.788 Y-5.883
X-26.849 Y-5.591 Z-2.015
X-26.932 Y-5.155 Z-2.019
X-26.982 Y-4.875 Z-2.021
X-27.157 Y-3.821 Z-2.017
X-27.245 Y-3.16 Z-2.015
X-27.332 Y-2.211 Z-2.023
X-27.401 Y-1.148 Z-2.017
X-27.417 Y-.729 Z-2.013
X-27.423 Y-.243 Z-2.016
X-27.422 Y.197 Z-2.022
X-27.421 Y.243
X-27.397 Y1.144 Z-2.02
X-27.365 Y1.843 Z-2.017
X-27.341 Y2.172
X-27.238 Y3.16 Z-2.023
X-27.166 Y3.738 Z-2.021
X-27.036 Y4.619 Z-2.014
X-26.887 Y5.383 Z-2.019
X-26.739 Y6.077 Z-2.023
X-26.666 Y6.393 Z-2.02
X-26.626 Y6.563 Z-2.018
X-26.505 Y7.054 Z-2.015
X-26.287 Y7.812 Z-2.017
X-26.01 Y8.673 Z-2.02
X-25.734 Y9.48 Z-2.014
X-25.677 Y9.634
X-25.549 Y9.966
X-25.243 Y10.706 Z-2.021
X-24.834 Y11.629 Z-2.017
X-24.704 Y11.911 Z-2.015
X-24.655 Y12.014
X-24.327 Y12.659 Z-2.017
X-23.941 Y13.369 Z-2.024
X-23.493 Y14.151 Z-2.018
X-23.399 Y14.309 Z-2.016
X-23.289 Y14.489 Z-2.014
X-23.093 Y14.794 Z-2.017
X-22.886 Y15.107 Z-2.02
X-22.429 Y15.774 Z-2.023
X-21.882 Y16.534 Z-2.015
X-21.456 Y17.08 Z-2.018
X-20.934 Y17.709 Z-2.023
X-20.341 Y18.396 Z-2.016
X-20.048 Y18.717 Z-2.015
X-19.576 Y19.204 Z-2.019
X-18.897 Y19.869 Z-2.021
X-18.397 Y20.341 Z-2.016
X-18.048 Y20.653
X-17.492 Y21.119 Z-2.022
X-16.806 Y21.668 Z-2.021
X-16.14 Y22.177 Z-2.017
X-15.975 Y22.295 Z-2.016
X-15.8 Y22.417 Z-2.017
X-15.105 Y22.884 Z-2.022
X-14.216 Y23.454 Z-2.017
X-14.045 Y23.558 Z-2.016
X-13.891 Y23.651 Z-2.014
X-13.143 Y24.065 Z-2.019
X-12.335 Y24.489 Z-2.02
X-11.686 Y24.813 Z-2.015
X-11.425 Y24.934
X-11.189 Y25.038 Z-2.017
X-10.453 Y25.349 Z-2.022
X-10.021 Y25.524 Z-2.021
X-9.633 Y25.677 Z-2.017
X-8.994 Y25.91 Z-2.014
X-8.42 Y26.098 Z-2.019
X-7.81 Y26.284 Z-2.023
X-7.446 Y26.389 Z-2.02
X-7.072 Y26.495 Z-2.016
X-6.415 Y26.665 Z-2.015
X-5.619 Y26.838 Z-2.021
X-4.658 Y27.022 Z-2.016
X-3.965 Y27.139
X-3.419 Y27.21 Z-2.017
X-2.56 Y27.3 Z-2.022
X-1.611 Y27.378 Z-2.016
X-1.215 Y27.4 Z-2.014
X-1.149 Y27.402 Z-2.015
X.021 Y27.427 Z-2.013
X1.215 Y27.399
X1.611 Y27.378 Z-2.016
X1.702 Y27.372 Z-2.017
X2.674 Y27.288 Z-2.022
X3.419 Y27.21 Z-2.018
X4.013 Y27.132 Z-2.016
X4.871 Y26.982 Z-2.018
X5.739 Y26.814 Z-2.02
X6.455 Y26.657 Z-2.015
X6.595 Y26.623 Z-2.014
X7.036 Y26.505 Z-2.015
X7.703 Y26.315 Z-2.022
X8.508 Y26.071 Z-2.018
X8.994 Y25.911 Z-2.015
X9.633 Y25.676 Z-2.017
X10.453 Y25.349 Z-2.022
X11.188 Y25.038 Z-2.016
X11.425 Y24.934 Z-2.015
X11.686 Y24.812 Z-2.014
X12.397 Y24.458 Z-2.02
X13.368 Y23.944 Z-2.016
X13.781 Y23.713 Z-2.015
X13.891 Y23.65 Z-2.014
X14.515 Y23.266 Z-2.019
X15.314 Y22.745 Z-2.021
X15.975 Y22.295 Z-2.016
X16.217 Y22.121 Z-2.017
X16.257 Y22.091
X16.533 Y21.881 Z-2.018
X16.806 Y21.668 Z-2.021
X17.56 Y21.063
X18.142 Y20.572 Z-2.015
X18.717 Y20.041 Z-2.019
X19.389 Y19.389 Z-2.021
X19.873 Y18.901 Z-2.016
X20.176 Y18.58
X20.568 Y18.137 Z-2.019
X21.31 Y17.259 Z-2.021
X21.788 Y16.659 Z-2.015
X21.882 Y16.535
X22.064 Y16.287 Z-2.016
X22.587 Y15.548 Z-2.024
X23.08 Y14.815 Z-2.017
X23.27 Y14.519 Z-2.015
X23.379 Y14.342 Z-2.016
X23.78 Y13.655 Z-2.022
X24.157 Y12.975 Z-2.021
X24.494 Y12.339 Z-2.015
X24.704 Y11.911
X25.142 Y10.939 Z-2.021
X25.402 Y10.33 Z-2.016
X25.549 Y9.966 Z-2.014
X25.678 Y9.634
X25.903 Y8.994 Z-2.018
X26.257 Y7.908 Z-2.019
X26.287 Y7.813 Z-2.018
X26.396 Y7.448 Z-2.016
X26.495 Y7.087 Z-2.015
X26.508 Y7.037
X26.626 Y6.563 Z-2.018
X26.666 Y6.394 Z-2.02
X26.783 Y5.877 Z-2.023
X26.982 Y4.909 Z-2.016
X27.036 Y4.619 Z-2.013
X27.159 Y3.783 Z-2.02
X27.252 Y3.035 Z-2.022
X27.34 Y2.188 Z-2.016
X27.348 Y2.084 Z-2.017
X27.373 Y1.702 Z-2.016
X27.411 Y.729 Z-2.023
X27.421 Y.291 Z-2.022
X27.422 Y.197
X27.423 Y-.243 Z-2.016
X27.417 Y-.729 Z-2.013
X27.401 Y-1.148 Z-2.017
X27.397 Y-1.215
X27.367 Y-1.702 Z-2.021
X27.335 Y-2.168 Z-2.023
X27.246 Y-3.16 Z-2.016
X27.139 Z-1.91
X27.065 Y-3.729 Z-1.912
X26.883 Y-4.824 Z-1.916
X26.741 Y-5.591 Z-1.909
X26.663 Y-5.968
X26.647 Y-6.035 Z-1.91
X26.41 Y-6.963 Z-1.916
X26.182 Y-7.786 Z-1.913
X25.962 Y-8.508 Z-1.907
X25.648 Y-9.389 Z-1.915
X25.239 Y-10.453 Z-1.91
X25.18 Y-10.595
X25.038 Y-10.937 Z-1.908
X24.728 Y-11.601 Z-1.913
X24.359 Y-12.353 Z-1.915
X24.134 Y-12.798 Z-1.912
X24.082 Y-12.9 Z-1.911
X23.913 Y-13.217 Z-1.909
X23.828 Y-13.37 Z-1.91
X23.373 Y-14.136 Z-1.917
X22.947 Y-14.816 Z-1.915
X22.626 Y-15.314 Z-1.911
X22.508 Y-15.487 Z-1.91
X22.121 Y-16.027 Z-1.912
X21.59 Y-16.729 Z-1.916
X21.378 Y-17.003 Z-1.914
X21.165 Y-17.275 Z-1.912
X20.946 Y-17.543 Z-1.909
X20.494 Y-18.063 Z-1.913
X19.794 Y-18.821 Z-1.916
X19.204 Y-19.433 Z-1.91
X19.075 Y-19.561 Z-1.908
X18.826 Y-19.798 Z-1.911
X18.06 Y-20.491 Z-1.918
X17.276 Y-21.166 Z-1.91
X17.007 Y-21.383 Z-1.909
X16.773 Y-21.565 Z-1.911
X16.049 Y-22.102 Z-1.918
X15.324 Y-22.616 Z-1.91
X15.034 Y-22.813 Z-1.908
X14.828 Y-22.947 Z-1.91
X14.135 Y-23.372 Z-1.916
X13.213 Y-23.908 Z-1.911
X12.957 Y-24.051 Z-1.91
X12.749 Y-24.165 Z-1.909
X12.583 Y-24.251
X12.397 Y-24.344 Z-1.91
X11.425 Y-24.808 Z-1.916
X10.596 Y-25.181 Z-1.91
X10.253 Y-25.325 Z-1.909
X9.48 Y-25.616 Z-1.915
X8.468 Y-25.97 Z-1.913
X7.889 Y-26.159 Z-1.909
X7.536 Y-26.259
X7.196 Y-26.35 Z-1.912
X6.346 Y-26.565 Z-1.916
X5.591 Y-26.74 Z-1.91
X5.105 Y-26.838 Z-1.907
X4.132 Y-26.999 Z-1.917
X3.16 Y-27.134 Z-1.912
X2.862 Y-27.17 Z-1.91
X2.674 Y-27.191 Z-1.908
X1.922 Y-27.248 Z-1.913
X1.215 Y-27.285 Z-1.916
X.243 Y-27.318 Z-1.909
X-.243
X-1.35 Y-27.279 Z-1.917
X-2.188 Y-27.23 Z-1.91
X-2.352 Y-27.217
X-2.674 Y-27.191 Z-1.908
X-3.532 Y-27.085 Z-1.915
X-4.132 Y-26.999 Z-1.917
X-5.105 Y-26.839 Z-1.908
X-5.792 Y-26.697 Z-1.911
X-6.543 Y-26.517 Z-1.916
X-7.536 Y-26.259 Z-1.909
X-8.103 Y-26.091 Z-1.911
X-8.994 Y-25.789 Z-1.916
X-9.732 Y-25.524 Z-1.913
X-10.377 Y-25.274 Z-1.91
X-10.921 Y-25.038 Z-1.913
X-11.911 Y-24.579 Z-1.914
X-12.583 Y-24.251 Z-1.908
X-12.843 Y-24.113 Z-1.909
X-12.883 Y-24.092
X-13.783 Y-23.579 Z-1.916
X-14.342 Y-23.247 Z-1.913
X-15.034 Y-22.813 Z-1.908
X-15.738 Y-22.325 Z-1.916
X-16.455 Y-21.803 Z-1.915
X-16.773 Y-21.564 Z-1.91
X-17.007 Y-21.383 Z-1.909
X-17.277 Y-21.166 Z-1.911
X-18.06 Y-20.491 Z-1.918
X-18.826 Y-19.798 Z-1.911
X-19.075 Y-19.561 Z-1.908
X-19.171 Y-19.465 Z-1.909
X-19.557 Y-19.071 Z-1.913
X-20.262 Y-18.317 Z-1.916
X-20.722 Y-17.805 Z-1.91
X-20.946 Y-17.543 Z-1.909
X-21.165 Y-17.276 Z-1.912
X-21.379 Y-17.003 Z-1.915
X-21.801 Y-16.453 Z-1.917
X-22.286 Y-15.8 Z-1.91
X-22.626 Y-15.314 Z-1.911
X-23.245 Y-14.342 Z-1.917
X-23.488 Y-13.946 Z-1.916
X-23.557 Y-13.833 Z-1.914
X-23.913 Y-13.218 Z-1.91
X-24.09 Y-12.883 Z-1.911
X-24.383 Y-12.306 Z-1.915
X-24.54 Y-11.989 Z-1.916
X-24.884 Y-11.271 Z-1.909
X-25.036 Y-10.939 Z-1.907
X-25.238 Y-10.453 Z-1.91
X-25.668 Y-9.337 Z-1.915
X-25.962 Y-8.508 Z-1.907
X-26.156 Y-7.875 Z-1.912
X-26.387 Y-7.049 Z-1.916
X-26.609 Y-6.19 Z-1.91
X-26.741 Y-5.591 Z-1.909
X-26.928 Y-4.564 Z-1.916
X-27.076 Y-3.646 Z-1.911
X-27.156 Y-2.986 Z-1.91
X-27.226 Y-2.188 Z-1.917
X-27.299 Y-1.046 Z-1.911
X-27.312 Y-.729 Z-1.908
X-27.316 Y.091 Z-1.915
X-27.315 Y.243 Z-1.917
X-27.304 Y.729 Z-1.918
X-27.267 Y1.702 Z-1.91
X-27.233 Y2.188
X-27.13 Y3.16 Z-1.917
X-27.085 Y3.529
X-27.07 Y3.646
X-27.012 Y4.068 Z-1.911
X-27.001 Y4.151 Z-1.91
X-26.928 Y4.619 Z-1.907
X-26.778 Y5.386 Z-1.913
X-26.629 Y6.077 Z-1.917
X-26.535 Y6.485 Z-1.914
X-26.517 Y6.563 Z-1.913
X-26.396 Y7.049 Z-1.909
X-26.201 Y7.727 Z-1.911
X-25.846 Y8.83 Z-1.914
X-25.595 Y9.552 Z-1.908
X-25.32 Y10.249 Z-1.911
X-24.941 Y11.129 Z-1.915
