%
(2(1)-2.NC)
(Date:Sun May 31 09:11:27 2020)
(Machine:mill_3axis FANUC)
(Help QQ:342375517 Tel/vx:18768801158 Created by:Wangrunkai)
N10   
G40 G17 G49 G80
G91 G30 Z0.0
T03 M06
(Name:M8 Number:3)
(D=8.00)
(Stock_part=0.30)
G00 G90 G54 X19.7 Y1.39 M03 S3000
G43 Z11. H03
M08
Z1.
G01 Z-2. F1200.
Y-5.61
X32.95
G02 Y-7.61 I0.0 J-1.
G01 X6.45
G02 X5.45 Y-6.61 I0.0 J1.
X6.45 Y-5.61 I1. J0.0
G01 X19.7
Z1.
G00 Z11.
X-1.494 Y-9.526
Z1.
G01 X-1.339 Y-9.762 Z.924
X.048 Y-11.149 Z.399
X1.686 Y-12.23 Z-.127
X3.506 Y-12.96 Z-.652
X5.437 Y-13.31 Z-1.178
X19.7 Z-5.
X33.2
G03 Y6.09 I0.0 J9.7
G01 X6.2
G03 Y-13.31 I0.0 J-9.7
G01 X19.7
X22.7
Z-2.
G00 Z11.
X32.95
Z-2.
G01 Z-5.
Y-11.91
X6.45
G02 Y-1.31 I0.0 J5.3
G01 X32.95
G02 Y-11.91 I0.0 J-5.3
G01 X29.95 Y-11.921
Z-2.
G00 Z11.
(Name:M8 Number:3)
(D=8.00)
(Stock_part=0.00)
G00 G90 G54 X-1.58 Y-9.938 M03 S3000
Z11.
Z1.
G01 X-1.572 Y-9.95 Z.996 F1200.
X-.14 Y-11.382 Z.453
X1.551 Y-12.498 Z-.089
X3.431 Y-13.251 Z-.632
X5.425 Y-13.61 Z-1.175
X19.7 Z-5.
X33.2
G03 Y6.39 I0.0 J10.
G01 X6.2
G03 Y-13.61 I0.0 J-10.
G01 X19.7
X22.7
Y-11.61
X19.7
X6.45
G02 Y-1.61 I0.0 J5.
G01 X32.95
G02 Y-11.61 I0.0 J-5.
G01 X19.7
Z-2.
G00 Z11.
M09
M05
M01
G91 G30 Z0.0
N20   
G40 G17 G49 G80
T04 M06
(Name:D8.5 Number:4)
(D=8.50)
(Stock_part=0.00)
G00 G90 G54 X19.7 Y3.39 M03 S800
G43 Z-2. H04
M08
G99 G81 Z-17.554 R-2. F100.
G80
G00 Z200. M09
M05
G91 G30 Z0.0
G91 G28 Y0.0
T03 M06
M30
(Help QQ:342375517 Tel/vx:18768801158 Created by:Wangrunkai)
(Time:1.03MIN)
%
